; G-Code generated by Simplify3D(R) Version 4.1.2
; Jun 28, 2021 at 6:19:29 PM
; Settings Summary
;   processName,a_top_u
;   applyToModels,a_top(4),a_top(5),a_top(6),a_top(8)
;   profileName,Default (modified)
;   profileVersion,2016-08-03 08:00:00
;   baseProfile,Raise3D N2 Dual (modified)
;   printMaterial,PLA
;   printQuality,Medium
;   printExtruders,Right Extruder Only
;   extruderName,Extruder_1
;   extruderToolheadNumber,0
;   extruderDiameter,0.8
;   extruderAutoWidth,0
;   extruderWidth,0.8
;   extrusionMultiplier,1
;   extruderUseRetract,1
;   extruderRetractionDistance,4.4
;   extruderExtraRestartDistance,0
;   extruderRetractionZLift,0
;   extruderRetractionSpeed,1200
;   extruderUseCoasting,0
;   extruderCoastingDistance,0.2
;   extruderUseWipe,0
;   extruderWipeDistance,5
;   primaryExtruder,0
;   layerHeight,0.2
;   topSolidLayers,0
;   bottomSolidLayers,0
;   perimeterOutlines,1
;   printPerimetersInsideOut,1
;   startPointOption,2
;   startPointOriginX,0
;   startPointOriginY,0
;   sequentialIslands,1
;   spiralVaseMode,0
;   firstLayerHeightPercentage,100
;   firstLayerWidthPercentage,100
;   firstLayerUnderspeed,1
;   useRaft,0
;   raftExtruder,0
;   raftTopLayers,3
;   raftBaseLayers,2
;   raftOffset,3
;   raftSeparationDistance,0.14
;   raftTopInfill,100
;   aboveRaftSpeedMultiplier,0.3
;   useSkirt,1
;   skirtExtruder,0
;   skirtLayers,1
;   skirtOutlines,2
;   skirtOffset,4
;   usePrimePillar,0
;   primePillarExtruder,999
;   primePillarWidth,12
;   primePillarLocation,7
;   primePillarSpeedMultiplier,1
;   useOozeShield,0
;   oozeShieldExtruder,999
;   oozeShieldOffset,2
;   oozeShieldOutlines,1
;   oozeShieldSidewallShape,1
;   oozeShieldSidewallAngle,30
;   oozeShieldSpeedMultiplier,1
;   infillExtruder,0
;   internalInfillPattern,Rectilinear
;   externalInfillPattern,Rectilinear
;   infillPercentage,100
;   outlineOverlapPercentage,90
;   infillExtrusionWidthPercentage,100
;   minInfillLength,0.01
;   infillLayerInterval,1
;   internalInfillAngles,0
;   overlapInternalInfillAngles,0
;   externalInfillAngles,45,-45
;   generateSupport,0
;   supportExtruder,0
;   supportInfillPercentage,30
;   supportExtraInflation,0
;   supportBaseLayers,0
;   denseSupportExtruder,0
;   denseSupportLayers,0
;   denseSupportInfillPercentage,70
;   supportLayerInterval,1
;   supportHorizontalPartOffset,0.3
;   supportUpperSeparationLayers,1
;   supportLowerSeparationLayers,1
;   supportType,0
;   supportGridSpacing,4
;   maxOverhangAngle,45
;   supportAngles,0
;   temperatureName,Extruder_1
;   temperatureNumber,0
;   temperatureSetpointCount,1
;   temperatureSetpointLayers,1
;   temperatureSetpointTemperatures,200
;   temperatureStabilizeAtStartup,1
;   temperatureHeatedBed,0
;   fanLayers,1,2
;   fanSpeeds,0,100
;   blipFanToFullPower,1
;   adjustSpeedForCooling,0
;   minSpeedLayerTime,15
;   minCoolingSpeedSlowdown,20
;   increaseFanForCooling,0
;   minFanLayerTime,45
;   maxCoolingFanSpeed,100
;   increaseFanForBridging,0
;   bridgingFanSpeed,100
;   use5D,1
;   relativeEdistances,0
;   allowEaxisZeroing,1
;   independentExtruderAxes,0
;   includeM10123,0
;   stickySupport,1
;   applyToolheadOffsets,0
;   gcodeXoffset,0
;   gcodeYoffset,0
;   gcodeZoffset,0
;   overrideMachineDefinition,1
;   machineTypeOverride,0
;   strokeXoverride,305
;   strokeYoverride,305
;   strokeZoverride,305
;   originOffsetXoverride,0
;   originOffsetYoverride,0
;   originOffsetZoverride,0
;   homeXdirOverride,-1
;   homeYdirOverride,-1
;   homeZdirOverride,-1
;   flipXoverride,1
;   flipYoverride,-1
;   flipZoverride,1
;   toolheadOffsets,0,0|-25,0|0,0|0,0|0,0|0,0
;   overrideFirmwareConfiguration,1
;   firmwareTypeOverride,RepRap (Marlin/Repetier/Sprinter)
;   GPXconfigOverride,r2
;   baudRateOverride,230400
;   overridePrinterModels,1
;   printerModelsOverride
;   startingGcode,M221 T1 S100,G28,G1 Z15.0 F9000.00,G92 E0,G1 E25 F200,G1 Z0 F130,G92 E0,M117 Printing.,M1001
;   layerChangeGcode,
;   retractionGcode,
;   toolChangeGcode,
;   endingGcode,M107,M1002,M104 S0 T1,M104 S0 T0,M140 S0,M117 Print Complete.,G28 X0 Y0,G91,G1 Z10,G90,M84
;   exportFileFormat,gcode
;   celebration,0
;   celebrationSong,Random Song
;   postProcessing,
;   defaultSpeed,5000
;   outlineUnderspeed,1
;   solidInfillUnderspeed,1
;   supportUnderspeed,1
;   rapidXYspeed,5000
;   rapidZspeed,1000
;   minBridgingArea,50
;   bridgingExtraInflation,0
;   bridgingExtrusionMultiplier,1
;   bridgingSpeedMultiplier,1
;   useFixedBridgingAngle,0
;   fixedBridgingAngle,0
;   applyBridgingToPerimeters,0
;   filamentDiameters,1.75|1.75|1.75|1.75|1.75|1.75
;   filamentPricesPerKg,46|46|46|46|46|46
;   filamentDensities,1.25|1.25|1.25|1.25|1.25|1.25
;   useMinPrintHeight,0
;   minPrintHeight,0
;   useMaxPrintHeight,0
;   maxPrintHeight,0
;   useDiaphragm,0
;   diaphragmLayerInterval,20
;   robustSlicing,1
;   mergeAllIntoSolid,0
;   onlyRetractWhenCrossingOutline,0
;   retractBetweenLayers,0
;   useRetractionMinTravel,1
;   retractionMinTravel,3
;   retractWhileWiping,1
;   onlyWipeOutlines,1
;   avoidCrossingOutline,1
;   maxMovementDetourFactor,400
;   toolChangeRetractionDistance,12
;   toolChangeExtraRestartDistance,-0.5
;   toolChangeRetractionSpeed,600
;   externalThinWallType,0
;   internalThinWallType,2
;   thinWallAllowedOverlapPercentage,100
;   singleExtrusionMinLength,0.01
;   singleExtrusionMinPrintingWidthPercentage,1
;   singleExtrusionMaxPrintingWidthPercentage,200
;   singleExtrusionEndpointExtension,0.01
;   horizontalSizeCompensation,0
G90
M82
M106 S0
M104 S200 T0
M109 S200 T0
M221 T1 S100
G28
G1 Z15.0 F9000.00
G92 E0
G1 E25 F200
G1 Z0 F130
G92 E0
M117 Printing.
M1001
; process a_top_u
; layer 1, Z = 0.200
T0
G92 E0.0000
G1 E-4.4000 F1200
; feature skirt
; tool H0.200 W0.800
G1 Z0.200 F1000
G1 X22.300 Y25.346 F5000
G1 E0.0000 F1200
G92 E0.0000
G1 X25.346 Y22.300 E0.2866 F5000
G1 X279.654 Y22.300 E17.2032
G1 X282.700 Y25.346 E17.4897
G1 X282.700 Y279.654 E34.4064
G1 X279.654 Y282.700 E34.6929
G1 X25.346 Y282.700 E51.6095
G1 X22.300 Y279.654 E51.8961
G1 X22.300 Y25.346 E68.8127
G1 X23.100 Y25.677 F5000
G92 E0.0000
G1 X25.677 Y23.100 E0.2425 F5000
G1 X279.323 Y23.100 E17.1150
G1 X281.900 Y25.677 E17.3575
G1 X281.900 Y279.323 E34.2300
G1 X279.323 Y281.900 E34.4725
G1 X25.677 Y281.900 E51.3450
G1 X23.100 Y279.323 E51.5875
G1 X23.100 Y25.677 E68.4600
G92 E0.0000
G1 E-4.4000 F1200
; process a_bottom_1_v
; feature outer perimeter
G1 X210.525 Y217.025 F5000
G1 E0.0000 F1200
G92 E0.0000
G1 X216.225 Y217.025 E0.3792 F3000
G1 X216.225 Y270.600 E3.9430
G1 X210.525 Y270.600 E4.3222
G1 X210.525 Y217.025 E7.8860
G92 E0.0000
G1 E-4.4000 F1200
; feature infill
G1 X215.700 Y217.105 F5000
G1 E0.0000 F1200
G92 E0.0000
G1 X215.700 Y270.520 E3.5532 F3000
G1 X214.900 Y270.520 E3.6064
G1 X214.900 Y217.105 E7.1596
G1 X214.100 Y217.105 E7.2128
G1 X214.100 Y270.520 E10.7660
G1 X213.300 Y270.520 E10.8192
G1 X213.300 Y217.105 E14.3724
G1 X212.500 Y217.105 E14.4256
G1 X212.500 Y270.520 E17.9788
G1 X211.700 Y270.520 E18.0320
G1 X211.700 Y217.105 E21.5852
G1 X210.900 Y217.105 E21.6384
G1 X210.900 Y270.520 E25.1916
G92 E0.0000
G1 E-4.4000 F1200
; feature outer perimeter
G1 X210.525 Y270.520 F5000
G1 X210.525 Y270.600
G1 X94.475 Y270.600
G1 E0.0000 F1200
G92 E0.0000
G1 X88.775 Y270.600 E0.3792 F3000
G1 X88.775 Y217.025 E3.9430
G1 X94.475 Y217.025 E4.3222
G1 X94.475 Y270.600 E7.8860
G92 E0.0000
G1 E-4.4000 F1200
; feature infill
G1 X89.300 Y270.520 F5000
G1 E0.0000 F1200
G92 E0.0000
G1 X89.300 Y217.105 E3.5532 F3000
G1 X90.100 Y217.105 E3.6064
G1 X90.100 Y270.520 E7.1596
G1 X90.900 Y270.520 E7.2128
G1 X90.900 Y217.105 E10.7660
G1 X91.700 Y217.105 E10.8192
G1 X91.700 Y270.520 E14.3724
G1 X92.500 Y270.520 E14.4256
G1 X92.500 Y217.105 E17.9788
G1 X93.300 Y217.105 E18.0320
G1 X93.300 Y270.520 E21.5852
G1 X94.100 Y270.520 E21.6384
G1 X94.100 Y217.105 E25.1916
G92 E0.0000
G1 E-4.4000 F1200
; feature outer perimeter
G1 X94.172 Y217.025 F5000
G1 X94.475 Y217.025
G1 X210.525 Y87.975
G1 E0.0000 F1200
G92 E0.0000
G1 X210.525 Y34.400 E3.5638 F3000
G1 X216.225 Y34.400 E3.9430
G1 X216.225 Y87.975 E7.5068
G1 X210.525 Y87.975 E7.8860
; feature infill
G1 X210.900 Y87.895 F5000
G92 E0.0000
G1 X210.900 Y34.480 E3.5532 F3000
G1 X211.700 Y34.480 E3.6064
G1 X211.700 Y87.895 E7.1596
G1 X212.500 Y87.895 E7.2128
G1 X212.500 Y34.480 E10.7660
G1 X213.300 Y34.480 E10.8192
G1 X213.300 Y87.895 E14.3724
G1 X214.100 Y87.895 E14.4256
G1 X214.100 Y34.480 E17.9788
G1 X214.900 Y34.480 E18.0320
G1 X214.900 Y87.895 E21.5852
G1 X215.700 Y87.895 E21.6384
G1 X215.700 Y34.480 E25.1916
G92 E0.0000
G1 E-4.4000 F1200
; feature outer perimeter
G1 X210.525 Y34.477 F5000
G1 X210.525 Y34.400
G1 X94.475 Y34.400
G1 E0.0000 F1200
G92 E0.0000
G1 X94.475 Y87.975 E3.5638 F3000
G1 X88.775 Y87.975 E3.9430
G1 X88.775 Y34.400 E7.5068
G1 X94.475 Y34.400 E7.8860
; feature infill
G1 X94.100 Y34.480 F5000
G92 E0.0000
G1 X94.100 Y87.895 E3.5532 F3000
G1 X93.300 Y87.895 E3.6064
G1 X93.300 Y34.480 E7.1596
G1 X92.500 Y34.480 E7.2128
G1 X92.500 Y87.895 E10.7660
G1 X91.700 Y87.895 E10.8192
G1 X91.700 Y34.480 E14.3724
G1 X90.900 Y34.480 E14.4256
G1 X90.900 Y87.895 E17.9788
G1 X90.100 Y87.895 E18.0320
G1 X90.100 Y34.480 E21.5852
G1 X89.300 Y34.480 E21.6384
G1 X89.300 Y87.895 E25.1916
G92 E0.0000
G1 E-4.4000 F1200
; process a_bottom_1_u
; feature outer perimeter
G1 X89.383 Y87.975 F5000
G1 X94.475 Y87.975
G1 X217.025 Y210.525
G1 E0.0000 F1200
G92 E0.0000
G1 X270.600 Y210.525 E3.5638 F3000
G1 X270.600 Y216.225 E3.9430
G1 X217.025 Y216.225 E7.5068
G1 X217.025 Y210.525 E7.8860
; feature infill
G1 X217.105 Y210.900 F5000
G92 E0.0000
G1 X270.520 Y210.900 E3.5532 F3000
G1 X270.520 Y211.700 E3.6064
G1 X217.105 Y211.700 E7.1596
G1 X217.105 Y212.500 E7.2128
G1 X270.520 Y212.500 E10.7660
G1 X270.520 Y213.300 E10.8192
G1 X217.105 Y213.300 E14.3724
G1 X217.105 Y214.100 E14.4256
G1 X270.520 Y214.100 E17.9788
G1 X270.520 Y214.900 E18.0320
G1 X217.105 Y214.900 E21.5852
G1 X217.105 Y215.700 E21.6384
G1 X270.520 Y215.700 E25.1916
G92 E0.0000
G1 E-4.4000 F1200
; feature outer perimeter
G1 X217.025 Y215.854 F5000
G1 X217.025 Y216.225
G1 X87.975 Y216.225
G1 E0.0000 F1200
G92 E0.0000
G1 X34.400 Y216.225 E3.5638 F3000
G1 X34.400 Y210.525 E3.9430
G1 X87.975 Y210.525 E7.5068
G1 X87.975 Y216.225 E7.8860
; feature infill
G1 X87.895 Y215.700 F5000
G92 E0.0000
G1 X34.480 Y215.700 E3.5532 F3000
G1 X34.480 Y214.900 E3.6064
G1 X87.895 Y214.900 E7.1596
G1 X87.895 Y214.100 E7.2128
G1 X34.480 Y214.100 E10.7660
G1 X34.480 Y213.300 E10.8192
G1 X87.895 Y213.300 E14.3724
G1 X87.895 Y212.500 E14.4256
G1 X34.480 Y212.500 E17.9788
G1 X34.480 Y211.700 E18.0320
G1 X87.895 Y211.700 E21.5852
G1 X87.895 Y210.900 E21.6384
G1 X34.480 Y210.900 E25.1916
G92 E0.0000
G1 E-4.4000 F1200
; feature outer perimeter
G1 X35.068 Y210.525 F5000
G1 X87.975 Y210.525
G1 X217.025 Y94.475
G1 E0.0000 F1200
G92 E0.0000
G1 X217.025 Y88.775 E0.3792 F3000
G1 X270.600 Y88.775 E3.9430
G1 X270.600 Y94.475 E4.3222
G1 X217.025 Y94.475 E7.8860
G92 E0.0000
G1 E-4.4000 F1200
; feature infill
G1 X217.105 Y89.300 F5000
G1 E0.0000 F1200
G92 E0.0000
G1 X270.520 Y89.300 E3.5532 F3000
G1 X270.520 Y90.100 E3.6064
G1 X217.105 Y90.100 E7.1596
G1 X217.105 Y90.900 E7.2128
G1 X270.520 Y90.900 E10.7660
G1 X270.520 Y91.700 E10.8192
G1 X217.105 Y91.700 E14.3724
G1 X217.105 Y92.500 E14.4256
G1 X270.520 Y92.500 E17.9788
G1 X270.520 Y93.300 E18.0320
G1 X217.105 Y93.300 E21.5852
G1 X217.105 Y94.100 E21.6384
G1 X270.520 Y94.100 E25.1916
G92 E0.0000
G1 E-4.4000 F1200
; feature outer perimeter
G1 X217.025 Y94.210 F5000
G1 X217.025 Y94.475
G1 X87.975 Y94.475
G1 E0.0000 F1200
G92 E0.0000
G1 X34.400 Y94.475 E3.5638 F3000
G1 X34.400 Y88.775 E3.9430
G1 X87.975 Y88.775 E7.5068
G1 X87.975 Y94.475 E7.8860
; feature infill
G1 X87.895 Y94.100 F5000
G92 E0.0000
G1 X34.480 Y94.100 E3.5532 F3000
G1 X34.480 Y93.300 E3.6064
G1 X87.895 Y93.300 E7.1596
G1 X87.895 Y92.500 E7.2128
G1 X34.480 Y92.500 E10.7660
G1 X34.480 Y91.700 E10.8192
G1 X87.895 Y91.700 E14.3724
G1 X87.895 Y90.900 E14.4256
G1 X34.480 Y90.900 E17.9788
G1 X34.480 Y90.100 E18.0320
G1 X87.895 Y90.100 E21.5852
G1 X87.895 Y89.300 E21.6384
G1 X34.480 Y89.300 E25.1916
G92 E0.0000
G1 E-4.4000 F1200
; process a_bottom_2_u
; feature outer perimeter
G1 X39.575 Y94.475 F5000
G1 X87.975 Y94.475
G1 X213.775 Y271.400
G1 E0.0000 F1200
G92 E0.0000
G1 X270.600 Y271.400 E3.7800 F5000
G1 X270.600 Y277.100 E4.1592
G1 X213.775 Y277.100 E7.9392
G1 X213.775 Y271.400 E8.3184
; feature infill
G1 X213.855 Y271.700 F5000
G92 E0.0000
G1 X270.520 Y271.700 E3.7694 F5000
G1 X270.520 Y272.500 E3.8226
G1 X213.855 Y272.500 E7.5920
G1 X213.855 Y273.300 E7.6452
G1 X270.520 Y273.300 E11.4145
G1 X270.520 Y274.100 E11.4678
G1 X213.855 Y274.100 E15.2371
G1 X213.855 Y274.900 E15.2903
G1 X270.520 Y274.900 E19.0597
G1 X270.520 Y275.700 E19.1129
G1 X213.855 Y275.700 E22.8823
G1 X213.855 Y276.500 E22.9355
G1 X270.520 Y276.500 E26.7049
G92 E0.0000
G1 E-4.4000 F1200
; feature outer perimeter
G1 X213.775 Y276.690 F5000
G1 X213.775 Y277.100
G1 X91.225 Y277.100
G1 E0.0000 F1200
G92 E0.0000
G1 X34.400 Y277.100 E3.7800 F5000
G1 X34.400 Y271.400 E4.1592
G1 X91.225 Y271.400 E7.9392
G1 X91.225 Y277.100 E8.3184
; feature infill
G1 X91.145 Y276.500 F5000
G92 E0.0000
G1 X34.480 Y276.500 E3.7694 F5000
G1 X34.480 Y275.700 E3.8226
G1 X91.145 Y275.700 E7.5920
G1 X91.145 Y274.900 E7.6452
G1 X34.480 Y274.900 E11.4145
G1 X34.480 Y274.100 E11.4678
G1 X91.145 Y274.100 E15.2371
G1 X91.145 Y273.300 E15.2903
G1 X34.480 Y273.300 E19.0597
G1 X34.480 Y272.500 E19.1129
G1 X91.145 Y272.500 E22.8823
G1 X91.145 Y271.700 E22.9355
G1 X34.480 Y271.700 E26.7049
G92 E0.0000
G1 E-4.4000 F1200
; feature outer perimeter
G1 X34.706 Y271.400 F5000
G1 X91.225 Y271.400
G1 X213.775 Y33.600
G1 E0.0000 F1200
G92 E0.0000
G1 X213.775 Y27.900 E0.3792 F5000
G1 X270.600 Y27.900 E4.1592
G1 X270.600 Y33.600 E4.5383
G1 X213.775 Y33.600 E8.3184
G92 E0.0000
G1 E-4.4000 F1200
; feature infill
G1 X213.855 Y28.500 F5000
G1 E0.0000 F1200
G92 E0.0000
G1 X270.520 Y28.500 E3.7694 F5000
G1 X270.520 Y29.300 E3.8226
G1 X213.855 Y29.300 E7.5920
G1 X213.855 Y30.100 E7.6452
G1 X270.520 Y30.100 E11.4145
G1 X270.520 Y30.900 E11.4678
G1 X213.855 Y30.900 E15.2371
G1 X213.855 Y31.700 E15.2903
G1 X270.520 Y31.700 E19.0597
G1 X270.520 Y32.500 E19.1129
G1 X213.855 Y32.500 E22.8823
G1 X213.855 Y33.300 E22.9355
G1 X270.520 Y33.300 E26.7049
G92 E0.0000
G1 E-4.4000 F1200
; feature outer perimeter
G1 X213.775 Y33.395 F5000
G1 X213.775 Y33.600
G1 X91.225 Y33.600
G1 E0.0000 F1200
G92 E0.0000
G1 X34.400 Y33.600 E3.7800 F5000
G1 X34.400 Y27.900 E4.1592
G1 X91.225 Y27.900 E7.9392
G1 X91.225 Y33.600 E8.3184
; feature infill
G1 X91.145 Y33.300 F5000
G92 E0.0000
G1 X34.480 Y33.300 E3.7694 F5000
G1 X34.480 Y32.500 E3.8226
G1 X91.145 Y32.500 E7.5920
G1 X91.145 Y31.700 E7.6452
G1 X34.480 Y31.700 E11.4145
G1 X34.480 Y30.900 E11.4678
G1 X91.145 Y30.900 E15.2371
G1 X91.145 Y30.100 E15.2903
G1 X34.480 Y30.100 E19.0597
G1 X34.480 Y29.300 E19.1129
G1 X91.145 Y29.300 E22.8823
G1 X91.145 Y28.500 E22.9355
G1 X34.480 Y28.500 E26.7049
G92 E0.0000
G1 E-4.4000 F1200
; process a_bottom_2_v
; feature outer perimeter
G1 X41.002 Y33.600 F5000
G1 X91.225 Y33.600
G1 X271.400 Y213.775
G1 E0.0000 F1200
G92 E0.0000
G1 X277.100 Y213.775 E0.3792 F5000
G1 X277.100 Y270.600 E4.1592
G1 X271.400 Y270.600 E4.5383
G1 X271.400 Y213.775 E8.3184
G92 E0.0000
G1 E-4.4000 F1200
; feature infill
G1 X276.500 Y213.855 F5000
G1 E0.0000 F1200
G92 E0.0000
G1 X276.500 Y270.520 E3.7694 F5000
G1 X275.700 Y270.520 E3.8226
G1 X275.700 Y213.855 E7.5920
G1 X274.900 Y213.855 E7.6452
G1 X274.900 Y270.520 E11.4145
G1 X274.100 Y270.520 E11.4678
G1 X274.100 Y213.855 E15.2371
G1 X273.300 Y213.855 E15.2903
G1 X273.300 Y270.520 E19.0597
G1 X272.500 Y270.520 E19.1129
G1 X272.500 Y213.855 E22.8823
G1 X271.700 Y213.855 E22.9355
G1 X271.700 Y270.520 E26.7049
G92 E0.0000
G1 E-4.4000 F1200
; feature outer perimeter
G1 X271.400 Y270.520 F5000
G1 X271.400 Y270.600
G1 X33.600 Y270.600
G1 E0.0000 F1200
G92 E0.0000
G1 X27.900 Y270.600 E0.3792 F5000
G1 X27.900 Y213.775 E4.1592
