; G-Code generated by Simplify3D(R) Version 4.1.2
; Jun 30, 2021 at 4:24:20 PM
; Settings Summary
;   processName,support
;   applyToModels,support
;   profileName,passive_x (modified)
;   profileVersion,2021-06-28 16:44:37
;   baseProfile,Raise3D N2 Dual (modified)
;   printMaterial,PLA
;   printQuality,Medium
;   printExtruders,Right Extruder Only
;   extruderName,Extruder_1
;   extruderToolheadNumber,0
;   extruderDiameter,0.8
;   extruderAutoWidth,0
;   extruderWidth,0.8
;   extrusionMultiplier,1
;   extruderUseRetract,1
;   extruderRetractionDistance,4.4
;   extruderExtraRestartDistance,0
;   extruderRetractionZLift,0
;   extruderRetractionSpeed,1200
;   extruderUseCoasting,0
;   extruderCoastingDistance,0.2
;   extruderUseWipe,0
;   extruderWipeDistance,5
;   primaryExtruder,0
;   layerHeight,0.55
;   topSolidLayers,0
;   bottomSolidLayers,0
;   perimeterOutlines,0
;   printPerimetersInsideOut,1
;   startPointOption,2
;   startPointOriginX,0
;   startPointOriginY,0
;   sequentialIslands,1
;   spiralVaseMode,0
;   firstLayerHeightPercentage,100
;   firstLayerWidthPercentage,100
;   firstLayerUnderspeed,1
;   useRaft,0
;   raftExtruder,0
;   raftTopLayers,3
;   raftBaseLayers,2
;   raftOffset,3
;   raftSeparationDistance,0.14
;   raftTopInfill,100
;   aboveRaftSpeedMultiplier,0.3
;   useSkirt,1
;   skirtExtruder,0
;   skirtLayers,1
;   skirtOutlines,2
;   skirtOffset,4
;   usePrimePillar,0
;   primePillarExtruder,999
;   primePillarWidth,12
;   primePillarLocation,7
;   primePillarSpeedMultiplier,1
;   useOozeShield,0
;   oozeShieldExtruder,999
;   oozeShieldOffset,2
;   oozeShieldOutlines,1
;   oozeShieldSidewallShape,1
;   oozeShieldSidewallAngle,30
;   oozeShieldSpeedMultiplier,1
;   infillExtruder,0
;   internalInfillPattern,Rectilinear
;   externalInfillPattern,Rectilinear
;   infillPercentage,30
;   outlineOverlapPercentage,50
;   infillExtrusionWidthPercentage,100
;   minInfillLength,0.01
;   infillLayerInterval,1
;   internalInfillAngles,45,-45
;   overlapInternalInfillAngles,0
;   externalInfillAngles,45,-45
;   generateSupport,0
;   supportExtruder,0
;   supportInfillPercentage,30
;   supportExtraInflation,0
;   supportBaseLayers,0
;   denseSupportExtruder,0
;   denseSupportLayers,0
;   denseSupportInfillPercentage,70
;   supportLayerInterval,1
;   supportHorizontalPartOffset,0.3
;   supportUpperSeparationLayers,1
;   supportLowerSeparationLayers,1
;   supportType,0
;   supportGridSpacing,4
;   maxOverhangAngle,45
;   supportAngles,0
;   temperatureName,Extruder_1
;   temperatureNumber,0
;   temperatureSetpointCount,1
;   temperatureSetpointLayers,1
;   temperatureSetpointTemperatures,200
;   temperatureStabilizeAtStartup,1
;   temperatureHeatedBed,0
;   fanLayers,1,2
;   fanSpeeds,0,100
;   blipFanToFullPower,0
;   adjustSpeedForCooling,0
;   minSpeedLayerTime,15
;   minCoolingSpeedSlowdown,20
;   increaseFanForCooling,0
;   minFanLayerTime,45
;   maxCoolingFanSpeed,100
;   increaseFanForBridging,0
;   bridgingFanSpeed,100
;   use5D,1
;   relativeEdistances,0
;   allowEaxisZeroing,1
;   independentExtruderAxes,0
;   includeM10123,0
;   stickySupport,1
;   applyToolheadOffsets,1
;   gcodeXoffset,0
;   gcodeYoffset,0
;   gcodeZoffset,0
;   overrideMachineDefinition,1
;   machineTypeOverride,0
;   strokeXoverride,305
;   strokeYoverride,305
;   strokeZoverride,305
;   originOffsetXoverride,0
;   originOffsetYoverride,0
;   originOffsetZoverride,0
;   homeXdirOverride,-1
;   homeYdirOverride,-1
;   homeZdirOverride,-1
;   flipXoverride,1
;   flipYoverride,-1
;   flipZoverride,1
;   toolheadOffsets,0,0|-25,0|0,0|0,0|0,0|0,0
;   overrideFirmwareConfiguration,1
;   firmwareTypeOverride,RepRap (Marlin/Repetier/Sprinter)
;   GPXconfigOverride,r2
;   baudRateOverride,230400
;   overridePrinterModels,1
;   printerModelsOverride
;   startingGcode,M221 T1 S100,G28,G1 Z15.0 F9000.00,G92 E0,G1 E25 F200,G1 Z0 F130,G92 E0,M117 Printing.,M1001
;   layerChangeGcode,
;   retractionGcode,
;   toolChangeGcode,
;   endingGcode,M107,M1002,M104 S0 T1,M104 S0 T0,M140 S0,M117 Print Complete.,G28 X0 Y0,G91,G1 Z10,G90,M84
;   exportFileFormat,gcode
;   celebration,0
;   celebrationSong,Random Song
;   postProcessing,
;   defaultSpeed,3000
;   outlineUnderspeed,1
;   solidInfillUnderspeed,1
;   supportUnderspeed,1
;   rapidXYspeed,5000
;   rapidZspeed,1000
;   minBridgingArea,50
;   bridgingExtraInflation,0
;   bridgingExtrusionMultiplier,1
;   bridgingSpeedMultiplier,1
;   useFixedBridgingAngle,0
;   fixedBridgingAngle,0
;   applyBridgingToPerimeters,0
;   filamentDiameters,1.75|1.75|1.75|1.75|1.75|1.75
;   filamentPricesPerKg,46|46|46|46|46|46
;   filamentDensities,1.25|1.25|1.25|1.25|1.25|1.25
;   useMinPrintHeight,0
;   minPrintHeight,0
;   useMaxPrintHeight,0
;   maxPrintHeight,0
;   useDiaphragm,0
;   diaphragmLayerInterval,20
;   robustSlicing,1
;   mergeAllIntoSolid,0
;   onlyRetractWhenCrossingOutline,0
;   retractBetweenLayers,0
;   useRetractionMinTravel,1
;   retractionMinTravel,3
;   retractWhileWiping,1
;   onlyWipeOutlines,1
;   avoidCrossingOutline,1
;   maxMovementDetourFactor,400
;   toolChangeRetractionDistance,12
;   toolChangeExtraRestartDistance,-0.5
;   toolChangeRetractionSpeed,600
;   externalThinWallType,0
;   internalThinWallType,2
;   thinWallAllowedOverlapPercentage,10
;   singleExtrusionMinLength,0.01
;   singleExtrusionMinPrintingWidthPercentage,1
;   singleExtrusionMaxPrintingWidthPercentage,200
;   singleExtrusionEndpointExtension,0.01
;   horizontalSizeCompensation,0
G90
M82
M106 S0
M104 S200 T0
M109 S200 T0
M221 T1 S100
G28
G1 Z15.0 F9000.00
G92 E0
G1 E25 F200
G1 Z0 F130
G92 E0
M117 Printing.
M1001
; process a_u_2
; layer 1, Z = 0.200
T0
G92 E0.0000
G1 E-4.4000 F1200
; feature skirt
; tool H0.200 W0.800
G1 Z0.200 F1000
G1 X44.050 Y47.096 F5000
G1 E0.0000 F1200
G92 E0.0000
G1 X47.096 Y44.050 E0.2866 F5000
G1 X257.904 Y44.050 E14.3096
G1 X260.950 Y47.096 E14.5961
G1 X260.950 Y257.904 E28.6191
G1 X257.904 Y260.950 E28.9057
G1 X47.096 Y260.950 E42.9287
G1 X44.050 Y257.904 E43.2152
G1 X44.050 Y47.096 E57.2382
G1 X44.850 Y47.427 F5000
G92 E0.0000
G1 X47.427 Y44.850 E0.2425 F5000
G1 X257.573 Y44.850 E14.2214
G1 X260.150 Y47.427 E14.4639
G1 X260.150 Y257.573 E28.4428
G1 X257.573 Y260.150 E28.6852
G1 X47.427 Y260.150 E42.6641
G1 X44.850 Y257.573 E42.9066
G1 X44.850 Y47.427 E56.8855
G92 E0.0000
G1 E-4.4000 F1200
; feature outer perimeter
G1 X187.900 Y249.650 F5000
G1 E0.0000 F1200
G92 E0.0000
G1 X248.850 Y249.650 E4.0544 F5000
G1 X248.850 Y255.350 E4.4336
G1 X187.900 Y255.350 E8.4880
G1 X187.900 Y249.650 E8.8672
; feature infill
G1 X187.980 Y250.100 F5000
G92 E0.0000
G1 X248.770 Y250.100 E4.0438 F5000
G1 X248.770 Y250.900 E4.0970
G1 X187.980 Y250.900 E8.1408
G1 X187.980 Y251.700 E8.1940
G1 X248.770 Y251.700 E12.2377
G1 X248.770 Y252.500 E12.2910
G1 X187.980 Y252.500 E16.3347
G1 X187.980 Y253.300 E16.3879
G1 X248.770 Y253.300 E20.4317
G1 X248.770 Y254.100 E20.4849
G1 X187.980 Y254.100 E24.5287
G1 X187.980 Y254.900 E24.5819
G1 X248.770 Y254.900 E28.6257
G92 E0.0000
G1 E-4.4000 F1200
; feature outer perimeter
G1 X245.306 Y249.650 F5000
G1 X187.900 Y249.650
G1 X117.100 Y55.350
G1 E0.0000 F1200
G92 E0.0000
G1 X56.150 Y55.350 E4.0544 F5000
G1 X56.150 Y49.650 E4.4336
G1 X117.100 Y49.650 E8.4880
G1 X117.100 Y55.350 E8.8672
; feature infill
G1 X117.020 Y54.900 F5000
G92 E0.0000
G1 X56.230 Y54.900 E4.0438 F5000
G1 X56.230 Y54.100 E4.0970
G1 X117.020 Y54.100 E8.1408
G1 X117.020 Y53.300 E8.1940
G1 X56.230 Y53.300 E12.2377
G1 X56.230 Y52.500 E12.2910
G1 X117.020 Y52.500 E16.3347
G1 X117.020 Y51.700 E16.3879
G1 X56.230 Y51.700 E20.4317
G1 X56.230 Y50.900 E20.4849
G1 X117.020 Y50.900 E24.5287
G1 X117.020 Y50.100 E24.5819
G1 X56.230 Y50.100 E28.6257
G92 E0.0000
G1 E-4.4000 F1200
; process a_v_2
; feature outer perimeter
G1 X63.599 Y55.350 F5000
G1 X117.100 Y55.350
G1 X249.650 Y187.900
G1 E0.0000 F1200
G92 E0.0000
G1 X255.350 Y187.900 E0.3792 F5000
G1 X255.350 Y248.850 E4.4336
G1 X249.650 Y248.850 E4.8127
G1 X249.650 Y187.900 E8.8672
G92 E0.0000
G1 E-4.4000 F1200
; feature infill
G1 X254.900 Y187.980 F5000
G1 E0.0000 F1200
G92 E0.0000
G1 X254.900 Y248.770 E4.0438 F5000
G1 X254.100 Y248.770 E4.0970
G1 X254.100 Y187.980 E8.1408
G1 X253.300 Y187.980 E8.1940
G1 X253.300 Y248.770 E12.2377
G1 X252.500 Y248.770 E12.2910
G1 X252.500 Y187.980 E16.3347
G1 X251.700 Y187.980 E16.3879
G1 X251.700 Y248.770 E20.4317
G1 X250.900 Y248.770 E20.4849
G1 X250.900 Y187.980 E24.5287
G1 X250.100 Y187.980 E24.5819
G1 X250.100 Y248.770 E28.6257
G92 E0.0000
G1 E-4.4000 F1200
; feature outer perimeter
G1 X249.650 Y248.466 F5000
G1 X249.650 Y187.900
G1 X55.350 Y117.100
G1 E0.0000 F1200
G92 E0.0000
G1 X49.650 Y117.100 E0.3792 F5000
G1 X49.650 Y56.150 E4.4336
G1 X55.350 Y56.150 E4.8127
G1 X55.350 Y117.100 E8.8672
G92 E0.0000
G1 E-4.4000 F1200
; feature infill
G1 X50.100 Y117.020 F5000
G1 E0.0000 F1200
G92 E0.0000
G1 X50.100 Y56.230 E4.0438 F5000
G1 X50.900 Y56.230 E4.0970
G1 X50.900 Y117.020 E8.1408
G1 X51.700 Y117.020 E8.1940
G1 X51.700 Y56.230 E12.2377
G1 X52.500 Y56.230 E12.2910
G1 X52.500 Y117.020 E16.3347
G1 X53.300 Y117.020 E16.3879
G1 X53.300 Y56.230 E20.4317
G1 X54.100 Y56.230 E20.4849
G1 X54.100 Y117.020 E24.5287
G1 X54.900 Y117.020 E24.5819
G1 X54.900 Y56.230 E28.6257
G92 E0.0000
G1 E-4.4000 F1200
; process d_u_2
; feature outer perimeter
G1 X55.293 Y117.100 F5000
G1 X55.350 Y117.100
G1 X56.150 Y249.650
G1 E0.0000 F1200
G92 E0.0000
G1 X187.100 Y249.650 E8.7108 F3000
G1 X187.100 Y255.350 E9.0900
G1 X56.150 Y255.350 E17.8008
G1 X56.150 Y249.650 E18.1800
G92 E0.0000
G1 E-4.4000 F1200
; feature infill
G1 X57.833 Y254.950 F5000
G1 E0.0000 F1200
G92 E0.0000
G1 X57.833 Y250.050 E0.3259 F3000
G1 X59.167 Y250.050 E0.4146
G1 X59.167 Y254.950 E0.7406
G1 X60.500 Y254.950 E0.8293
G1 X60.500 Y250.050 E1.1552
G1 X61.833 Y250.050 E1.2439
G1 X61.833 Y254.950 E1.5699
G1 X63.167 Y254.950 E1.6586
G1 X63.167 Y250.050 E1.9845
G1 X64.500 Y250.050 E2.0732
G1 X64.500 Y254.950 E2.3992
G1 X65.833 Y254.950 E2.4879
G1 X65.833 Y250.050 E2.8138
G1 X67.167 Y250.050 E2.9025
G1 X67.167 Y254.950 E3.2285
G1 X68.500 Y254.950 E3.3171
G1 X68.500 Y250.050 E3.6431
G1 X69.833 Y250.050 E3.7318
G1 X69.833 Y254.950 E4.0577
G1 X71.167 Y254.950 E4.1464
G1 X71.167 Y250.050 E4.4724
G1 X72.500 Y250.050 E4.5611
G1 X72.500 Y254.950 E4.8870
G1 X73.833 Y254.950 E4.9757
G1 X73.833 Y250.050 E5.3017
G1 X75.167 Y250.050 E5.3904
G1 X75.167 Y254.950 E5.7163
G1 X76.500 Y254.950 E5.8050
G1 X76.500 Y250.050 E6.1310
G1 X77.833 Y250.050 E6.2196
G1 X77.833 Y254.950 E6.5456
G1 X79.167 Y254.950 E6.6343
G1 X79.167 Y250.050 E6.9602
G1 X80.500 Y250.050 E7.0489
G1 X80.500 Y254.950 E7.3749
G1 X81.833 Y254.950 E7.4636
G1 X81.833 Y250.050 E7.7895
G1 X83.167 Y250.050 E7.8782
G1 X83.167 Y254.950 E8.2042
G1 X84.500 Y254.950 E8.2929
G1 X84.500 Y250.050 E8.6188
G1 X85.833 Y250.050 E8.7075
G1 X85.833 Y254.950 E9.0335
G1 X87.167 Y254.950 E9.1221
G1 X87.167 Y250.050 E9.4481
G1 X88.500 Y250.050 E9.5368
G1 X88.500 Y254.950 E9.8627
G1 X89.833 Y254.950 E9.9514
G1 X89.833 Y250.050 E10.2774
G1 X91.167 Y250.050 E10.3661
G1 X91.167 Y254.950 E10.6920
G1 X92.500 Y254.950 E10.7807
G1 X92.500 Y250.050 E11.1067
G1 X93.833 Y250.050 E11.1954
G1 X93.833 Y254.950 E11.5213
G1 X95.167 Y254.950 E11.6100
G1 X95.167 Y250.050 E11.9360
G1 X96.500 Y250.050 E12.0246
G1 X96.500 Y254.950 E12.3506
G1 X97.833 Y254.950 E12.4393
G1 X97.833 Y250.050 E12.7652
G1 X99.167 Y250.050 E12.8539
G1 X99.167 Y254.950 E13.1799
G1 X100.500 Y254.950 E13.2686
G1 X100.500 Y250.050 E13.5945
G1 X101.833 Y250.050 E13.6832
G1 X101.833 Y254.950 E14.0092
G1 X103.167 Y254.950 E14.0979
G1 X103.167 Y250.050 E14.4238
G1 X104.500 Y250.050 E14.5125
G1 X104.500 Y254.950 E14.8385
G1 X105.833 Y254.950 E14.9271
G1 X105.833 Y250.050 E15.2531
G1 X107.167 Y250.050 E15.3418
G1 X107.167 Y254.950 E15.6677
G1 X108.500 Y254.950 E15.7564
G1 X108.500 Y250.050 E16.0824
G1 X109.833 Y250.050 E16.1711
G1 X109.833 Y254.950 E16.4970
G1 X111.167 Y254.950 E16.5857
G1 X111.167 Y250.050 E16.9117
G1 X112.500 Y250.050 E17.0004
G1 X112.500 Y254.950 E17.3263
G1 X113.833 Y254.950 E17.4150
G1 X113.833 Y250.050 E17.7410
G1 X115.167 Y250.050 E17.8296
G1 X115.167 Y254.950 E18.1556
G1 X116.500 Y254.950 E18.2443
G1 X116.500 Y250.050 E18.5702
G1 X117.833 Y250.050 E18.6589
G1 X117.833 Y254.950 E18.9849
G1 X119.167 Y254.950 E19.0736
G1 X119.167 Y250.050 E19.3995
G1 X120.500 Y250.050 E19.4882
G1 X120.500 Y254.950 E19.8142
G1 X121.833 Y254.950 E19.9029
G1 X121.833 Y250.050 E20.2288
G1 X123.167 Y250.050 E20.3175
G1 X123.167 Y254.950 E20.6435
G1 X124.500 Y254.950 E20.7322
G1 X124.500 Y250.050 E21.0581
G1 X125.833 Y250.050 E21.1468
G1 X125.833 Y254.950 E21.4727
G1 X127.167 Y254.950 E21.5614
G1 X127.167 Y250.050 E21.8874
G1 X128.500 Y250.050 E21.9761
G1 X128.500 Y254.950 E22.3020
G1 X129.833 Y254.950 E22.3907
G1 X129.833 Y250.050 E22.7167
G1 X131.167 Y250.050 E22.8054
G1 X131.167 Y254.950 E23.1313
G1 X132.500 Y254.950 E23.2200
G1 X132.500 Y250.050 E23.5460
G1 X133.833 Y250.050 E23.6347
G1 X133.833 Y254.950 E23.9606
G1 X135.167 Y254.950 E24.0493
G1 X135.167 Y250.050 E24.3752
G1 X136.500 Y250.050 E24.4639
G1 X136.500 Y254.950 E24.7899
G1 X137.833 Y254.950 E24.8786
G1 X137.833 Y250.050 E25.2045
G1 X139.167 Y250.050 E25.2932
G1 X139.167 Y254.950 E25.6192
G1 X140.500 Y254.950 E25.7079
G1 X140.500 Y250.050 E26.0338
G1 X141.833 Y250.050 E26.1225
G1 X141.833 Y254.950 E26.4485
G1 X143.167 Y254.950 E26.5372
G1 X143.167 Y250.050 E26.8631
G1 X144.500 Y250.050 E26.9518
G1 X144.500 Y254.950 E27.2777
G1 X145.833 Y254.950 E27.3664
G1 X145.833 Y250.050 E27.6924
G1 X147.167 Y250.050 E27.7811
G1 X147.167 Y254.950 E28.1070
G1 X148.500 Y254.950 E28.1957
G1 X148.500 Y250.050 E28.5217
G1 X149.833 Y250.050 E28.6104
G1 X149.833 Y254.950 E28.9363
G1 X151.167 Y254.950 E29.0250
G1 X151.167 Y250.050 E29.3510
G1 X152.500 Y250.050 E29.4397
G1 X152.500 Y254.950 E29.7656
G1 X153.833 Y254.950 E29.8543
G1 X153.833 Y250.050 E30.1802
G1 X155.167 Y250.050 E30.2689
G1 X155.167 Y254.950 E30.5949
G1 X156.500 Y254.950 E30.6836
G1 X156.500 Y250.050 E31.0095
G1 X157.833 Y250.050 E31.0982
G1 X157.833 Y254.950 E31.4242
G1 X159.167 Y254.950 E31.5129
G1 X159.167 Y250.050 E31.8388
G1 X160.500 Y250.050 E31.9275
G1 X160.500 Y254.950 E32.2535
G1 X161.833 Y254.950 E32.3422
G1 X161.833 Y250.050 E32.6681
G1 X163.167 Y250.050 E32.7568
G1 X163.167 Y254.950 E33.0827
G1 X164.500 Y254.950 E33.1714
G1 X164.500 Y250.050 E33.4974
G1 X165.833 Y250.050 E33.5861
G1 X165.833 Y254.950 E33.9120
G1 X167.167 Y254.950 E34.0007
G1 X167.167 Y250.050 E34.3267
G1 X168.500 Y250.050 E34.4154
G1 X168.500 Y254.950 E34.7413
G1 X169.833 Y254.950 E34.8300
G1 X169.833 Y250.050 E35.1560
G1 X171.167 Y250.050 E35.2447
G1 X171.167 Y254.950 E35.5706
G1 X172.500 Y254.950 E35.6593
G1 X172.500 Y250.050 E35.9852
G1 X173.833 Y250.050 E36.0739
G1 X173.833 Y254.950 E36.3999
G1 X175.167 Y254.950 E36.4886
G1 X175.167 Y250.050 E36.8145
G1 X176.500 Y250.050 E36.9032
G1 X176.500 Y254.950 E37.2292
G1 X177.833 Y254.950 E37.3179
G1 X177.833 Y250.050 E37.6438
G1 X179.167 Y250.050 E37.7325
G1 X179.167 Y254.950 E38.0585
G1 X180.500 Y254.950 E38.1472
G1 X180.500 Y250.050 E38.4731
G1 X181.833 Y250.050 E38.5618
G1 X181.833 Y254.950 E38.8878
G1 X183.167 Y254.950 E38.9764
G1 X183.167 Y250.050 E39.3024
G1 X184.500 Y250.050 E39.3911
G1 X184.500 Y254.950 E39.7170
G1 X185.833 Y254.950 E39.8057
G1 X185.833 Y250.050 E40.1317
G92 E0.0000
G1 E-4.4000 F1200
; feature outer perimeter
G1 X185.963 Y249.650 F5000
G1 X187.100 Y249.650
G1 X248.850 Y55.350
G1 E0.0000 F1200
G92 E0.0000
G1 X117.900 Y55.350 E8.7108 F3000
G1 X117.900 Y49.650 E9.0900
G1 X248.850 Y49.650 E17.8008
G1 X248.850 Y55.350 E18.1800
G92 E0.0000
G1 E-4.4000 F1200
; feature infill
G1 X247.167 Y50.050 F5000
G1 E0.0000 F1200
G92 E0.0000
G1 X247.167 Y54.950 E0.3259 F3000
G1 X245.833 Y54.950 E0.4146
G1 X245.833 Y50.050 E0.7406
G1 X244.500 Y50.050 E0.8293
G1 X244.500 Y54.950 E1.1552
G1 X243.167 Y54.950 E1.2439
G1 X243.167 Y50.050 E1.5699
G1 X241.833 Y50.050 E1.6586
G1 X241.833 Y54.950 E1.9845
G1 X240.500 Y54.950 E2.0732
G1 X240.500 Y50.050 E2.3992
