; G-Code generated by Simplify3D(R) Version 4.1.2
; Jun 30, 2021 at 3:06:32 PM
; Settings Summary
;   processName,joints
;   applyToModels,joints
;   profileName,passive_x (modified)
;   profileVersion,2021-06-28 16:44:37
;   baseProfile,Raise3D N2 Dual (modified)
;   printMaterial,PLA
;   printQuality,Medium
;   printExtruders,Right Extruder Only
;   extruderName,Extruder_1
;   extruderToolheadNumber,0
;   extruderDiameter,0.8
;   extruderAutoWidth,0
;   extruderWidth,0.8
;   extrusionMultiplier,1
;   extruderUseRetract,1
;   extruderRetractionDistance,4.4
;   extruderExtraRestartDistance,0
;   extruderRetractionZLift,0
;   extruderRetractionSpeed,1200
;   extruderUseCoasting,0
;   extruderCoastingDistance,0.2
;   extruderUseWipe,0
;   extruderWipeDistance,5
;   primaryExtruder,0
;   layerHeight,0.2
;   topSolidLayers,0
;   bottomSolidLayers,0
;   perimeterOutlines,1
;   printPerimetersInsideOut,1
;   startPointOption,2
;   startPointOriginX,0
;   startPointOriginY,0
;   sequentialIslands,1
;   spiralVaseMode,0
;   firstLayerHeightPercentage,100
;   firstLayerWidthPercentage,100
;   firstLayerUnderspeed,1
;   useRaft,0
;   raftExtruder,0
;   raftTopLayers,3
;   raftBaseLayers,2
;   raftOffset,3
;   raftSeparationDistance,0.14
;   raftTopInfill,100
;   aboveRaftSpeedMultiplier,0.3
;   useSkirt,1
;   skirtExtruder,0
;   skirtLayers,1
;   skirtOutlines,2
;   skirtOffset,4
;   usePrimePillar,0
;   primePillarExtruder,999
;   primePillarWidth,12
;   primePillarLocation,7
;   primePillarSpeedMultiplier,1
;   useOozeShield,0
;   oozeShieldExtruder,999
;   oozeShieldOffset,2
;   oozeShieldOutlines,1
;   oozeShieldSidewallShape,1
;   oozeShieldSidewallAngle,30
;   oozeShieldSpeedMultiplier,1
;   infillExtruder,0
;   internalInfillPattern,Rectilinear
;   externalInfillPattern,Rectilinear
;   infillPercentage,50
;   outlineOverlapPercentage,50
;   infillExtrusionWidthPercentage,100
;   minInfillLength,0.01
;   infillLayerInterval,1
;   internalInfillAngles,45,-45
;   overlapInternalInfillAngles,0
;   externalInfillAngles,45,-45
;   generateSupport,0
;   supportExtruder,0
;   supportInfillPercentage,30
;   supportExtraInflation,0
;   supportBaseLayers,0
;   denseSupportExtruder,0
;   denseSupportLayers,0
;   denseSupportInfillPercentage,70
;   supportLayerInterval,1
;   supportHorizontalPartOffset,0.3
;   supportUpperSeparationLayers,1
;   supportLowerSeparationLayers,1
;   supportType,0
;   supportGridSpacing,4
;   maxOverhangAngle,45
;   supportAngles,0
;   temperatureName,Extruder_1
;   temperatureNumber,0
;   temperatureSetpointCount,1
;   temperatureSetpointLayers,1
;   temperatureSetpointTemperatures,200
;   temperatureStabilizeAtStartup,1
;   temperatureHeatedBed,0
;   fanLayers,1,2
;   fanSpeeds,0,100
;   blipFanToFullPower,0
;   adjustSpeedForCooling,0
;   minSpeedLayerTime,15
;   minCoolingSpeedSlowdown,20
;   increaseFanForCooling,0
;   minFanLayerTime,45
;   maxCoolingFanSpeed,100
;   increaseFanForBridging,0
;   bridgingFanSpeed,100
;   use5D,1
;   relativeEdistances,0
;   allowEaxisZeroing,1
;   independentExtruderAxes,0
;   includeM10123,0
;   stickySupport,1
;   applyToolheadOffsets,1
;   gcodeXoffset,0
;   gcodeYoffset,0
;   gcodeZoffset,0
;   overrideMachineDefinition,1
;   machineTypeOverride,0
;   strokeXoverride,305
;   strokeYoverride,305
;   strokeZoverride,305
;   originOffsetXoverride,0
;   originOffsetYoverride,0
;   originOffsetZoverride,0
;   homeXdirOverride,-1
;   homeYdirOverride,-1
;   homeZdirOverride,-1
;   flipXoverride,1
;   flipYoverride,-1
;   flipZoverride,1
;   toolheadOffsets,0,0|-25,0|0,0|0,0|0,0|0,0
;   overrideFirmwareConfiguration,1
;   firmwareTypeOverride,RepRap (Marlin/Repetier/Sprinter)
;   GPXconfigOverride,r2
;   baudRateOverride,230400
;   overridePrinterModels,1
;   printerModelsOverride
;   startingGcode,M221 T1 S100,G28,G1 Z15.0 F9000.00,G92 E0,G1 E25 F200,G1 Z0 F130,G92 E0,M117 Printing.,M1001
;   layerChangeGcode,
;   retractionGcode,
;   toolChangeGcode,
;   endingGcode,M107,M1002,M104 S0 T1,M104 S0 T0,M140 S0,M117 Print Complete.,G28 X0 Y0,G91,G1 Z10,G90,M84
;   exportFileFormat,gcode
;   celebration,0
;   celebrationSong,Random Song
;   postProcessing,
;   defaultSpeed,3000
;   outlineUnderspeed,1
;   solidInfillUnderspeed,1
;   supportUnderspeed,1
;   rapidXYspeed,5000
;   rapidZspeed,1000
;   minBridgingArea,50
;   bridgingExtraInflation,0
;   bridgingExtrusionMultiplier,1
;   bridgingSpeedMultiplier,1
;   useFixedBridgingAngle,0
;   fixedBridgingAngle,0
;   applyBridgingToPerimeters,0
;   filamentDiameters,1.75|1.75|1.75|1.75|1.75|1.75
;   filamentPricesPerKg,46|46|46|46|46|46
;   filamentDensities,1.25|1.25|1.25|1.25|1.25|1.25
;   useMinPrintHeight,0
;   minPrintHeight,0
;   useMaxPrintHeight,0
;   maxPrintHeight,0
;   useDiaphragm,0
;   diaphragmLayerInterval,20
;   robustSlicing,1
;   mergeAllIntoSolid,0
;   onlyRetractWhenCrossingOutline,0
;   retractBetweenLayers,0
;   useRetractionMinTravel,1
;   retractionMinTravel,3
;   retractWhileWiping,1
;   onlyWipeOutlines,1
;   avoidCrossingOutline,1
;   maxMovementDetourFactor,400
;   toolChangeRetractionDistance,12
;   toolChangeExtraRestartDistance,-0.5
;   toolChangeRetractionSpeed,600
;   externalThinWallType,0
;   internalThinWallType,2
;   thinWallAllowedOverlapPercentage,10
;   singleExtrusionMinLength,0.01
;   singleExtrusionMinPrintingWidthPercentage,1
;   singleExtrusionMaxPrintingWidthPercentage,200
;   singleExtrusionEndpointExtension,0.01
;   horizontalSizeCompensation,0
G90
M82
M106 S0
M104 S200 T0
M109 S200 T0
M221 T1 S100
G28
G1 Z15.0 F9000.00
G92 E0
G1 E25 F200
G1 Z0 F130
G92 E0
M117 Printing.
M1001
; process joints
; layer 1, Z = 0.200
T0
G92 E0.0000
G1 E-4.4000 F1200
; feature skirt
; tool H0.200 W0.800
G1 Z0.200 F1000
G1 X44.050 Y47.096 F5000
G1 E0.0000 F1200
G92 E0.0000
G1 X47.096 Y44.050 E0.2866 F3000
G1 X257.904 Y44.050 E14.3096
G1 X260.950 Y47.096 E14.5961
G1 X260.950 Y257.904 E28.6191
G1 X257.904 Y260.950 E28.9057
G1 X47.096 Y260.950 E42.9287
G1 X44.050 Y257.904 E43.2152
G1 X44.050 Y47.096 E57.2382
G1 X44.850 Y47.427 F5000
G92 E0.0000
G1 X47.427 Y44.850 E0.2425 F3000
G1 X257.573 Y44.850 E14.2214
G1 X260.150 Y47.427 E14.4639
G1 X260.150 Y257.573 E28.4428
G1 X257.573 Y260.150 E28.6852
G1 X47.427 Y260.150 E42.6641
G1 X44.850 Y257.573 E42.9066
G1 X44.850 Y47.427 E56.8855
G92 E0.0000
G1 E-4.4000 F1200
; feature outer perimeter
G1 X49.650 Y249.650 F5000
G1 E0.0000 F1200
G92 E0.0000
G1 X55.350 Y249.650 E0.3792 F3000
G1 X55.350 Y255.350 E0.7583
G1 X49.650 Y255.350 E1.1375
G1 X49.650 Y249.650 E1.5167
G92 E0.0000
G1 E-4.4000 F1200
; feature infill
G1 X53.191 Y250.050 F5000
G1 E0.0000 F1200
G92 E0.0000
G1 X54.950 Y251.809 E0.1654 F3000
G1 X54.950 Y254.071 E0.3159
G1 X50.929 Y250.050 E0.6942
G1 X50.050 Y250.050 E0.7527
G1 X50.050 Y251.434 E0.8448
G1 X53.566 Y254.950 E1.1755
G1 X51.303 Y254.950 E1.3260
G1 X50.050 Y253.697 E1.4439
G92 E0.0000
G1 E-4.4000 F1200
; feature outer perimeter
G1 X55.350 Y253.741 F5000
G1 X55.350 Y255.350
G1 X249.650 Y255.350
G1 E0.0000 F1200
G92 E0.0000
G1 X249.650 Y249.650 E0.3792 F3000
G1 X255.350 Y249.650 E0.7583
G1 X255.350 Y255.350 E1.1375
G1 X249.650 Y255.350 E1.5167
; feature infill
G1 X250.425 Y254.950 F5000
G92 E0.0000
G1 X250.050 Y254.575 E0.0352 F3000
G1 X250.050 Y252.313 E0.1858
G1 X252.687 Y254.950 E0.4338
G1 X254.950 Y254.950 E0.5844
G1 X250.050 Y250.050 E1.0453
G1 X252.313 Y250.050 E1.1958
G1 X254.950 Y252.687 E1.4439
G1 X254.950 Y250.425 E1.5945
G1 X254.575 Y250.050 E1.6297
G92 E0.0000
G1 E-4.4000 F1200
; feature outer perimeter
G1 X254.166 Y249.650 F5000
G1 X249.650 Y249.650
G1 X55.350 Y55.350
G1 E0.0000 F1200
G92 E0.0000
G1 X49.650 Y55.350 E0.3792 F3000
G1 X49.650 Y49.650 E0.7583
G1 X55.350 Y49.650 E1.1375
G1 X55.350 Y55.350 E1.5167
G92 E0.0000
G1 E-4.4000 F1200
; feature infill
G1 X50.425 Y54.950 F5000
G1 E0.0000 F1200
G92 E0.0000
G1 X50.050 Y54.575 E0.0352 F3000
G1 X50.050 Y52.313 E0.1858
G1 X52.687 Y54.950 E0.4338
G1 X54.950 Y54.950 E0.5844
G1 X50.050 Y50.050 E1.0453
G1 X52.313 Y50.050 E1.1958
G1 X54.950 Y52.687 E1.4439
G1 X54.950 Y50.425 E1.5945
G1 X54.575 Y50.050 E1.6297
G92 E0.0000
G1 E-4.4000 F1200
; feature outer perimeter
G1 X55.350 Y50.048 F5000
G1 X55.350 Y49.650
G1 X249.650 Y49.650
G1 E0.0000 F1200
G92 E0.0000
G1 X255.350 Y49.650 E0.3792 F3000
G1 X255.350 Y55.350 E0.7583
G1 X249.650 Y55.350 E1.1375
G1 X249.650 Y49.650 E1.5167
G92 E0.0000
G1 E-4.4000 F1200
; feature infill
G1 X250.050 Y53.191 F5000
G1 E0.0000 F1200
G92 E0.0000
G1 X251.809 Y54.950 E0.1654 F3000
G1 X254.071 Y54.950 E0.3160
G1 X250.050 Y50.929 E0.6942
G1 X250.050 Y50.050 E0.7527
G1 X251.434 Y50.050 E0.8448
G1 X254.950 Y53.566 E1.1755
G1 X254.950 Y51.303 E1.3260
G1 X253.697 Y50.050 E1.4439
G92 E0.0000
G1 E-4.4000 F1200
; process a_u
; feature outer perimeter
G1 X253.568 Y55.350 F5000
G1 X249.650 Y55.350
G1 X248.850 Y249.650
G1 E0.0000 F1200
G92 E0.0000
G1 X248.850 Y255.350 E0.3792 F5000
G1 X152.900 Y255.350 E6.7618
G1 X152.900 Y249.650 E7.1410
G1 X248.850 Y249.650 E13.5236
G92 E0.0000
G1 E-4.4000 F1200
; feature infill
G1 X248.770 Y254.900 F5000
G1 E0.0000 F1200
G92 E0.0000
G1 X152.980 Y254.900 E6.3720 F5000
G1 X152.980 Y254.100 E6.4252
G1 X248.770 Y254.100 E12.7972
G1 X248.770 Y253.300 E12.8504
G1 X152.980 Y253.300 E19.2224
G1 X152.980 Y252.500 E19.2756
G1 X248.770 Y252.500 E25.6476
G1 X248.770 Y251.700 E25.7008
G1 X152.980 Y251.700 E32.0727
G1 X152.980 Y250.900 E32.1260
G1 X248.770 Y250.900 E38.4979
G1 X248.770 Y250.100 E38.5512
G1 X152.980 Y250.100 E44.9231
G92 E0.0000
G1 E-4.4000 F1200
; feature outer perimeter
G1 X152.978 Y249.650 F5000
G1 X152.900 Y249.650
G1 X152.100 Y55.350
G1 E0.0000 F1200
G92 E0.0000
G1 X56.150 Y55.350 E6.3826 F5000
G1 X56.150 Y49.650 E6.7618
G1 X152.100 Y49.650 E13.1444
G1 X152.100 Y55.350 E13.5236
; feature infill
G1 X152.020 Y54.900 F5000
G92 E0.0000
G1 X56.230 Y54.900 E6.3720 F5000
G1 X56.230 Y54.100 E6.4252
G1 X152.020 Y54.100 E12.7972
G1 X152.020 Y53.300 E12.8504
G1 X56.230 Y53.300 E19.2224
G1 X56.230 Y52.500 E19.2756
G1 X152.020 Y52.500 E25.6476
G1 X152.020 Y51.700 E25.7008
G1 X56.230 Y51.700 E32.0727
G1 X56.230 Y50.900 E32.1260
G1 X152.020 Y50.900 E38.4979
G1 X152.020 Y50.100 E38.5512
G1 X56.230 Y50.100 E44.9231
G92 E0.0000
G1 E-4.4000 F1200
; process a_v
; feature outer perimeter
G1 X66.108 Y55.350 F5000
G1 X152.100 Y55.350
G1 X249.650 Y152.900
G1 E0.0000 F1200
G92 E0.0000
G1 X255.350 Y152.900 E0.3792 F5000
G1 X255.350 Y248.850 E6.7618
G1 X249.650 Y248.850 E7.1410
G1 X249.650 Y152.900 E13.5236
G92 E0.0000
G1 E-4.4000 F1200
; feature infill
G1 X254.900 Y152.980 F5000
G1 E0.0000 F1200
G92 E0.0000
G1 X254.900 Y248.770 E6.3720 F5000
G1 X254.100 Y248.770 E6.4252
G1 X254.100 Y152.980 E12.7972
G1 X253.300 Y152.980 E12.8504
G1 X253.300 Y248.770 E19.2224
G1 X252.500 Y248.770 E19.2756
G1 X252.500 Y152.980 E25.6476
G1 X251.700 Y152.980 E25.7008
G1 X251.700 Y248.770 E32.0727
G1 X250.900 Y248.770 E32.1260
G1 X250.900 Y152.980 E38.4979
G1 X250.100 Y152.980 E38.5512
G1 X250.100 Y248.770 E44.9231
G92 E0.0000
G1 E-4.4000 F1200
; feature outer perimeter
G1 X249.650 Y248.547 F5000
G1 X249.650 Y152.900
G1 X55.350 Y152.100
G1 E0.0000 F1200
G92 E0.0000
G1 X49.650 Y152.100 E0.3792 F5000
G1 X49.650 Y56.150 E6.7618
G1 X55.350 Y56.150 E7.1410
G1 X55.350 Y152.100 E13.5236
G92 E0.0000
G1 E-4.4000 F1200
; feature infill
G1 X50.100 Y152.020 F5000
G1 E0.0000 F1200
G92 E0.0000
G1 X50.100 Y56.230 E6.3720 F5000
G1 X50.900 Y56.230 E6.4252
G1 X50.900 Y152.020 E12.7972
G1 X51.700 Y152.020 E12.8504
G1 X51.700 Y56.230 E19.2224
G1 X52.500 Y56.230 E19.2756
G1 X52.500 Y152.020 E25.6476
G1 X53.300 Y152.020 E25.7008
G1 X53.300 Y56.230 E32.0727
G1 X54.100 Y56.230 E32.1260
G1 X54.100 Y152.020 E38.4979
G1 X54.900 Y152.020 E38.5512
G1 X54.900 Y56.230 E44.9231
G92 E0.0000
G1 E-4.4000 F1200
; process d_u
; feature outer perimeter
G1 X55.350 Y125.859 F5000
G1 X55.350 Y152.100
G1 X56.150 Y249.650
G1 E0.0000 F1200
G92 E0.0000
G1 X152.100 Y249.650 E6.3826 F3000
G1 X152.100 Y255.350 E6.7618
G1 X56.150 Y255.350 E13.1444
G1 X56.150 Y249.650 E13.5236
G92 E0.0000
G1 E-4.4000 F1200
; feature infill
G1 X57.833 Y254.950 F5000
G1 E0.0000 F1200
G92 E0.0000
G1 X57.833 Y250.050 E0.3259 F3000
G1 X59.167 Y250.050 E0.4146
G1 X59.167 Y254.950 E0.7406
G1 X60.500 Y254.950 E0.8293
G1 X60.500 Y250.050 E1.1552
G1 X61.833 Y250.050 E1.2439
G1 X61.833 Y254.950 E1.5699
G1 X63.167 Y254.950 E1.6586
G1 X63.167 Y250.050 E1.9845
G1 X64.500 Y250.050 E2.0732
G1 X64.500 Y254.950 E2.3992
G1 X65.833 Y254.950 E2.4879
G1 X65.833 Y250.050 E2.8138
G1 X67.167 Y250.050 E2.9025
G1 X67.167 Y254.950 E3.2285
G1 X68.500 Y254.950 E3.3171
G1 X68.500 Y250.050 E3.6431
G1 X69.833 Y250.050 E3.7318
G1 X69.833 Y254.950 E4.0577
G1 X71.167 Y254.950 E4.1464
G1 X71.167 Y250.050 E4.4724
G1 X72.500 Y250.050 E4.5611
G1 X72.500 Y254.950 E4.8870
G1 X73.833 Y254.950 E4.9757
G1 X73.833 Y250.050 E5.3017
G1 X75.167 Y250.050 E5.3904
G1 X75.167 Y254.950 E5.7163
G1 X76.500 Y254.950 E5.8050
G1 X76.500 Y250.050 E6.1310
G1 X77.833 Y250.050 E6.2196
G1 X77.833 Y254.950 E6.5456
G1 X79.167 Y254.950 E6.6343
G1 X79.167 Y250.050 E6.9602
G1 X80.500 Y250.050 E7.0489
G1 X80.500 Y254.950 E7.3749
G1 X81.833 Y254.950 E7.4636
G1 X81.833 Y250.050 E7.7895
G1 X83.167 Y250.050 E7.8782
G1 X83.167 Y254.950 E8.2042
G1 X84.500 Y254.950 E8.2929
G1 X84.500 Y250.050 E8.6188
G1 X85.833 Y250.050 E8.7075
G1 X85.833 Y254.950 E9.0335
G1 X87.167 Y254.950 E9.1221
G1 X87.167 Y250.050 E9.4481
G1 X88.500 Y250.050 E9.5368
G1 X88.500 Y254.950 E9.8627
G1 X89.833 Y254.950 E9.9514
G1 X89.833 Y250.050 E10.2774
G1 X91.167 Y250.050 E10.3661
G1 X91.167 Y254.950 E10.6920
G1 X92.500 Y254.950 E10.7807
G1 X92.500 Y250.050 E11.1067
G1 X93.833 Y250.050 E11.1954
G1 X93.833 Y254.950 E11.5213
G1 X95.167 Y254.950 E11.6100
G1 X95.167 Y250.050 E11.9360
G1 X96.500 Y250.050 E12.0246
G1 X96.500 Y254.950 E12.3506
G1 X97.833 Y254.950 E12.4393
G1 X97.833 Y250.050 E12.7652
G1 X99.167 Y250.050 E12.8539
G1 X99.167 Y254.950 E13.1799
G1 X100.500 Y254.950 E13.2686
G1 X100.500 Y250.050 E13.5945
G1 X101.833 Y250.050 E13.6832
G1 X101.833 Y254.950 E14.0092
G1 X103.167 Y254.950 E14.0979
G1 X103.167 Y250.050 E14.4238
G1 X104.500 Y250.050 E14.5125
G1 X104.500 Y254.950 E14.8385
G1 X105.833 Y254.950 E14.9271
G1 X105.833 Y250.050 E15.2531
G1 X107.167 Y250.050 E15.3418
G1 X107.167 Y254.950 E15.6677
G1 X108.500 Y254.950 E15.7564
G1 X108.500 Y250.050 E16.0824
G1 X109.833 Y250.050 E16.1711
G1 X109.833 Y254.950 E16.4970
G1 X111.167 Y254.950 E16.5857
G1 X111.167 Y250.050 E16.9117
G1 X112.500 Y250.050 E17.0004
G1 X112.500 Y254.950 E17.3263
G1 X113.833 Y254.950 E17.4150
G1 X113.833 Y250.050 E17.7410
G1 X115.167 Y250.050 E17.8296
G1 X115.167 Y254.950 E18.1556
G1 X116.500 Y254.950 E18.2443
G1 X116.500 Y250.050 E18.5702
G1 X117.833 Y250.050 E18.6589
G1 X117.833 Y254.950 E18.9849
G1 X119.167 Y254.950 E19.0736
G1 X119.167 Y250.050 E19.3995
G1 X120.500 Y250.050 E19.4882
G1 X120.500 Y254.950 E19.8142
G1 X121.833 Y254.950 E19.9029
G1 X121.833 Y250.050 E20.2288
G1 X123.167 Y250.050 E20.3175
G1 X123.167 Y254.950 E20.6435
G1 X124.500 Y254.950 E20.7322
G1 X124.500 Y250.050 E21.0581
G1 X125.833 Y250.050 E21.1468
G1 X125.833 Y254.950 E21.4727
G1 X127.167 Y254.950 E21.5614
G1 X127.167 Y250.050 E21.8874
G1 X128.500 Y250.050 E21.9761
G1 X128.500 Y254.950 E22.3020
G1 X129.833 Y254.950 E22.3907
G1 X129.833 Y250.050 E22.7167
G1 X131.167 Y250.050 E22.8054
G1 X131.167 Y254.950 E23.1313
G1 X132.500 Y254.950 E23.2200
G1 X132.500 Y250.050 E23.5460
G1 X133.833 Y250.050 E23.6347
G1 X133.833 Y254.950 E23.9606
G1 X135.167 Y254.950 E24.0493
G1 X135.167 Y250.050 E24.3752
G1 X136.500 Y250.050 E24.4639
G1 X136.500 Y254.950 E24.7899
G1 X137.833 Y254.950 E24.8786
G1 X137.833 Y250.050 E25.2045
G1 X139.167 Y250.050 E25.2932
G1 X139.167 Y254.950 E25.6192
G1 X140.500 Y254.950 E25.7079
G1 X140.500 Y250.050 E26.0338
G1 X141.833 Y250.050 E26.1225
G1 X141.833 Y254.950 E26.4485
G1 X143.167 Y254.950 E26.5372
G1 X143.167 Y250.050 E26.8631
G1 X144.500 Y250.050 E26.9518
G1 X144.500 Y254.950 E27.2777
G1 X145.833 Y254.950 E27.3664
G1 X145.833 Y250.050 E27.6924
