; G-Code generated by Simplify3D(R) Version 4.1.2
; Jul 12, 2021 at 6:03:58 PM
; Settings Summary
;   processName,BigRap_atu
;   applyToModels,a_top_u
;   profileName,BigRap_atu
;   profileVersion,2021-07-12 15:34:41
;   baseProfile,BigRep ONE - Standard Extruder 1mm
;   printMaterial,PLA - T0 Only
;   printQuality,0.6 mm Layer Height - Quality
;   printExtruders,
;   extruderName,T0 - Left Extruder,T1 - Right Extruder
;   extruderToolheadNumber,0,1
;   extruderDiameter,1,1
;   extruderAutoWidth,1,1
;   extruderWidth,1.2,1.2
;   extrusionMultiplier,1,1
;   extruderUseRetract,1,1
;   extruderRetractionDistance,1,1
;   extruderExtraRestartDistance,0,0
;   extruderRetractionZLift,0.8,0.8
;   extruderRetractionSpeed,1800,1800
;   extruderUseCoasting,0,0
;   extruderCoastingDistance,0.2,0.2
;   extruderUseWipe,0,0
;   extruderWipeDistance,5,5
;   primaryExtruder,0
;   layerHeight,0.2
;   topSolidLayers,0
;   bottomSolidLayers,0
;   perimeterOutlines,1
;   printPerimetersInsideOut,1
;   startPointOption,2
;   startPointOriginX,0
;   startPointOriginY,0
;   sequentialIslands,1
;   spiralVaseMode,0
;   firstLayerHeightPercentage,100
;   firstLayerWidthPercentage,100
;   firstLayerUnderspeed,1
;   useRaft,0
;   raftExtruder,0
;   raftTopLayers,1
;   raftBaseLayers,2
;   raftOffset,3
;   raftSeparationDistance,0.14
;   raftTopInfill,100
;   aboveRaftSpeedMultiplier,0.3
;   useSkirt,1
;   skirtExtruder,0
;   skirtLayers,1
;   skirtOutlines,2
;   skirtOffset,5
;   usePrimePillar,0
;   primePillarExtruder,0
;   primePillarWidth,45
;   primePillarLocation,5
;   primePillarSpeedMultiplier,1
;   useOozeShield,0
;   oozeShieldExtruder,999
;   oozeShieldOffset,2
;   oozeShieldOutlines,1
;   oozeShieldSidewallShape,1
;   oozeShieldSidewallAngle,30
;   oozeShieldSpeedMultiplier,1
;   infillExtruder,0
;   internalInfillPattern,Grid
;   externalInfillPattern,Rectilinear
;   infillPercentage,100
;   outlineOverlapPercentage,90
;   infillExtrusionWidthPercentage,100
;   minInfillLength,0.1
;   infillLayerInterval,1
;   internalInfillAngles,0
;   overlapInternalInfillAngles,1
;   externalInfillAngles,45,-45
;   generateSupport,0
;   supportExtruder,0
;   supportInfillPercentage,15
;   supportExtraInflation,1.5
;   supportBaseLayers,1
;   denseSupportExtruder,0
;   denseSupportLayers,4
;   denseSupportInfillPercentage,80
;   supportLayerInterval,1
;   supportHorizontalPartOffset,1
;   supportUpperSeparationLayers,1
;   supportLowerSeparationLayers,1
;   supportType,0
;   supportGridSpacing,2
;   maxOverhangAngle,55
;   supportAngles,45
;   temperatureName,T0 - Printing Temperature,T1 - Printing Temperature,Fan T0,Fan T1,T0 - Standby Temperature,T1 - Standby Temperature
;   temperatureNumber,0,1,4,5,2,3
;   temperatureSetpointCount,1,1,2,2,1,1
;   temperatureSetpointLayers,1,1,1,2,1,2,1,1
;   temperatureSetpointTemperatures,205,205,0,255,0,255,185,185
;   temperatureStabilizeAtStartup,0,0,0,0,0,0
;   temperatureHeatedBed,0,0,0,0,0,0
;   fanLayers,1,2
;   fanSpeeds,0,100
;   blipFanToFullPower,0
;   adjustSpeedForCooling,0
;   minSpeedLayerTime,7.5
;   minCoolingSpeedSlowdown,25
;   increaseFanForCooling,0
;   minFanLayerTime,45
;   maxCoolingFanSpeed,100
;   increaseFanForBridging,0
;   bridgingFanSpeed,100
;   use5D,1
;   relativeEdistances,0
;   allowEaxisZeroing,1
;   independentExtruderAxes,0
;   includeM10123,0
;   stickySupport,1
;   applyToolheadOffsets,0
;   gcodeXoffset,0
;   gcodeYoffset,0
;   gcodeZoffset,0
;   overrideMachineDefinition,1
;   machineTypeOverride,0
;   strokeXoverride,1005
;   strokeYoverride,1005
;   strokeZoverride,1005
;   originOffsetXoverride,0
;   originOffsetYoverride,0
;   originOffsetZoverride,0
;   homeXdirOverride,-1
;   homeYdirOverride,-1
;   homeZdirOverride,-1
;   flipXoverride,1
;   flipYoverride,-1
;   flipZoverride,1
;   toolheadOffsets,0,0|0,0|0,0|0,0|0,0|0,0
;   overrideFirmwareConfiguration,0
;   firmwareTypeOverride,RepRap (Marlin/Repetier/Sprinter)
;   GPXconfigOverride,r2
;   baudRateOverride,115200
;   overridePrinterModels,0
;   printerModelsOverride
;   startingGcode,; 02.2019 - BigRep ONE Standard Extruder - PLA - 1 mm nozzle,M800,,M104 S[extruder0_temperature] H0,M104 S0 H1,M109 S[extruder0_temperature] H0,;M109 S[extruder1_temperature] H1,,T0,G28 ; home all axes,,T1 ; solve firmware bug,G92 E0 ; solve firmware bug,,T0 ; solve firmware bug,G92 E0 ; solve firmware bug
;   layerChangeGcode,
;   retractionGcode,
;   toolChangeGcode,
;   endingGcode,G92 E0,G1 E-5.0000 F1800 ; Reatract Filament,G91,G1 Z10 F4000 ; Lift Extruders,G90,G1 X5 F40000,G1 Y1000 F40000,T0,M104 S0 H0 ; turn off T0,M104 S0 H1 ; turn off T1,M107 P0,M107 P1,M140 S0 ; turn off bed,M84 ; disable motors,M801
;   exportFileFormat,gcode
;   celebration,0
;   celebrationSong,Star Wars
;   postProcessing,|{REPLACE "T2" "H2"}|{REPLACE "T3" "H3"}|{REPLACE "T4" "H4"}|{REPLACE "T5" "H5"}|{APPEND "\n\n;Zzzzz       /\     _,,,--,,_        \n;           /,`.-'`'   ._  \-;;,_    \n;          /,4-  ) )_   .;.(  `'-'   \n;         '---''(_/._)-'(_\_)        \n; This is Eve. Eve helped creating this gcode. But now she is tired and need some rest."}
;   defaultSpeed,5000
;   outlineUnderspeed,1
;   solidInfillUnderspeed,1
;   supportUnderspeed,1
;   rapidXYspeed,5000
;   rapidZspeed,1000
;   minBridgingArea,50
;   bridgingExtraInflation,1
;   bridgingExtrusionMultiplier,1
;   bridgingSpeedMultiplier,0.2
;   useFixedBridgingAngle,0
;   fixedBridgingAngle,0
;   applyBridgingToPerimeters,0
;   filamentDiameters,2.85|2.85|2.85|2.85|2.85|2.85
;   filamentPricesPerKg,28.12|28.125|28.125|28.125|28.125|28.125
;   filamentDensities,1.24|1.24|1.24|1.24|1.24|1.24
;   useMinPrintHeight,0
;   minPrintHeight,0
;   useMaxPrintHeight,0
;   maxPrintHeight,0
;   useDiaphragm,0
;   diaphragmLayerInterval,20
;   robustSlicing,1
;   mergeAllIntoSolid,0
;   onlyRetractWhenCrossingOutline,0
;   retractBetweenLayers,0
;   useRetractionMinTravel,1
;   retractionMinTravel,5
;   retractWhileWiping,1
;   onlyWipeOutlines,0
;   avoidCrossingOutline,0
;   maxMovementDetourFactor,3
;   toolChangeRetractionDistance,20
;   toolChangeExtraRestartDistance,0
;   toolChangeRetractionSpeed,1200
;   externalThinWallType,0
;   internalThinWallType,1
;   thinWallAllowedOverlapPercentage,5
;   singleExtrusionMinLength,1
;   singleExtrusionMinPrintingWidthPercentage,50
;   singleExtrusionMaxPrintingWidthPercentage,200
;   singleExtrusionEndpointExtension,0
;   horizontalSizeCompensation,0
G90
M82
M106 S0
; 02.2019 - BigRep ONE Standard Extruder - PLA - 1 mm nozzle
M800
M104 S205 H0
M104 S0 H1
M109 S205 H0
;M109 S205 H1
T0
G28 ; home all axes
T1 ; solve firmware bug
G92 E0 ; solve firmware bug
T0 ; solve firmware bug
G92 E0 ; solve firmware bug
; process BigRap_atu
; layer 1, Z = 0.200
T0
G92 E0.0000
G1 E-1.0000 F1800
; feature skirt
; tool H0.200 W1.200
G1 Z0.800 F1000
G1 X372.200 Y256.183 F5000
G1 Z0.200 F1000
G1 E0.0000 F1800
G92 E0.0000
G1 X376.183 Y252.200 E0.2119 F5000
G1 X628.817 Y252.200 E9.7163
G1 X632.800 Y256.183 E9.9282
G1 X632.800 Y748.817 E28.4616
G1 X628.817 Y752.800 E28.6736
G1 X376.183 Y752.800 E38.1779
G1 X372.200 Y748.817 E38.3898
G1 X372.200 Y256.183 E56.9232
G1 X373.400 Y256.680 F5000
G92 E0.0000
G1 X376.680 Y253.400 E0.1745 F5000
G1 X628.320 Y253.400 E9.6415
G1 X631.600 Y256.680 E9.8160
G1 X631.600 Y748.320 E28.3120
G1 X628.320 Y751.600 E28.4866
G1 X376.680 Y751.600 E37.9535
G1 X373.400 Y748.320 E38.1280
G1 X373.400 Y256.680 E56.6240
G92 E0.0000
G1 E-1.0000 F1800
; process BigRap_abu
; layer 2, Z = 0.020
; feature outer perimeter
; tool H0.020 W1.200
G1 Z1.000 F1000
G1 X386.600 Y739.600 F5000
G1 Z0.020 F1000
G1 E0.0000 F1800
G92 E0.0000
G1 X441.900 Y739.600 E0.2080 F2000
G1 X441.900 Y745.400 E0.2299
G1 X386.600 Y745.400 E0.4379
G1 X386.600 Y739.600 E0.4597
; feature infill
G1 X386.720 Y740.100 F5000
G92 E0.0000
G1 X441.780 Y740.100 E0.2071 F2000
G1 X441.780 Y741.300 E0.2117
G1 X386.720 Y741.300 E0.4188
G1 X386.720 Y742.500 E0.4233
G1 X441.780 Y742.500 E0.6305
G1 X441.780 Y743.700 E0.6350
G1 X386.720 Y743.700 E0.8421
G1 X386.720 Y744.900 E0.8466
G1 X441.780 Y744.900 E1.0538
G92 E0.0000
G1 E-1.0000 F1800
; feature outer perimeter
G1 Z0.820 F1000
G1 X563.100 Y745.400 F5000
G1 Z0.020 F1000
G1 E0.0000 F1800
G92 E0.0000
G1 X563.100 Y739.600 E0.0218 F2000
G1 X618.400 Y739.600 E0.2299
G1 X618.400 Y745.400 E0.2517
G1 X563.100 Y745.400 E0.4597
G92 E0.0000
G1 E-1.0000 F1800
; feature infill
G1 Z0.820 F1000
G1 X563.220 Y740.100 F5000
G1 Z0.020 F1000
G1 E0.0000 F1800
G92 E0.0000
G1 X618.280 Y740.100 E0.2071 F2000
G1 X618.280 Y741.300 E0.2117
G1 X563.220 Y741.300 E0.4188
G1 X563.220 Y742.500 E0.4233
G1 X618.280 Y742.500 E0.6305
G1 X618.280 Y743.700 E0.6350
G1 X563.220 Y743.700 E0.8421
G1 X563.220 Y744.900 E0.8466
G1 X618.280 Y744.900 E1.0538
G92 E0.0000
G1 E-1.0000 F1800
; feature outer perimeter
G1 Z0.820 F1000
G1 X438.400 Y685.400 F5000
G1 Z0.020 F1000
G1 E0.0000 F1800
G92 E0.0000
G1 X386.600 Y685.400 E0.1949 F2000
G1 X386.600 Y679.600 E0.2167
G1 X438.400 Y679.600 E0.4116
G1 X438.400 Y685.400 E0.4334
; feature infill
G1 X438.280 Y684.900 F5000
G92 E0.0000
G1 X386.720 Y684.900 E0.1940 F2000
G1 X386.720 Y683.700 E0.1985
G1 X438.280 Y683.700 E0.3925
G1 X438.280 Y682.500 E0.3970
G1 X386.720 Y682.500 E0.5910
G1 X386.720 Y681.300 E0.5955
G1 X438.280 Y681.300 E0.7894
G1 X438.280 Y680.100 E0.7940
G1 X386.720 Y680.100 E0.9879
G92 E0.0000
G1 E-1.0000 F1800
; feature outer perimeter
G1 Z0.820 F1000
G1 X566.600 Y679.600 F5000
G1 Z0.020 F1000
G1 E0.0000 F1800
G92 E0.0000
G1 X618.400 Y679.600 E0.1949 F2000
G1 X618.400 Y685.400 E0.2167
G1 X566.600 Y685.400 E0.4116
G1 X566.600 Y679.600 E0.4334
; feature infill
G1 X566.720 Y680.100 F5000
G92 E0.0000
G1 X618.280 Y680.100 E0.1940 F2000
G1 X618.280 Y681.300 E0.1985
G1 X566.720 Y681.300 E0.3925
G1 X566.720 Y682.500 E0.3970
G1 X618.280 Y682.500 E0.5910
G1 X618.280 Y683.700 E0.5955
G1 X566.720 Y683.700 E0.7894
G1 X566.720 Y684.900 E0.7940
G1 X618.280 Y684.900 E0.9879
G92 E0.0000
G1 E-1.0000 F1800
; feature outer perimeter
G1 Z0.820 F1000
G1 X438.400 Y565.400 F5000
G1 Z0.020 F1000
G1 E0.0000 F1800
G92 E0.0000
G1 X386.600 Y565.400 E0.1949 F2000
G1 X386.600 Y559.600 E0.2167
G1 X438.400 Y559.600 E0.4116
G1 X438.400 Y565.400 E0.4334
; feature infill
G1 X438.280 Y564.900 F5000
G92 E0.0000
G1 X386.720 Y564.900 E0.1940 F2000
G1 X386.720 Y563.700 E0.1985
G1 X438.280 Y563.700 E0.3925
G1 X438.280 Y562.500 E0.3970
G1 X386.720 Y562.500 E0.5910
G1 X386.720 Y561.300 E0.5955
G1 X438.280 Y561.300 E0.7894
G1 X438.280 Y560.100 E0.7940
G1 X386.720 Y560.100 E0.9879
G92 E0.0000
G1 E-1.0000 F1800
; feature outer perimeter
G1 Z0.820 F1000
G1 X566.600 Y559.600 F5000
G1 Z0.020 F1000
G1 E0.0000 F1800
G92 E0.0000
G1 X618.400 Y559.600 E0.1949 F2000
G1 X618.400 Y565.400 E0.2167
G1 X566.600 Y565.400 E0.4116
G1 X566.600 Y559.600 E0.4334
; feature infill
G1 X566.720 Y560.100 F5000
G92 E0.0000
G1 X618.280 Y560.100 E0.1940 F2000
G1 X618.280 Y561.300 E0.1985
G1 X566.720 Y561.300 E0.3925
G1 X566.720 Y562.500 E0.3970
G1 X618.280 Y562.500 E0.5910
G1 X618.280 Y563.700 E0.5955
G1 X566.720 Y563.700 E0.7894
G1 X566.720 Y564.900 E0.7940
G1 X618.280 Y564.900 E0.9879
G92 E0.0000
G1 E-1.0000 F1800
; feature outer perimeter
G1 Z0.820 F1000
G1 X441.900 Y505.400 F5000
G1 Z0.020 F1000
G1 E0.0000 F1800
G92 E0.0000
G1 X386.600 Y505.400 E0.2080 F2000
G1 X386.600 Y499.600 E0.2299
G1 X441.900 Y499.600 E0.4379
G1 X441.900 Y505.400 E0.4597
; feature infill
G1 X441.780 Y504.900 F5000
G92 E0.0000
G1 X386.720 Y504.900 E0.2071 F2000
G1 X386.720 Y503.700 E0.2117
G1 X441.780 Y503.700 E0.4188
G1 X441.780 Y502.500 E0.4233
G1 X386.720 Y502.500 E0.6305
G1 X386.720 Y501.300 E0.6350
G1 X441.780 Y501.300 E0.8421
G1 X441.780 Y500.100 E0.8466
G1 X386.720 Y500.100 E1.0538
G92 E0.0000
G1 E-1.0000 F1800
; feature outer perimeter
G1 Z0.820 F1000
G1 X563.100 Y499.600 F5000
G1 Z0.020 F1000
G1 E0.0000 F1800
G92 E0.0000
G1 X618.400 Y499.600 E0.2080 F2000
G1 X618.400 Y505.400 E0.2299
G1 X563.100 Y505.400 E0.4379
G1 X563.100 Y499.600 E0.4597
; feature infill
G1 X563.220 Y500.100 F5000
G92 E0.0000
G1 X618.280 Y500.100 E0.2071 F2000
G1 X618.280 Y501.300 E0.2117
G1 X563.220 Y501.300 E0.4188
G1 X563.220 Y502.500 E0.4233
G1 X618.280 Y502.500 E0.6305
G1 X618.280 Y503.700 E0.6350
G1 X563.220 Y503.700 E0.8421
G1 X563.220 Y504.900 E0.8466
G1 X618.280 Y504.900 E1.0538
G92 E0.0000
G1 E-1.0000 F1800
; feature outer perimeter
G1 Z0.820 F1000
G1 X438.400 Y445.400 F5000
G1 Z0.020 F1000
G1 E0.0000 F1800
G92 E0.0000
G1 X386.600 Y445.400 E0.1949 F2000
G1 X386.600 Y439.600 E0.2167
G1 X438.400 Y439.600 E0.4116
G1 X438.400 Y445.400 E0.4334
; feature infill
G1 X438.280 Y444.900 F5000
G92 E0.0000
G1 X386.720 Y444.900 E0.1940 F2000
G1 X386.720 Y443.700 E0.1985
G1 X438.280 Y443.700 E0.3925
G1 X438.280 Y442.500 E0.3970
G1 X386.720 Y442.500 E0.5910
G1 X386.720 Y441.300 E0.5955
G1 X438.280 Y441.300 E0.7894
G1 X438.280 Y440.100 E0.7940
G1 X386.720 Y440.100 E0.9879
G92 E0.0000
G1 E-1.0000 F1800
; feature outer perimeter
G1 Z0.820 F1000
G1 X566.600 Y439.600 F5000
G1 Z0.020 F1000
G1 E0.0000 F1800
G92 E0.0000
G1 X618.400 Y439.600 E0.1949 F2000
G1 X618.400 Y445.400 E0.2167
G1 X566.600 Y445.400 E0.4116
G1 X566.600 Y439.600 E0.4334
; feature infill
G1 X566.720 Y440.100 F5000
G92 E0.0000
G1 X618.280 Y440.100 E0.1940 F2000
G1 X618.280 Y441.300 E0.1985
G1 X566.720 Y441.300 E0.3925
G1 X566.720 Y442.500 E0.3970
G1 X618.280 Y442.500 E0.5910
G1 X618.280 Y443.700 E0.5955
G1 X566.720 Y443.700 E0.7894
G1 X566.720 Y444.900 E0.7940
G1 X618.280 Y444.900 E0.9879
G92 E0.0000
G1 E-1.0000 F1800
; feature outer perimeter
G1 Z0.820 F1000
G1 X438.400 Y325.400 F5000
G1 Z0.020 F1000
G1 E0.0000 F1800
G92 E0.0000
G1 X386.600 Y325.400 E0.1949 F2000
G1 X386.600 Y319.600 E0.2167
G1 X438.400 Y319.600 E0.4116
G1 X438.400 Y325.400 E0.4334
; feature infill
G1 X438.280 Y324.900 F5000
G92 E0.0000
G1 X386.720 Y324.900 E0.1940 F2000
G1 X386.720 Y323.700 E0.1985
G1 X438.280 Y323.700 E0.3925
G1 X438.280 Y322.500 E0.3970
G1 X386.720 Y322.500 E0.5910
G1 X386.720 Y321.300 E0.5955
G1 X438.280 Y321.300 E0.7894
G1 X438.280 Y320.100 E0.7940
G1 X386.720 Y320.100 E0.9879
G92 E0.0000
G1 E-1.0000 F1800
; feature outer perimeter
G1 Z0.820 F1000
G1 X566.600 Y319.600 F5000
G1 Z0.020 F1000
G1 E0.0000 F1800
G92 E0.0000
G1 X618.400 Y319.600 E0.1949 F2000
G1 X618.400 Y325.400 E0.2167
G1 X566.600 Y325.400 E0.4116
G1 X566.600 Y319.600 E0.4334
; feature infill
G1 X566.720 Y320.100 F5000
G92 E0.0000
G1 X618.280 Y320.100 E0.1940 F2000
G1 X618.280 Y321.300 E0.1985
G1 X566.720 Y321.300 E0.3925
G1 X566.720 Y322.500 E0.3970
G1 X618.280 Y322.500 E0.5910
G1 X618.280 Y323.700 E0.5955
G1 X566.720 Y323.700 E0.7894
G1 X566.720 Y324.900 E0.7940
G1 X618.280 Y324.900 E0.9879
G92 E0.0000
G1 E-1.0000 F1800
; feature outer perimeter
G1 Z0.820 F1000
G1 X441.900 Y265.400 F5000
G1 Z0.020 F1000
G1 E0.0000 F1800
G92 E0.0000
G1 X386.600 Y265.400 E0.2080 F2000
G1 X386.600 Y259.600 E0.2299
G1 X441.900 Y259.600 E0.4379
G1 X441.900 Y265.400 E0.4597
; feature infill
G1 X441.780 Y264.900 F5000
G92 E0.0000
G1 X386.720 Y264.900 E0.2071 F2000
G1 X386.720 Y263.700 E0.2117
G1 X441.780 Y263.700 E0.4188
G1 X441.780 Y262.500 E0.4233
G1 X386.720 Y262.500 E0.6305
G1 X386.720 Y261.300 E0.6350
G1 X441.780 Y261.300 E0.8421
G1 X441.780 Y260.100 E0.8466
G1 X386.720 Y260.100 E1.0538
G92 E0.0000
G1 E-1.0000 F1800
; feature outer perimeter
G1 Z0.820 F1000
G1 X563.100 Y259.600 F5000
G1 Z0.020 F1000
G1 E0.0000 F1800
G92 E0.0000
G1 X618.400 Y259.600 E0.2080 F2000
G1 X618.400 Y265.400 E0.2299
G1 X563.100 Y265.400 E0.4379
G1 X563.100 Y259.600 E0.4597
; feature infill
G1 X563.220 Y260.100 F5000
G92 E0.0000
G1 X618.280 Y260.100 E0.2071 F2000
G1 X618.280 Y261.300 E0.2117
G1 X563.220 Y261.300 E0.4188
G1 X563.220 Y262.500 E0.4233
G1 X618.280 Y262.500 E0.6305
G1 X618.280 Y263.700 E0.6350
G1 X563.220 Y263.700 E0.8421
G1 X563.220 Y264.900 E0.8466
G1 X618.280 Y264.900 E1.0538
G92 E0.0000
G1 E-1.0000 F1800
; process BigRap_abv
; feature outer perimeter
G1 Z0.820 F1000
G1 X385.400 Y683.100 F5000
G1 Z0.020 F1000
G1 E0.0000 F1800
G92 E0.0000
