; G-Code generated by Simplify3D(R) Version 4.1.2
; Jul 16, 2021 at 7:25:35 PM
; Settings Summary
;   processName,pre_extrude
;   applyToModels,pre
;   profileName,BigRap_ab-45 (modified)
;   profileVersion,2021-07-15 23:43:30
;   baseProfile,BigRep ONE - Standard Extruder 1mm
;   printMaterial,PLA - T0 Only
;   printQuality,0.6 mm Layer Height - Quality
;   printExtruders,
;   extruderName,T0 - Left Extruder,T1 - Right Extruder
;   extruderToolheadNumber,0,1
;   extruderDiameter,1,0.8
;   extruderAutoWidth,1,1
;   extruderWidth,1.2,0.96
;   extrusionMultiplier,1,1
;   extruderUseRetract,1,1
;   extruderRetractionDistance,1,1
;   extruderExtraRestartDistance,0,0
;   extruderRetractionZLift,0.8,0.8
;   extruderRetractionSpeed,1800,1800
;   extruderUseCoasting,0,0
;   extruderCoastingDistance,0.2,0.2
;   extruderUseWipe,0,0
;   extruderWipeDistance,5,5
;   primaryExtruder,0
;   layerHeight,0.2
;   topSolidLayers,0
;   bottomSolidLayers,0
;   perimeterOutlines,1
;   printPerimetersInsideOut,1
;   startPointOption,2
;   startPointOriginX,0
;   startPointOriginY,0
;   sequentialIslands,1
;   spiralVaseMode,0
;   firstLayerHeightPercentage,100
;   firstLayerWidthPercentage,100
;   firstLayerUnderspeed,0.4
;   useRaft,0
;   raftExtruder,0
;   raftTopLayers,1
;   raftBaseLayers,2
;   raftOffset,3
;   raftSeparationDistance,0.14
;   raftTopInfill,100
;   aboveRaftSpeedMultiplier,0.3
;   useSkirt,0
;   skirtExtruder,0
;   skirtLayers,1
;   skirtOutlines,2
;   skirtOffset,5
;   usePrimePillar,0
;   primePillarExtruder,0
;   primePillarWidth,45
;   primePillarLocation,5
;   primePillarSpeedMultiplier,1
;   useOozeShield,0
;   oozeShieldExtruder,999
;   oozeShieldOffset,2
;   oozeShieldOutlines,1
;   oozeShieldSidewallShape,1
;   oozeShieldSidewallAngle,30
;   oozeShieldSpeedMultiplier,1
;   infillExtruder,0
;   internalInfillPattern,Rectilinear
;   externalInfillPattern,Rectilinear
;   infillPercentage,0
;   outlineOverlapPercentage,90
;   infillExtrusionWidthPercentage,100
;   minInfillLength,0.1
;   infillLayerInterval,1
;   internalInfillAngles,-45
;   overlapInternalInfillAngles,0
;   externalInfillAngles,45,-45
;   generateSupport,0
;   supportExtruder,0
;   supportInfillPercentage,15
;   supportExtraInflation,1.5
;   supportBaseLayers,1
;   denseSupportExtruder,0
;   denseSupportLayers,4
;   denseSupportInfillPercentage,80
;   supportLayerInterval,1
;   supportHorizontalPartOffset,1
;   supportUpperSeparationLayers,1
;   supportLowerSeparationLayers,1
;   supportType,0
;   supportGridSpacing,2
;   maxOverhangAngle,55
;   supportAngles,45
;   temperatureName,T0 - Printing Temperature,T1 - Printing Temperature,Fan T0,Fan T1,T0 - Standby Temperature,T1 - Standby Temperature
;   temperatureNumber,0,1,4,5,2,3
;   temperatureSetpointCount,1,1,2,2,1,1
;   temperatureSetpointLayers,1,1,1,2,1,2,1,1
;   temperatureSetpointTemperatures,205,205,0,255,0,255,185,185
;   temperatureStabilizeAtStartup,0,0,0,0,0,0
;   temperatureHeatedBed,0,0,0,0,0,0
;   fanLayers,1,2
;   fanSpeeds,0,100
;   blipFanToFullPower,0
;   adjustSpeedForCooling,0
;   minSpeedLayerTime,7.5
;   minCoolingSpeedSlowdown,25
;   increaseFanForCooling,0
;   minFanLayerTime,45
;   maxCoolingFanSpeed,100
;   increaseFanForBridging,0
;   bridgingFanSpeed,100
;   use5D,1
;   relativeEdistances,0
;   allowEaxisZeroing,1
;   independentExtruderAxes,0
;   includeM10123,0
;   stickySupport,1
;   applyToolheadOffsets,0
;   gcodeXoffset,0
;   gcodeYoffset,0
;   gcodeZoffset,0
;   overrideMachineDefinition,1
;   machineTypeOverride,0
;   strokeXoverride,1005
;   strokeYoverride,1005
;   strokeZoverride,1005
;   originOffsetXoverride,0
;   originOffsetYoverride,0
;   originOffsetZoverride,0
;   homeXdirOverride,-1
;   homeYdirOverride,-1
;   homeZdirOverride,-1
;   flipXoverride,1
;   flipYoverride,-1
;   flipZoverride,1
;   toolheadOffsets,0,0|0,0|0,0|0,0|0,0|0,0
;   overrideFirmwareConfiguration,0
;   firmwareTypeOverride,RepRap (Marlin/Repetier/Sprinter)
;   GPXconfigOverride,r2
;   baudRateOverride,115200
;   overridePrinterModels,0
;   printerModelsOverride
;   startingGcode,; 02.2019 - BigRep ONE Standard Extruder - PLA - 1 mm nozzle,M800,,M104 S[extruder0_temperature] H0,M104 S0 H1,M109 S[extruder0_temperature] H0,;M109 S[extruder1_temperature] H1,,T0,G28 ; home all axes,,T1 ; solve firmware bug,G92 E0 ; solve firmware bug,,T0 ; solve firmware bug,G92 E0 ; solve firmware bug
;   layerChangeGcode,
;   retractionGcode,
;   toolChangeGcode,
;   endingGcode,G92 E0,G1 E-5.0000 F1800 ; Reatract Filament,G91,G1 Z10 F4000 ; Lift Extruders,G90,G1 X5 F40000,G1 Y1000 F40000,T0,M104 S0 H0 ; turn off T0,M104 S0 H1 ; turn off T1,M107 P0,M107 P1,M140 S0 ; turn off bed,M84 ; disable motors,M801
;   exportFileFormat,gcode
;   celebration,0
;   celebrationSong,Star Wars
;   postProcessing,|{REPLACE "T2" "H2"}|{REPLACE "T3" "H3"}|{REPLACE "T4" "H4"}|{REPLACE "T5" "H5"}|{APPEND "\n\n;Zzzzz       /\     _,,,--,,_        \n;           /,`.-'`'   ._  \-;;,_    \n;          /,4-  ) )_   .;.(  `'-'   \n;         '---''(_/._)-'(_\_)        \n; This is Eve. Eve helped creating this gcode. But now she is tired and need some rest."}
;   defaultSpeed,5000
;   outlineUnderspeed,0.6
;   solidInfillUnderspeed,1
;   supportUnderspeed,1
;   rapidXYspeed,5000
;   rapidZspeed,1000
;   minBridgingArea,50
;   bridgingExtraInflation,1
;   bridgingExtrusionMultiplier,1
;   bridgingSpeedMultiplier,0.2
;   useFixedBridgingAngle,0
;   fixedBridgingAngle,0
;   applyBridgingToPerimeters,0
;   filamentDiameters,2.85|2.85|2.85|2.85|2.85|2.85
;   filamentPricesPerKg,28.12|28.125|28.125|28.125|28.125|28.125
;   filamentDensities,1.24|1.24|1.24|1.24|1.24|1.24
;   useMinPrintHeight,0
;   minPrintHeight,0
;   useMaxPrintHeight,0
;   maxPrintHeight,0
;   useDiaphragm,0
;   diaphragmLayerInterval,20
;   robustSlicing,1
;   mergeAllIntoSolid,0
;   onlyRetractWhenCrossingOutline,0
;   retractBetweenLayers,0
;   useRetractionMinTravel,1
;   retractionMinTravel,5
;   retractWhileWiping,1
;   onlyWipeOutlines,0
;   avoidCrossingOutline,0
;   maxMovementDetourFactor,3
;   toolChangeRetractionDistance,20
;   toolChangeExtraRestartDistance,0
;   toolChangeRetractionSpeed,1200
;   externalThinWallType,0
;   internalThinWallType,1
;   thinWallAllowedOverlapPercentage,5
;   singleExtrusionMinLength,1
;   singleExtrusionMinPrintingWidthPercentage,50
;   singleExtrusionMaxPrintingWidthPercentage,200
;   singleExtrusionEndpointExtension,0
;   horizontalSizeCompensation,0
G90
M82
M106 S0
; 02.2019 - BigRep ONE Standard Extruder - PLA - 1 mm nozzle
M800
M104 S205 H0
M104 S0 H1
M109 S205 H0
;M109 S205 H1
T0
G28 ; home all axes
T1 ; solve firmware bug
G92 E0 ; solve firmware bug
T0 ; solve firmware bug
G92 E0 ; solve firmware bug
; process pre_extrude
; layer 1, Z = 0.200
T0
G92 E0.0000
G1 E-1.0000 F1800
; feature outer perimeter
; tool H0.200 W1.200
G1 Z0.800 F1000
G1 X24.687 Y11.411 F5000
G1 Z0.200 F1000
G1 E0.0000 F1800
G92 E0.0000
G1 X280.313 Y11.411 E9.6170 F1200
G1 X280.313 Y13.586 E9.6988
G1 X24.687 Y13.586 E19.3158
G1 X24.687 Y11.411 E19.3976
G92 E0.0000
G1 E-1.0000 F1800
; process ab+45
G1 Z1.000 F1000
G1 X240.006 Y235.906 F5000
G1 Z0.200 F1000
G1 E0.0000 F1800
G92 E0.0000
G1 X268.151 Y264.050 E1.4974 F1600
G1 X264.050 Y268.151 E1.7156
G1 X235.905 Y240.007 E3.2131
G1 X240.006 Y235.906 E3.4313
; feature infill
G1 X239.738 Y236.344 F5000
G92 E0.0000
G1 X267.713 Y264.319 E1.4884 F2000
G1 X266.864 Y265.167 E1.5335
G1 X238.889 Y237.192 E3.0220
G1 X238.041 Y238.041 E3.0671
G1 X266.016 Y266.016 E4.5555
G1 X265.167 Y266.865 E4.6006
G1 X237.192 Y238.889 E6.0890
G1 X236.344 Y239.738 E6.1342
G1 X264.319 Y267.713 E7.6226
G92 E0.0000
G1 E-1.0000 F1800
; feature outer perimeter
G1 Z1.000 F1000
G1 X181.494 Y185.595 F5000
G1 Z0.200 F1000
G1 E0.0000 F1800
G92 E0.0000
G1 X153.348 Y157.450 E1.4974 F1600
G1 X157.449 Y153.349 E1.7156
G1 X185.595 Y181.493 E3.2131
G1 X181.494 Y185.595 E3.4313
; feature infill
G1 X181.762 Y185.156 F5000
G92 E0.0000
G1 X153.787 Y157.181 E1.4884 F2000
G1 X154.635 Y156.332 E1.5336
G1 X182.611 Y184.308 E3.0220
G1 X183.459 Y183.459 E3.0671
G1 X155.484 Y155.484 E4.5555
G1 X156.332 Y154.635 E4.6006
G1 X184.308 Y182.611 E6.0891
G1 X185.156 Y181.762 E6.1342
G1 X157.181 Y153.787 E7.6226
G92 E0.0000
G1 E-1.0000 F1800
; feature outer perimeter
G1 Z1.000 F1000
G1 X151.652 Y147.550 F5000
G1 Z0.200 F1000
G1 E0.0000 F1800
G92 E0.0000
G1 X147.551 Y151.651 E0.2182 F1600
G1 X119.405 Y123.507 E1.7156
G1 X123.507 Y119.405 E1.9339
G1 X151.652 Y147.550 E3.4313
G92 E0.0000
G1 E-1.0000 F1800
; feature infill
G1 Z1.000 F1000
G1 X147.819 Y151.213 F5000
G1 Z0.200 F1000
G1 E0.0000 F1800
G92 E0.0000
G1 X119.844 Y123.238 E1.4884 F2000
G1 X120.692 Y122.389 E1.5335
G1 X148.668 Y150.365 E3.0220
G1 X149.516 Y149.516 E3.0671
G1 X121.541 Y121.541 E4.5555
G1 X122.389 Y120.692 E4.6006
G1 X150.365 Y148.668 E6.0891
G1 X151.213 Y147.819 E6.1342
G1 X123.238 Y119.844 E7.6226
G92 E0.0000
G1 E-1.0000 F1800
; feature outer perimeter
G1 Z1.000 F1000
G1 X69.095 Y64.993 F5000
G1 Z0.200 F1000
G1 E0.0000 F1800
G92 E0.0000
G1 X64.994 Y69.094 E0.2182 F1600
G1 X36.849 Y40.950 E1.7156
G1 X40.950 Y36.849 E1.9339
G1 X69.095 Y64.993 E3.4313
G92 E0.0000
G1 E-1.0000 F1800
; feature infill
G1 Z1.000 F1000
G1 X65.262 Y68.656 F5000
G1 Z0.200 F1000
G1 E0.0000 F1800
G92 E0.0000
G1 X37.287 Y40.681 E1.4884 F2000
G1 X38.136 Y39.833 E1.5335
G1 X66.111 Y67.808 E3.0220
G1 X66.959 Y66.959 E3.0671
G1 X38.984 Y38.984 E4.5555
G1 X39.833 Y38.136 E4.6006
G1 X67.808 Y66.111 E6.0891
G1 X68.656 Y65.262 E6.1342
G1 X40.681 Y37.287 E7.6226
G92 E0.0000
G1 E-1.0000 F1800
; process ab-45
; feature outer perimeter
G1 Z1.000 F1000
G1 X64.996 Y235.903 F5000
G1 Z0.200 F1000
G1 E0.0000 F1800
G92 E0.0000
G1 X69.097 Y240.005 E0.2182 F1200
G1 X40.951 Y268.149 E1.7156
G1 X36.850 Y264.048 E1.9339
G1 X64.996 Y235.903 E3.4313
G92 E0.0000
G1 E-1.0000 F1800
; feature infill
G1 Z1.000 F1000
G1 X68.658 Y239.735 F5000
G1 Z0.200 F1000
G1 E0.0000 F1800
G92 E0.0000
G1 X40.683 Y267.711 E1.4884 F2000
G1 X39.834 Y266.862 E1.5335
G1 X67.809 Y238.887 E3.0220
G1 X66.961 Y238.038 E3.0671
G1 X38.986 Y266.014 E4.5555
G1 X38.137 Y265.165 E4.6006
G1 X66.112 Y237.190 E6.0891
G1 X65.264 Y236.341 E6.1342
G1 X37.289 Y264.317 E7.6226
G92 E0.0000
G1 E-1.0000 F1800
; feature outer perimeter
G1 Z1.000 F1000
G1 X119.407 Y181.491 F5000
G1 Z0.200 F1000
G1 E0.0000 F1800
G92 E0.0000
G1 X147.551 Y153.345 E1.4974 F1200
G1 X151.653 Y157.447 E1.7156
G1 X123.508 Y185.592 E3.2131
G1 X119.407 Y181.491 E3.4313
; feature infill
G1 X119.845 Y181.760 F5000
G92 E0.0000
G1 X147.821 Y153.785 E1.4884 F2000
G1 X148.669 Y154.633 E1.5335
G1 X120.694 Y182.608 E3.0220
G1 X121.542 Y183.457 E3.0671
G1 X149.518 Y155.482 E4.5555
G1 X150.366 Y156.330 E4.6006
G1 X122.391 Y184.305 E6.0891
G1 X123.240 Y185.154 E6.1342
G1 X151.215 Y157.179 E7.6226
G92 E0.0000
G1 E-1.0000 F1800
; feature outer perimeter
G1 Z1.000 F1000
G1 X157.452 Y151.650 F5000
G1 Z0.200 F1000
G1 E0.0000 F1800
G92 E0.0000
G1 X153.351 Y147.549 E0.2182 F1200
G1 X181.495 Y119.403 E1.7156
G1 X185.596 Y123.504 E1.9339
G1 X157.452 Y151.650 E3.4313
G92 E0.0000
G1 E-1.0000 F1800
; feature infill
G1 Z1.000 F1000
G1 X153.788 Y147.817 F5000
G1 Z0.200 F1000
G1 E0.0000 F1800
G92 E0.0000
G1 X181.764 Y119.841 E1.4884 F2000
G1 X182.612 Y120.690 E1.5335
G1 X154.637 Y148.665 E3.0220
G1 X155.486 Y149.514 E3.0671
G1 X183.461 Y121.538 E4.5555
G1 X184.309 Y122.387 E4.6006
G1 X156.334 Y150.362 E6.0891
G1 X157.183 Y151.211 E6.1342
G1 X185.158 Y123.235 E7.6226
G92 E0.0000
G1 E-1.0000 F1800
; feature outer perimeter
G1 Z1.000 F1000
G1 X240.007 Y69.092 F5000
G1 Z0.200 F1000
G1 E0.0000 F1800
G92 E0.0000
G1 X235.906 Y64.990 E0.2182 F1200
G1 X264.052 Y36.846 E1.7156
G1 X268.153 Y40.948 E1.9339
G1 X240.007 Y69.092 E3.4313
G92 E0.0000
G1 E-1.0000 F1800
; feature infill
G1 Z1.000 F1000
G1 X236.345 Y65.260 F5000
G1 Z0.200 F1000
G1 E0.0000 F1800
G92 E0.0000
G1 X264.321 Y37.285 E1.4884 F2000
G1 X265.169 Y38.133 E1.5335
G1 X237.194 Y66.108 E3.0220
G1 X238.042 Y66.957 E3.0671
G1 X266.018 Y38.982 E4.5555
G1 X266.866 Y39.830 E4.6006
G1 X238.891 Y67.806 E6.0891
G1 X239.739 Y68.654 E6.1342
G1 X267.715 Y40.679 E7.6226
G92 E0.0000
G1 E-1.0000 F1800
; process abu
; feature outer perimeter
G1 Z1.000 F1000
G1 X79.905 Y269.598 F5000
G1 Z0.200 F1000
G1 E0.0000 F1800
G92 E0.0000
G1 X79.905 Y275.398 E0.2182 F1600
G1 X41.551 Y275.398 E1.6611
G1 X41.551 Y269.598 E1.8793
G1 X79.905 Y269.598 E3.3222
G92 E0.0000
G1 E-1.0000 F1800
; feature infill
G1 Z1.000 F1000
G1 X79.785 Y274.898 F5000
G1 Z0.200 F1000
G1 E0.0000 F1800
G92 E0.0000
G1 X41.671 Y274.898 E1.4339 F2000
G1 X41.671 Y273.698 E1.4790
G1 X79.785 Y273.698 E2.9129
G1 X79.785 Y272.498 E2.9580
G1 X41.671 Y272.498 E4.3919
G1 X41.671 Y271.298 E4.4370
G1 X79.785 Y271.298 E5.8709
G1 X79.785 Y270.098 E5.9160
G1 X41.671 Y270.098 E7.3499
G92 E0.0000
G1 E-1.0000 F1800
; feature outer perimeter
G1 Z1.000 F1000
G1 X225.099 Y269.598 F5000
G1 Z0.200 F1000
G1 E0.0000 F1800
G92 E0.0000
G1 X263.452 Y269.598 E1.4429 F1600
G1 X263.452 Y275.398 E1.6611
G1 X225.099 Y275.398 E3.1040
G1 X225.099 Y269.598 E3.3222
; feature infill
G1 X225.219 Y270.098 F5000
G92 E0.0000
G1 X263.332 Y270.098 E1.4339 F2000
G1 X263.332 Y271.298 E1.4790
G1 X225.219 Y271.298 E2.9129
G1 X225.219 Y272.498 E2.9580
G1 X263.332 Y272.498 E4.3919
G1 X263.332 Y273.698 E4.4370
G1 X225.219 Y273.698 E5.8709
G1 X225.219 Y274.898 E5.9160
G1 X263.332 Y274.898 E7.3499
G92 E0.0000
G1 E-1.0000 F1800
; feature outer perimeter
G1 Z1.000 F1000
G1 X79.905 Y35.398 F5000
G1 Z0.200 F1000
G1 E0.0000 F1800
G92 E0.0000
G1 X41.551 Y35.398 E1.4429 F1600
G1 X41.551 Y29.598 E1.6611
G1 X79.905 Y29.598 E3.1040
G1 X79.905 Y35.398 E3.3222
; feature infill
G1 X79.785 Y34.898 F5000
G92 E0.0000
G1 X41.671 Y34.898 E1.4339 F2000
G1 X41.671 Y33.698 E1.4790
G1 X79.785 Y33.698 E2.9129
G1 X79.785 Y32.498 E2.9580
G1 X41.671 Y32.498 E4.3919
G1 X41.671 Y31.298 E4.4370
G1 X79.785 Y31.298 E5.8709
G1 X79.785 Y30.098 E5.9160
G1 X41.671 Y30.098 E7.3499
G92 E0.0000
G1 E-1.0000 F1800
; feature outer perimeter
G1 Z1.000 F1000
G1 X225.099 Y29.598 F5000
G1 Z0.200 F1000
G1 E0.0000 F1800
G92 E0.0000
G1 X263.452 Y29.598 E1.4429 F1600
G1 X263.452 Y35.398 E1.6611
G1 X225.099 Y35.398 E3.1040
G1 X225.099 Y29.598 E3.3222
; feature infill
G1 X225.219 Y30.098 F5000
G92 E0.0000
G1 X263.332 Y30.098 E1.4339 F2000
G1 X263.332 Y31.298 E1.4790
G1 X225.219 Y31.298 E2.9129
G1 X225.219 Y32.498 E2.9580
G1 X263.332 Y32.498 E4.3919
G1 X263.332 Y33.698 E4.4370
G1 X225.219 Y33.698 E5.8709
G1 X225.219 Y34.898 E5.9160
G1 X263.332 Y34.898 E7.3499
G92 E0.0000
G1 E-1.0000 F1800
; process abv
; feature outer perimeter
G1 Z1.000 F1000
G1 X35.402 Y225.094 F5000
G1 Z0.200 F1000
G1 E0.0000 F1800
G92 E0.0000
G1 X35.402 Y263.448 E1.4429 F1600
G1 X29.602 Y263.448 E1.6611
G1 X29.602 Y225.094 E3.1040
G1 X35.402 Y225.094 E3.3222
; feature infill
G1 X34.902 Y225.214 F5000
G92 E0.0000
G1 X34.902 Y263.328 E1.4339 F2000
G1 X33.702 Y263.328 E1.4790
G1 X33.702 Y225.214 E2.9129
G1 X32.502 Y225.214 E2.9580
G1 X32.502 Y263.328 E4.3919
G1 X31.302 Y263.328 E4.4370
G1 X31.302 Y225.214 E5.8709
G1 X30.102 Y225.214 E5.9160
G1 X30.102 Y263.328 E7.3499
G92 E0.0000
G1 E-1.0000 F1800
; feature outer perimeter
G1 Z1.000 F1000
G1 X269.602 Y263.448 F5000
G1 Z0.200 F1000
G1 E0.0000 F1800
G92 E0.0000
G1 X269.602 Y225.094 E1.4429 F1600
G1 X275.402 Y225.094 E1.6611
G1 X275.402 Y263.448 E3.1040
G1 X269.602 Y263.448 E3.3222
; feature infill
G1 X270.102 Y263.328 F5000
G92 E0.0000
G1 X270.102 Y225.214 E1.4339 F2000
G1 X271.302 Y225.214 E1.4790
G1 X271.302 Y263.328 E2.9129
G1 X272.502 Y263.328 E2.9580
G1 X272.502 Y225.214 E4.3919
G1 X273.702 Y225.214 E4.4370
G1 X273.702 Y263.328 E5.8709
G1 X274.902 Y263.328 E5.9160
G1 X274.902 Y225.214 E7.3499
G92 E0.0000
G1 E-1.0000 F1800
; feature outer perimeter
G1 Z1.000 F1000
G1 X35.402 Y79.901 F5000
G1 Z0.200 F1000
G1 E0.0000 F1800
G92 E0.0000
G1 X29.602 Y79.901 E0.2182 F1600
G1 X29.602 Y41.548 E1.6611
G1 X35.402 Y41.548 E1.8793
G1 X35.402 Y79.901 E3.3222
G92 E0.0000
G1 E-1.0000 F1800
; feature infill
G1 Z1.000 F1000
