; G-Code generated by Simplify3D(R) Version 4.1.2
; Jul 16, 2021 at 8:54:30 PM
; Settings Summary
;   processName,ab+45
;   applyToModels,ab+45
;   profileName,ab+45
;   profileVersion,2021-07-16 20:23:42
;   baseProfile,Raise3D N2 Dual (modified)
;   printMaterial,PLA
;   printQuality,Medium
;   printExtruders,Right Extruder Only
;   extruderName,Extruder_1
;   extruderToolheadNumber,0
;   extruderDiameter,0.8
;   extruderAutoWidth,0
;   extruderWidth,0.8
;   extrusionMultiplier,1
;   extruderUseRetract,1
;   extruderRetractionDistance,4.4
;   extruderExtraRestartDistance,0
;   extruderRetractionZLift,0
;   extruderRetractionSpeed,1200
;   extruderUseCoasting,0
;   extruderCoastingDistance,0.2
;   extruderUseWipe,0
;   extruderWipeDistance,5
;   primaryExtruder,0
;   layerHeight,0.2
;   topSolidLayers,0
;   bottomSolidLayers,0
;   perimeterOutlines,1
;   printPerimetersInsideOut,1
;   startPointOption,2
;   startPointOriginX,0
;   startPointOriginY,0
;   sequentialIslands,1
;   spiralVaseMode,0
;   firstLayerHeightPercentage,100
;   firstLayerWidthPercentage,100
;   firstLayerUnderspeed,1
;   useRaft,0
;   raftExtruder,0
;   raftTopLayers,3
;   raftBaseLayers,2
;   raftOffset,3
;   raftSeparationDistance,0.14
;   raftTopInfill,100
;   aboveRaftSpeedMultiplier,0.3
;   useSkirt,1
;   skirtExtruder,0
;   skirtLayers,1
;   skirtOutlines,2
;   skirtOffset,4
;   usePrimePillar,0
;   primePillarExtruder,999
;   primePillarWidth,12
;   primePillarLocation,7
;   primePillarSpeedMultiplier,1
;   useOozeShield,0
;   oozeShieldExtruder,999
;   oozeShieldOffset,2
;   oozeShieldOutlines,1
;   oozeShieldSidewallShape,1
;   oozeShieldSidewallAngle,30
;   oozeShieldSpeedMultiplier,1
;   infillExtruder,0
;   internalInfillPattern,Rectilinear
;   externalInfillPattern,Rectilinear
;   infillPercentage,100
;   outlineOverlapPercentage,90
;   infillExtrusionWidthPercentage,100
;   minInfillLength,0.01
;   infillLayerInterval,1
;   internalInfillAngles,0
;   overlapInternalInfillAngles,0
;   externalInfillAngles,45,-45
;   generateSupport,0
;   supportExtruder,0
;   supportInfillPercentage,30
;   supportExtraInflation,0
;   supportBaseLayers,0
;   denseSupportExtruder,0
;   denseSupportLayers,0
;   denseSupportInfillPercentage,70
;   supportLayerInterval,1
;   supportHorizontalPartOffset,0.3
;   supportUpperSeparationLayers,1
;   supportLowerSeparationLayers,1
;   supportType,0
;   supportGridSpacing,4
;   maxOverhangAngle,45
;   supportAngles,0
;   temperatureName,Extruder_1
;   temperatureNumber,0
;   temperatureSetpointCount,1
;   temperatureSetpointLayers,1
;   temperatureSetpointTemperatures,200
;   temperatureStabilizeAtStartup,1
;   temperatureHeatedBed,0
;   fanLayers,1,2
;   fanSpeeds,0,100
;   blipFanToFullPower,1
;   adjustSpeedForCooling,0
;   minSpeedLayerTime,15
;   minCoolingSpeedSlowdown,20
;   increaseFanForCooling,0
;   minFanLayerTime,45
;   maxCoolingFanSpeed,100
;   increaseFanForBridging,0
;   bridgingFanSpeed,100
;   use5D,1
;   relativeEdistances,0
;   allowEaxisZeroing,1
;   independentExtruderAxes,0
;   includeM10123,0
;   stickySupport,1
;   applyToolheadOffsets,0
;   gcodeXoffset,0
;   gcodeYoffset,0
;   gcodeZoffset,0
;   overrideMachineDefinition,1
;   machineTypeOverride,0
;   strokeXoverride,305
;   strokeYoverride,305
;   strokeZoverride,305
;   originOffsetXoverride,0
;   originOffsetYoverride,0
;   originOffsetZoverride,0
;   homeXdirOverride,-1
;   homeYdirOverride,-1
;   homeZdirOverride,-1
;   flipXoverride,1
;   flipYoverride,-1
;   flipZoverride,1
;   toolheadOffsets,0,0|-25,0|0,0|0,0|0,0|0,0
;   overrideFirmwareConfiguration,1
;   firmwareTypeOverride,RepRap (Marlin/Repetier/Sprinter)
;   GPXconfigOverride,r2
;   baudRateOverride,230400
;   overridePrinterModels,1
;   printerModelsOverride
;   startingGcode,M221 T1 S100,G28,G1 Z15.0 F9000.00,G92 E0,G1 E25 F200,G1 Z0 F130,G92 E0,M117 Printing.,M1001
;   layerChangeGcode,
;   retractionGcode,
;   toolChangeGcode,
;   endingGcode,M107,M1002,M104 S0 T1,M104 S0 T0,M140 S0,M117 Print Complete.,G28 X0 Y0,G91,G1 Z10,G90,M84
;   exportFileFormat,gcode
;   celebration,0
;   celebrationSong,Star Wars
;   postProcessing,
;   defaultSpeed,5000
;   outlineUnderspeed,1
;   solidInfillUnderspeed,1
;   supportUnderspeed,1
;   rapidXYspeed,5000
;   rapidZspeed,1000
;   minBridgingArea,50
;   bridgingExtraInflation,0
;   bridgingExtrusionMultiplier,1
;   bridgingSpeedMultiplier,1
;   useFixedBridgingAngle,0
;   fixedBridgingAngle,0
;   applyBridgingToPerimeters,0
;   filamentDiameters,1.75|1.75|1.75|1.75|1.75|1.75
;   filamentPricesPerKg,46|46|46|46|46|46
;   filamentDensities,1.25|1.25|1.25|1.25|1.25|1.25
;   useMinPrintHeight,0
;   minPrintHeight,0
;   useMaxPrintHeight,0
;   maxPrintHeight,0
;   useDiaphragm,0
;   diaphragmLayerInterval,20
;   robustSlicing,1
;   mergeAllIntoSolid,0
;   onlyRetractWhenCrossingOutline,0
;   retractBetweenLayers,0
;   useRetractionMinTravel,1
;   retractionMinTravel,3
;   retractWhileWiping,1
;   onlyWipeOutlines,1
;   avoidCrossingOutline,1
;   maxMovementDetourFactor,400
;   toolChangeRetractionDistance,12
;   toolChangeExtraRestartDistance,-0.5
;   toolChangeRetractionSpeed,600
;   externalThinWallType,0
;   internalThinWallType,2
;   thinWallAllowedOverlapPercentage,100
;   singleExtrusionMinLength,0.01
;   singleExtrusionMinPrintingWidthPercentage,1
;   singleExtrusionMaxPrintingWidthPercentage,200
;   singleExtrusionEndpointExtension,0.01
;   horizontalSizeCompensation,0
G90
M82
M106 S0
M104 S200 T0
M109 S200 T0
M221 T1 S100
G28
G1 Z15.0 F9000.00
G92 E0
G1 E25 F200
G1 Z0 F130
G92 E0
M117 Printing.
M1001
; process at+45
; layer 1, Z = 0.200
T0
G92 E0.0000
G1 E-4.4000 F1200
; feature skirt
; tool H0.200 W0.800
G1 Z0.200 F1000
G1 X23.800 Y26.846 F5000
G1 E0.0000 F1200
G92 E0.0000
G1 X26.846 Y23.800 E0.2866 F5000
G1 X278.154 Y23.800 E17.0036
G1 X281.200 Y26.846 E17.2902
G1 X281.200 Y278.154 E34.0072
G1 X278.154 Y281.200 E34.2938
G1 X26.846 Y281.200 E51.0109
G1 X23.800 Y278.154 E51.2974
G1 X23.800 Y26.846 E68.0145
G1 X24.600 Y27.177 F5000
G92 E0.0000
G1 X27.177 Y24.600 E0.2425 F5000
G1 X277.823 Y24.600 E16.9155
G1 X280.400 Y27.177 E17.1579
G1 X280.400 Y277.823 E33.8309
G1 X277.823 Y280.400 E34.0734
G1 X27.177 Y280.400 E50.7464
G1 X24.600 Y277.823 E50.9888
G1 X24.600 Y27.177 E67.6618
G92 E0.0000
G1 E-4.4000 F1200
; process ab+45
; feature outer perimeter
G1 X181.724 Y185.647 F5000
G1 X181.494 Y185.878
G1 X235.622 Y240.007
G1 E0.0000 F1200
G92 E0.0000
G1 X240.006 Y235.623 E0.4124 F5000
G1 X268.434 Y264.050 E3.0868
G1 X264.050 Y268.434 E3.4992
G1 X235.622 Y240.007 E6.1735
G92 E0.0000
G1 E-4.4000 F1200
; feature infill
G1 X239.242 Y236.500 F5000
G1 E0.0000 F1200
G92 E0.0000
G1 X240.770 Y236.500 E0.1016 F5000
G1 X241.570 Y237.300 E0.1769
G1 X238.442 Y237.300 E0.3850
G1 X237.642 Y238.100 E0.4602
G1 X242.370 Y238.100 E0.7747
G1 X243.170 Y238.900 E0.8500
G1 X236.842 Y238.900 E1.2709
G1 X236.042 Y239.700 E1.3462
G1 X243.970 Y239.700 E1.8735
G1 X244.770 Y240.500 E1.9488
G1 X236.228 Y240.500 E2.5170
G1 X237.028 Y241.300 E2.5923
G1 X245.570 Y241.300 E3.1605
G1 X246.370 Y242.100 E3.2358
G1 X237.828 Y242.100 E3.8040
G1 X238.628 Y242.900 E3.8793
G1 X247.170 Y242.900 E4.4475
G1 X247.970 Y243.700 E4.5228
G1 X239.428 Y243.700 E5.0910
G1 X240.228 Y244.500 E5.1663
G1 X248.770 Y244.500 E5.7345
G1 X249.570 Y245.300 E5.8098
G1 X241.028 Y245.300 E6.3781
G1 X241.828 Y246.100 E6.4533
G1 X250.370 Y246.100 E7.0216
G1 X251.170 Y246.900 E7.0968
G1 X242.628 Y246.900 E7.6651
G1 X243.428 Y247.700 E7.7403
G1 X251.970 Y247.700 E8.3086
G1 X252.770 Y248.500 E8.3838
G1 X244.228 Y248.500 E8.9521
G1 X245.028 Y249.300 E9.0273
G1 X253.570 Y249.300 E9.5956
G1 X254.371 Y250.100 E9.6708
G1 X245.828 Y250.100 E10.2391
G1 X246.628 Y250.900 E10.3143
G1 X255.171 Y250.900 E10.8826
G1 X255.971 Y251.700 E10.9578
G1 X247.428 Y251.700 E11.5261
G1 X248.228 Y252.500 E11.6013
G1 X256.771 Y252.500 E12.1696
G1 X257.571 Y253.300 E12.2448
G1 X249.028 Y253.300 E12.8131
G1 X249.828 Y254.100 E12.8883
G1 X258.371 Y254.100 E13.4566
G1 X259.171 Y254.900 E13.5318
G1 X250.628 Y254.900 E14.1001
G1 X251.428 Y255.700 E14.1753
G1 X259.971 Y255.700 E14.7436
G1 X260.771 Y256.500 E14.8188
G1 X252.228 Y256.500 E15.3870
G1 X253.029 Y257.300 E15.4623
G1 X261.571 Y257.300 E16.0305
G1 X262.371 Y258.100 E16.1058
G1 X253.829 Y258.100 E16.6740
G1 X254.629 Y258.900 E16.7493
G1 X263.171 Y258.900 E17.3175
G1 X263.971 Y259.700 E17.3928
G1 X255.429 Y259.700 E17.9610
G1 X256.229 Y260.500 E18.0363
G1 X264.771 Y260.500 E18.6045
G1 X265.571 Y261.300 E18.6798
G1 X257.029 Y261.300 E19.2480
G1 X257.829 Y262.100 E19.3233
G1 X266.371 Y262.100 E19.8915
G1 X267.171 Y262.900 E19.9668
G1 X258.629 Y262.900 E20.5350
G1 X259.429 Y263.700 E20.6103
G1 X267.971 Y263.700 E21.1785
G1 X268.321 Y264.050 E21.2115
G1 X267.871 Y264.500 E21.2538
G1 X260.229 Y264.500 E21.7622
G1 X261.029 Y265.300 E21.8374
G1 X267.071 Y265.300 E22.2393
G1 X266.271 Y266.100 E22.3146
G1 X261.829 Y266.100 E22.6101
G1 X262.629 Y266.900 E22.6854
G1 X265.471 Y266.900 E22.8744
G1 X264.671 Y267.700 E22.9497
G1 X263.429 Y267.700 E23.0323
G92 E0.0000
G1 E-4.4000 F1200
; feature outer perimeter
G1 X235.660 Y239.969 F5000
G1 X235.622 Y240.007
G1 X181.494 Y185.878
G1 E0.0000 F1200
G92 E0.0000
G1 X153.065 Y157.450 E2.6743 F5000
G1 X157.449 Y153.066 E3.0868
G1 X185.878 Y181.493 E5.7611
G1 X181.494 Y185.878 E6.1735
; feature infill
G1 X181.958 Y185.300 F5000
G92 E0.0000
G1 X181.029 Y185.300 E0.0618 F5000
G1 X180.229 Y184.500 E0.1370
G1 X182.758 Y184.500 E0.3053
G1 X183.558 Y183.700 E0.3805
G1 X179.429 Y183.700 E0.6552
G1 X178.629 Y182.900 E0.7304
G1 X184.358 Y182.900 E1.1115
G1 X185.158 Y182.100 E1.1868
G1 X177.829 Y182.100 E1.6743
G1 X177.029 Y181.300 E1.7495
G1 X185.571 Y181.300 E2.3178
G1 X184.771 Y180.500 E2.3930
G1 X176.229 Y180.500 E2.9613
G1 X175.429 Y179.700 E3.0365
G1 X183.971 Y179.700 E3.6048
G1 X183.171 Y178.900 E3.6800
G1 X174.629 Y178.900 E4.2482
G1 X173.829 Y178.100 E4.3235
G1 X182.371 Y178.100 E4.8917
G1 X181.571 Y177.300 E4.9670
G1 X173.029 Y177.300 E5.5352
G1 X172.229 Y176.500 E5.6105
G1 X180.771 Y176.500 E6.1787
G1 X179.971 Y175.700 E6.2540
G1 X171.429 Y175.700 E6.8222
G1 X170.629 Y174.900 E6.8975
G1 X179.171 Y174.900 E7.4657
G1 X178.371 Y174.100 E7.5410
G1 X169.829 Y174.100 E8.1092
G1 X169.028 Y173.300 E8.1845
G1 X177.571 Y173.300 E8.7527
G1 X176.771 Y172.500 E8.8280
G1 X168.228 Y172.500 E9.3962
G1 X167.428 Y171.700 E9.4715
G1 X175.971 Y171.700 E10.0397
G1 X175.171 Y170.900 E10.1150
G1 X166.628 Y170.900 E10.6832
G1 X165.828 Y170.100 E10.7585
G1 X174.371 Y170.100 E11.3267
G1 X173.571 Y169.300 E11.4020
G1 X165.028 Y169.300 E11.9702
G1 X164.228 Y168.500 E12.0455
G1 X172.771 Y168.500 E12.6137
G1 X171.970 Y167.700 E12.6890
G1 X163.428 Y167.700 E13.2572
G1 X162.628 Y166.900 E13.3325
G1 X171.170 Y166.900 E13.9007
G1 X170.370 Y166.100 E13.9760
G1 X161.828 Y166.100 E14.5442
G1 X161.028 Y165.300 E14.6195
G1 X169.570 Y165.300 E15.1877
G1 X168.770 Y164.500 E15.2630
G1 X160.228 Y164.500 E15.8312
G1 X159.428 Y163.700 E15.9065
G1 X167.970 Y163.700 E16.4747
G1 X167.170 Y162.900 E16.5500
G1 X158.628 Y162.900 E17.1182
G1 X157.828 Y162.100 E17.1935
G1 X166.370 Y162.100 E17.7617
G1 X165.570 Y161.300 E17.8370
G1 X157.028 Y161.300 E18.4052
G1 X156.228 Y160.500 E18.4805
G1 X164.770 Y160.500 E19.0487
G1 X163.970 Y159.700 E19.1240
G1 X155.428 Y159.700 E19.6922
G1 X154.628 Y158.900 E19.7675
G1 X163.170 Y158.900 E20.3357
G1 X162.370 Y158.100 E20.4110
G1 X153.828 Y158.100 E20.9792
G1 X153.178 Y157.450 E21.0403
G1 X153.329 Y157.300 E21.0545
G1 X161.570 Y157.300 E21.6027
G1 X160.770 Y156.500 E21.6780
G1 X154.129 Y156.500 E22.1198
G1 X154.928 Y155.700 E22.1950
G1 X159.970 Y155.700 E22.5304
G1 X159.170 Y154.900 E22.6056
G1 X155.728 Y154.900 E22.8346
G1 X156.528 Y154.100 E22.9098
G1 X158.370 Y154.100 E23.0323
G1 X157.570 Y153.300 E23.1076
G1 X157.328 Y153.300 E23.1236
G92 E0.0000
G1 E-4.4000 F1200
; feature outer perimeter
G1 X157.274 Y153.242 F5000
G1 X157.449 Y153.066
G1 X151.935 Y147.550
G1 E0.0000 F1200
G92 E0.0000
G1 X147.551 Y151.934 E0.4124 F5000
G1 X119.122 Y123.507 E3.0868
G1 X123.507 Y119.122 E3.4992
G1 X151.935 Y147.550 E6.1735
G92 E0.0000
G1 E-4.4000 F1200
; feature infill
G1 X147.672 Y151.700 F5000
G1 E0.0000 F1200
G92 E0.0000
G1 X147.430 Y151.700 E0.0161 F5000
G1 X146.630 Y150.900 E0.0913
G1 X148.472 Y150.900 E0.2138
G1 X149.272 Y150.100 E0.2891
G1 X145.830 Y150.100 E0.5180
G1 X145.030 Y149.300 E0.5932
G1 X150.072 Y149.300 E0.9286
G1 X150.871 Y148.500 E1.0038
G1 X144.230 Y148.500 E1.4456
G1 X143.430 Y147.700 E1.5209
G1 X151.671 Y147.700 E2.0691
G1 X151.822 Y147.550 E2.0832
G1 X151.172 Y146.900 E2.1444
G1 X142.630 Y146.900 E2.7126
G1 X141.830 Y146.100 E2.7878
G1 X150.372 Y146.100 E3.3561
G1 X149.572 Y145.300 E3.4313
G1 X141.030 Y145.300 E3.9996
G1 X140.230 Y144.500 E4.0748
G1 X148.772 Y144.500 E4.6431
G1 X147.972 Y143.700 E4.7183
G1 X139.430 Y143.700 E5.2866
G1 X138.630 Y142.900 E5.3618
G1 X147.172 Y142.900 E5.9301
G1 X146.372 Y142.100 E6.0053
G1 X137.830 Y142.100 E6.5736
G1 X137.030 Y141.300 E6.6488
G1 X145.572 Y141.300 E7.2171
G1 X144.772 Y140.500 E7.2923
G1 X136.230 Y140.500 E7.8606
G1 X135.430 Y139.700 E7.9358
G1 X143.972 Y139.700 E8.5041
G1 X143.172 Y138.900 E8.5793
G1 X134.630 Y138.900 E9.1476
G1 X133.830 Y138.100 E9.2228
G1 X142.372 Y138.100 E9.7911
G1 X141.572 Y137.300 E9.8663
G1 X133.030 Y137.300 E10.4346
G1 X132.230 Y136.500 E10.5098
G1 X140.772 Y136.500 E11.0781
G1 X139.972 Y135.700 E11.1533
G1 X131.430 Y135.700 E11.7216
G1 X130.629 Y134.900 E11.7968
G1 X139.172 Y134.900 E12.3650
G1 X138.372 Y134.100 E12.4403
G1 X129.829 Y134.100 E13.0085
G1 X129.029 Y133.300 E13.0838
G1 X137.572 Y133.300 E13.6520
G1 X136.772 Y132.500 E13.7273
G1 X128.229 Y132.500 E14.2955
G1 X127.429 Y131.700 E14.3708
G1 X135.972 Y131.700 E14.9390
G1 X135.172 Y130.900 E15.0143
G1 X126.629 Y130.900 E15.5825
G1 X125.829 Y130.100 E15.6578
G1 X134.372 Y130.100 E16.2260
G1 X133.572 Y129.300 E16.3013
G1 X125.029 Y129.300 E16.8695
G1 X124.229 Y128.500 E16.9448
G1 X132.771 Y128.500 E17.5130
G1 X131.971 Y127.700 E17.5883
G1 X123.429 Y127.700 E18.1565
G1 X122.629 Y126.900 E18.2318
G1 X131.171 Y126.900 E18.8000
G1 X130.371 Y126.100 E18.8753
G1 X121.829 Y126.100 E19.4435
G1 X121.029 Y125.300 E19.5188
G1 X129.571 Y125.300 E20.0870
G1 X128.771 Y124.500 E20.1623
G1 X120.229 Y124.500 E20.7305
G1 X119.429 Y123.700 E20.8058
G1 X127.971 Y123.700 E21.3740
G1 X127.171 Y122.900 E21.4493
G1 X119.842 Y122.900 E21.9368
G1 X120.642 Y122.100 E22.0121
G1 X126.371 Y122.100 E22.3932
G1 X125.571 Y121.300 E22.4684
G1 X121.442 Y121.300 E22.7431
G1 X122.242 Y120.500 E22.8183
G1 X124.771 Y120.500 E22.9866
G1 X123.971 Y119.700 E23.0618
G1 X123.042 Y119.700 E23.1236
G92 E0.0000
G1 E-4.4000 F1200
; feature outer perimeter
G1 X122.986 Y119.643 F5000
G1 X123.507 Y119.122
G1 X69.378 Y64.993
G1 E0.0000 F1200
G92 E0.0000
G1 X64.994 Y69.377 E0.4124 F5000
G1 X36.566 Y40.950 E3.0867
G1 X40.950 Y36.566 E3.4992
G1 X69.378 Y64.993 E6.1735
G92 E0.0000
G1 E-4.4000 F1200
; feature infill
G1 X64.230 Y68.500 F5000
G1 E0.0000 F1200
G92 E0.0000
G1 X65.758 Y68.500 E0.1016 F5000
G1 X66.558 Y67.700 E0.1769
G1 X63.430 Y67.700 E0.3849
G1 X62.630 Y66.900 E0.4602
G1 X67.358 Y66.900 E0.7747
G1 X68.158 Y66.100 E0.8500
G1 X61.830 Y66.100 E1.2709
G1 X61.030 Y65.300 E1.3461
G1 X68.958 Y65.300 E1.8735
G1 X69.265 Y64.993 E1.9024
G1 X68.772 Y64.500 E1.9488
G1 X60.230 Y64.500 E2.5170
G1 X59.430 Y63.700 E2.5923
G1 X67.972 Y63.700 E3.1605
G1 X67.172 Y62.900 E3.2358
G1 X58.630 Y62.900 E3.8040
G1 X57.830 Y62.100 E3.8792
G1 X66.372 Y62.100 E4.4475
G1 X65.572 Y61.300 E4.5227
G1 X57.030 Y61.300 E5.0910
G1 X56.230 Y60.500 E5.1662
G1 X64.772 Y60.500 E5.7345
G1 X63.972 Y59.700 E5.8097
G1 X55.430 Y59.700 E6.3780
G1 X54.630 Y58.900 E6.4532
G1 X63.172 Y58.900 E7.0215
G1 X62.372 Y58.100 E7.0967
G1 X53.830 Y58.100 E7.6650
G1 X53.030 Y57.300 E7.7402
G1 X61.572 Y57.300 E8.3085
G1 X60.772 Y56.500 E8.3837
G1 X52.230 Y56.500 E8.9520
G1 X51.430 Y55.700 E9.0272
G1 X59.972 Y55.700 E9.5954
G1 X59.172 Y54.900 E9.6707
G1 X50.630 Y54.900 E10.2389
G1 X49.830 Y54.100 E10.3142
