; G-Code generated by Simplify3D(R) Version 4.1.2
; Jul 16, 2021 at 12:34:15 AM
; Settings Summary
;   processName,at+45
;   applyToModels,at+45
;   profileName,BigRap_at+45
;   profileVersion,2021-07-15 23:36:10
;   baseProfile,BigRep ONE - Standard Extruder 1mm
;   printMaterial,PLA - T0 Only
;   printQuality,0.6 mm Layer Height - Quality
;   printExtruders,
;   extruderName,T0 - Left Extruder,T1 - Right Extruder
;   extruderToolheadNumber,0,1
;   extruderDiameter,1,1
;   extruderAutoWidth,1,1
;   extruderWidth,1.2,1.2
;   extrusionMultiplier,1,1
;   extruderUseRetract,1,1
;   extruderRetractionDistance,1,1
;   extruderExtraRestartDistance,0,0
;   extruderRetractionZLift,0.8,0.8
;   extruderRetractionSpeed,1800,1800
;   extruderUseCoasting,0,0
;   extruderCoastingDistance,0.2,0.2
;   extruderUseWipe,0,0
;   extruderWipeDistance,5,5
;   primaryExtruder,0
;   layerHeight,0.2
;   topSolidLayers,0
;   bottomSolidLayers,0
;   perimeterOutlines,1
;   printPerimetersInsideOut,1
;   startPointOption,2
;   startPointOriginX,0
;   startPointOriginY,0
;   sequentialIslands,1
;   spiralVaseMode,0
;   firstLayerHeightPercentage,100
;   firstLayerWidthPercentage,100
;   firstLayerUnderspeed,1
;   useRaft,0
;   raftExtruder,0
;   raftTopLayers,1
;   raftBaseLayers,2
;   raftOffset,3
;   raftSeparationDistance,0.14
;   raftTopInfill,100
;   aboveRaftSpeedMultiplier,0.3
;   useSkirt,0
;   skirtExtruder,0
;   skirtLayers,1
;   skirtOutlines,2
;   skirtOffset,5
;   usePrimePillar,0
;   primePillarExtruder,0
;   primePillarWidth,45
;   primePillarLocation,5
;   primePillarSpeedMultiplier,1
;   useOozeShield,0
;   oozeShieldExtruder,999
;   oozeShieldOffset,2
;   oozeShieldOutlines,1
;   oozeShieldSidewallShape,1
;   oozeShieldSidewallAngle,30
;   oozeShieldSpeedMultiplier,1
;   infillExtruder,0
;   internalInfillPattern,Grid
;   externalInfillPattern,Rectilinear
;   infillPercentage,100
;   outlineOverlapPercentage,90
;   infillExtrusionWidthPercentage,100
;   minInfillLength,0.1
;   infillLayerInterval,1
;   internalInfillAngles,45
;   overlapInternalInfillAngles,1
;   externalInfillAngles,45,-45
;   generateSupport,0
;   supportExtruder,0
;   supportInfillPercentage,15
;   supportExtraInflation,1.5
;   supportBaseLayers,1
;   denseSupportExtruder,0
;   denseSupportLayers,4
;   denseSupportInfillPercentage,80
;   supportLayerInterval,1
;   supportHorizontalPartOffset,1
;   supportUpperSeparationLayers,1
;   supportLowerSeparationLayers,1
;   supportType,0
;   supportGridSpacing,2
;   maxOverhangAngle,55
;   supportAngles,45
;   temperatureName,T0 - Printing Temperature,T1 - Printing Temperature,Fan T0,Fan T1,T0 - Standby Temperature,T1 - Standby Temperature
;   temperatureNumber,0,1,4,5,2,3
;   temperatureSetpointCount,1,1,2,2,1,1
;   temperatureSetpointLayers,1,1,1,2,1,2,1,1
;   temperatureSetpointTemperatures,205,205,0,255,0,255,185,185
;   temperatureStabilizeAtStartup,0,0,0,0,0,0
;   temperatureHeatedBed,0,0,0,0,0,0
;   fanLayers,1,2
;   fanSpeeds,0,100
;   blipFanToFullPower,0
;   adjustSpeedForCooling,0
;   minSpeedLayerTime,7.5
;   minCoolingSpeedSlowdown,25
;   increaseFanForCooling,0
;   minFanLayerTime,45
;   maxCoolingFanSpeed,100
;   increaseFanForBridging,0
;   bridgingFanSpeed,100
;   use5D,1
;   relativeEdistances,0
;   allowEaxisZeroing,1
;   independentExtruderAxes,0
;   includeM10123,0
;   stickySupport,1
;   applyToolheadOffsets,0
;   gcodeXoffset,0
;   gcodeYoffset,0
;   gcodeZoffset,0
;   overrideMachineDefinition,1
;   machineTypeOverride,0
;   strokeXoverride,1005
;   strokeYoverride,1005
;   strokeZoverride,1005
;   originOffsetXoverride,0
;   originOffsetYoverride,0
;   originOffsetZoverride,0
;   homeXdirOverride,-1
;   homeYdirOverride,-1
;   homeZdirOverride,-1
;   flipXoverride,1
;   flipYoverride,-1
;   flipZoverride,1
;   toolheadOffsets,0,0|0,0|0,0|0,0|0,0|0,0
;   overrideFirmwareConfiguration,0
;   firmwareTypeOverride,RepRap (Marlin/Repetier/Sprinter)
;   GPXconfigOverride,r2
;   baudRateOverride,115200
;   overridePrinterModels,0
;   printerModelsOverride
;   startingGcode,; 02.2019 - BigRep ONE Standard Extruder - PLA - 1 mm nozzle,M800,,M104 S[extruder0_temperature] H0,M104 S0 H1,M109 S[extruder0_temperature] H0,;M109 S[extruder1_temperature] H1,,T0,G28 ; home all axes,,T1 ; solve firmware bug,G92 E0 ; solve firmware bug,,T0 ; solve firmware bug,G92 E0 ; solve firmware bug
;   layerChangeGcode,
;   retractionGcode,
;   toolChangeGcode,
;   endingGcode,G92 E0,G1 E-5.0000 F1800 ; Reatract Filament,G91,G1 Z10 F4000 ; Lift Extruders,G90,G1 X5 F40000,G1 Y1000 F40000,T0,M104 S0 H0 ; turn off T0,M104 S0 H1 ; turn off T1,M107 P0,M107 P1,M140 S0 ; turn off bed,M84 ; disable motors,M801
;   exportFileFormat,gcode
;   celebration,0
;   celebrationSong,Star Wars
;   postProcessing,|{REPLACE "T2" "H2"}|{REPLACE "T3" "H3"}|{REPLACE "T4" "H4"}|{REPLACE "T5" "H5"}|{APPEND "\n\n;Zzzzz       /\     _,,,--,,_        \n;           /,`.-'`'   ._  \-;;,_    \n;          /,4-  ) )_   .;.(  `'-'   \n;         '---''(_/._)-'(_\_)        \n; This is Eve. Eve helped creating this gcode. But now she is tired and need some rest."}
;   defaultSpeed,5000
;   outlineUnderspeed,1
;   solidInfillUnderspeed,1
;   supportUnderspeed,1
;   rapidXYspeed,5000
;   rapidZspeed,1000
;   minBridgingArea,50
;   bridgingExtraInflation,1
;   bridgingExtrusionMultiplier,1
;   bridgingSpeedMultiplier,0.2
;   useFixedBridgingAngle,0
;   fixedBridgingAngle,0
;   applyBridgingToPerimeters,0
;   filamentDiameters,2.85|2.85|2.85|2.85|2.85|2.85
;   filamentPricesPerKg,28.12|28.125|28.125|28.125|28.125|28.125
;   filamentDensities,1.24|1.24|1.24|1.24|1.24|1.24
;   useMinPrintHeight,0
;   minPrintHeight,0
;   useMaxPrintHeight,0
;   maxPrintHeight,0
;   useDiaphragm,0
;   diaphragmLayerInterval,20
;   robustSlicing,1
;   mergeAllIntoSolid,0
;   onlyRetractWhenCrossingOutline,0
;   retractBetweenLayers,0
;   useRetractionMinTravel,1
;   retractionMinTravel,5
;   retractWhileWiping,1
;   onlyWipeOutlines,0
;   avoidCrossingOutline,0
;   maxMovementDetourFactor,3
;   toolChangeRetractionDistance,20
;   toolChangeExtraRestartDistance,0
;   toolChangeRetractionSpeed,1200
;   externalThinWallType,0
;   internalThinWallType,1
;   thinWallAllowedOverlapPercentage,5
;   singleExtrusionMinLength,1
;   singleExtrusionMinPrintingWidthPercentage,50
;   singleExtrusionMaxPrintingWidthPercentage,200
;   singleExtrusionEndpointExtension,0
;   horizontalSizeCompensation,0
G90
M82
M127
; 02.2019 - BigRep ONE Standard Extruder - PLA - 1 mm nozzle
M800
M104 S205 H0
M104 S0 H1
M109 S205 H0
;M109 S205 H1
T0
G28 ; home all axes
T1 ; solve firmware bug
G92 E0 ; solve firmware bug
T0 ; solve firmware bug
G92 E0 ; solve firmware bug
; process ab-45
; layer 1, Z = 0.200
M135 T0
G92 E0.0000
G1 E-1.0000 F1800
; feature outer perimeter
; tool H0.200 W1.200
G1 Z0.800 F1000
G1 X386.849 Y329.558 F5000
G1 Z0.200 F1000
G1 E0.0000 F1800
G92 E0.0000
G1 X414.994 Y301.413 E1.4974 F1200
G1 X419.095 Y305.515 E1.7156
G1 X390.950 Y333.659 E3.2131
G1 X386.849 Y329.558 E3.4313
; feature infill
G1 X387.287 Y329.827 F5000
G92 E0.0000
G1 X415.262 Y301.851 E1.4884 F2000
G1 X416.111 Y302.700 E1.5336
G1 X388.136 Y330.675 E3.0220
G1 X388.984 Y331.524 E3.0671
G1 X416.959 Y303.548 E4.5555
G1 X417.808 Y304.397 E4.6006
G1 X389.833 Y332.372 E6.0891
G1 X390.681 Y333.221 E6.1342
G1 X418.656 Y305.245 E7.6226
G92 E0.0000
G1 E-1.0000 F1800
; feature outer perimeter
G1 Z1.000 F1000
G1 X473.507 Y251.102 F5000
G1 Z0.200 F1000
G1 E0.0000 F1800
G92 E0.0000
G1 X469.405 Y247.001 E0.2182 F1200
G1 X497.550 Y218.855 E1.7156
G1 X501.651 Y222.957 E1.9339
G1 X473.507 Y251.102 E3.4313
G92 E0.0000
G1 E-1.0000 F1800
; feature infill
G1 Z1.000 F1000
G1 X469.844 Y247.270 F5000
G1 Z0.200 F1000
G1 E0.0000 F1800
G92 E0.0000
G1 X497.819 Y219.295 E1.4884 F2000
G1 X498.668 Y220.143 E1.5335
G1 X470.692 Y248.118 E3.0220
G1 X471.541 Y248.967 E3.0671
G1 X499.516 Y220.992 E4.5555
G1 X500.365 Y221.840 E4.6006
G1 X472.389 Y249.815 E6.0891
G1 X473.238 Y250.664 E6.1342
G1 X501.213 Y222.689 E7.6226
G92 E0.0000
G1 E-1.0000 F1800
; feature outer perimeter
G1 Z1.000 F1000
G1 X507.451 Y217.160 F5000
G1 Z0.200 F1000
G1 E0.0000 F1800
G92 E0.0000
G1 X503.349 Y213.059 E0.2182 F1200
G1 X531.493 Y184.913 E1.7156
G1 X535.595 Y189.014 E1.9339
G1 X507.451 Y217.160 E3.4313
G92 E0.0000
G1 E-1.0000 F1800
; feature infill
G1 Z1.000 F1000
G1 X503.787 Y213.327 F5000
G1 Z0.200 F1000
G1 E0.0000 F1800
G92 E0.0000
G1 X531.762 Y185.351 E1.4884 F2000
G1 X532.611 Y186.200 E1.5335
G1 X504.635 Y214.175 E3.0220
G1 X505.484 Y215.024 E3.0671
G1 X533.459 Y187.048 E4.5555
G1 X534.308 Y187.897 E4.6006
G1 X506.333 Y215.872 E6.0891
G1 X507.181 Y216.721 E6.1342
G1 X535.156 Y188.746 E7.6226
G92 E0.0000
G1 E-1.0000 F1800
; feature outer perimeter
G1 Z1.000 F1000
G1 X590.006 Y134.602 F5000
G1 Z0.200 F1000
G1 E0.0000 F1800
G92 E0.0000
G1 X585.905 Y130.500 E0.2182 F1200
G1 X614.050 Y102.356 E1.7156
G1 X618.151 Y106.458 E1.9339
G1 X590.006 Y134.602 E3.4313
G92 E0.0000
G1 E-1.0000 F1800
; feature infill
G1 Z1.000 F1000
G1 X586.344 Y130.770 F5000
G1 Z0.200 F1000
G1 E0.0000 F1800
G92 E0.0000
G1 X614.319 Y102.795 E1.4884 F2000
G1 X615.167 Y103.643 E1.5335
G1 X587.192 Y131.618 E3.0220
G1 X588.041 Y132.467 E3.0671
G1 X616.016 Y104.492 E4.5555
G1 X616.864 Y105.340 E4.6006
G1 X588.889 Y133.316 E6.0891
G1 X589.738 Y134.164 E6.1342
G1 X617.713 Y106.189 E7.6226
G92 E0.0000
G1 E-1.0000 F1800
; process ab+45
; feature outer perimeter
G1 Z1.000 F1000
G1 X590.006 Y301.413 F5000
G1 Z0.200 F1000
G1 E0.0000 F1800
G92 E0.0000
G1 X618.151 Y329.558 E1.4974 F1200
G1 X614.050 Y333.659 E1.7156
G1 X585.905 Y305.515 E3.2131
G1 X590.006 Y301.413 E3.4313
; feature infill
G1 X589.926 Y301.663 F5000
G92 E0.0000
G1 X617.902 Y329.638 E1.4884 F2000
G1 X616.959 Y330.581 E1.5386
G1 X588.983 Y302.606 E3.0270
G1 X588.041 Y303.548 E3.0771
G1 X616.016 Y331.524 E4.5655
G1 X615.073 Y332.466 E4.6157
G1 X587.098 Y304.491 E6.1041
G1 X586.155 Y305.434 E6.1543
G1 X614.130 Y333.409 E7.6427
G92 E0.0000
G1 E-1.0000 F1800
; feature outer perimeter
G1 Z1.000 F1000
G1 X531.494 Y251.102 F5000
G1 Z0.200 F1000
G1 E0.0000 F1800
G92 E0.0000
G1 X503.348 Y222.958 E1.4974 F1200
G1 X507.449 Y218.857 E1.7156
G1 X535.595 Y247.001 E3.2131
G1 X531.494 Y251.102 E3.4313
; feature infill
G1 X531.574 Y250.853 F5000
G92 E0.0000
G1 X503.598 Y222.877 E1.4884 F2000
G1 X504.541 Y221.934 E1.5386
G1 X532.516 Y249.910 E3.0270
G1 X533.459 Y248.967 E3.0771
G1 X505.484 Y220.992 E4.5655
G1 X506.427 Y220.049 E4.6157
G1 X534.402 Y248.024 E6.1041
G1 X535.345 Y247.081 E6.1543
G1 X507.370 Y219.106 E7.6427
G92 E0.0000
G1 E-1.0000 F1800
; feature outer perimeter
G1 Z1.000 F1000
G1 X501.652 Y213.057 F5000
G1 Z0.200 F1000
G1 E0.0000 F1800
G92 E0.0000
G1 X497.551 Y217.159 E0.2182 F1200
G1 X469.405 Y189.014 E1.7156
G1 X473.507 Y184.913 E1.9339
G1 X501.652 Y213.057 E3.4313
G92 E0.0000
G1 E-1.0000 F1800
; feature infill
G1 Z1.000 F1000
G1 X497.631 Y216.909 F5000
G1 Z0.200 F1000
G1 E0.0000 F1800
G92 E0.0000
G1 X469.655 Y188.934 E1.4884 F2000
G1 X470.598 Y187.991 E1.5386
G1 X498.573 Y215.967 E3.0270
G1 X499.516 Y215.024 E3.0771
G1 X471.541 Y187.048 E4.5655
G1 X472.484 Y186.106 E4.6157
G1 X500.459 Y214.081 E6.1041
G1 X501.402 Y213.138 E6.1543
G1 X473.426 Y185.163 E7.6427
G92 E0.0000
G1 E-1.0000 F1800
; feature outer perimeter
G1 Z1.000 F1000
G1 X419.095 Y130.500 F5000
G1 Z0.200 F1000
G1 E0.0000 F1800
G92 E0.0000
G1 X414.994 Y134.602 E0.2182 F1200
G1 X386.849 Y106.458 E1.7156
G1 X390.950 Y102.356 E1.9339
G1 X419.095 Y130.500 E3.4313
G92 E0.0000
G1 E-1.0000 F1800
; feature infill
G1 Z1.000 F1000
G1 X415.074 Y134.353 F5000
G1 Z0.200 F1000
G1 E0.0000 F1800
G92 E0.0000
G1 X387.098 Y106.377 E1.4884 F2000
G1 X388.041 Y105.435 E1.5386
G1 X416.017 Y133.410 E3.0270
G1 X416.959 Y132.467 E3.0771
G1 X388.984 Y104.492 E4.5655
G1 X389.927 Y103.549 E4.6157
G1 X417.902 Y131.524 E6.1041
G1 X418.845 Y130.581 E6.1543
G1 X390.870 Y102.606 E7.6427
G92 E0.0000
G1 E-1.0000 F1800
; process abu
; feature outer perimeter
G1 Z1.000 F1000
G1 X391.550 Y335.108 F5000
G1 Z0.200 F1000
G1 E0.0000 F1800
G92 E0.0000
G1 X429.903 Y335.108 E1.4429 F1600
G1 X429.903 Y340.908 E1.6611
G1 X391.550 Y340.908 E3.1040
G1 X391.550 Y335.108 E3.3222
; feature infill
G1 X391.670 Y335.608 F5000
G92 E0.0000
G1 X429.783 Y335.608 E1.4339 F2000
G1 X429.783 Y336.808 E1.4790
G1 X391.670 Y336.808 E2.9129
G1 X391.670 Y338.008 E2.9580
G1 X429.783 Y338.008 E4.3919
G1 X429.783 Y339.208 E4.4370
G1 X391.670 Y339.208 E5.8709
G1 X391.670 Y340.408 E5.9160
G1 X429.783 Y340.408 E7.3499
G92 E0.0000
G1 E-1.0000 F1800
; feature outer perimeter
G1 Z1.000 F1000
G1 X575.097 Y340.908 F5000
G1 Z0.200 F1000
G1 E0.0000 F1800
G92 E0.0000
G1 X575.097 Y335.108 E0.2182 F1600
G1 X613.450 Y335.108 E1.6611
G1 X613.450 Y340.908 E1.8793
G1 X575.097 Y340.908 E3.3222
G92 E0.0000
G1 E-1.0000 F1800
; feature infill
G1 Z1.000 F1000
G1 X575.217 Y335.608 F5000
G1 Z0.200 F1000
G1 E0.0000 F1800
G92 E0.0000
G1 X613.330 Y335.608 E1.4339 F2000
G1 X613.330 Y336.808 E1.4790
G1 X575.217 Y336.808 E2.9129
G1 X575.217 Y338.008 E2.9580
G1 X613.330 Y338.008 E4.3919
G1 X613.330 Y339.208 E4.4370
G1 X575.217 Y339.208 E5.8709
G1 X575.217 Y340.408 E5.9160
G1 X613.330 Y340.408 E7.3499
G92 E0.0000
G1 E-1.0000 F1800
; feature outer perimeter
G1 Z1.000 F1000
G1 X429.903 Y100.908 F5000
G1 Z0.200 F1000
G1 E0.0000 F1800
G92 E0.0000
G1 X391.550 Y100.908 E1.4429 F1600
G1 X391.550 Y95.108 E1.6611
G1 X429.903 Y95.108 E3.1040
G1 X429.903 Y100.908 E3.3222
; feature infill
G1 X429.783 Y100.408 F5000
G92 E0.0000
G1 X391.670 Y100.408 E1.4339 F2000
G1 X391.670 Y99.208 E1.4790
G1 X429.783 Y99.208 E2.9129
G1 X429.783 Y98.008 E2.9580
G1 X391.670 Y98.008 E4.3919
G1 X391.670 Y96.808 E4.4370
G1 X429.783 Y96.808 E5.8709
G1 X429.783 Y95.608 E5.9160
G1 X391.670 Y95.608 E7.3499
G92 E0.0000
G1 E-1.0000 F1800
; feature outer perimeter
G1 Z1.000 F1000
G1 X575.097 Y95.108 F5000
G1 Z0.200 F1000
G1 E0.0000 F1800
G92 E0.0000
G1 X613.450 Y95.108 E1.4429 F1600
G1 X613.450 Y100.908 E1.6611
G1 X575.097 Y100.908 E3.1040
G1 X575.097 Y95.108 E3.3222
; feature infill
G1 X575.217 Y95.608 F5000
G92 E0.0000
G1 X613.330 Y95.608 E1.4339 F2000
G1 X613.330 Y96.808 E1.4790
G1 X575.217 Y96.808 E2.9129
G1 X575.217 Y98.008 E2.9580
G1 X613.330 Y98.008 E4.3919
G1 X613.330 Y99.208 E4.4370
G1 X575.217 Y99.208 E5.8709
G1 X575.217 Y100.408 E5.9160
G1 X613.330 Y100.408 E7.3499
G92 E0.0000
G1 E-1.0000 F1800
; process abv
; feature outer perimeter
G1 Z1.000 F1000
G1 X385.400 Y290.604 F5000
G1 Z0.200 F1000
G1 E0.0000 F1800
G92 E0.0000
G1 X385.400 Y328.958 E1.4429 F1600
G1 X379.600 Y328.958 E1.6611
G1 X379.600 Y290.604 E3.1040
G1 X385.400 Y290.604 E3.3222
; feature infill
G1 X384.900 Y290.724 F5000
G92 E0.0000
G1 X384.900 Y328.838 E1.4339 F2000
G1 X383.700 Y328.838 E1.4790
G1 X383.700 Y290.724 E2.9129
G1 X382.500 Y290.724 E2.9580
G1 X382.500 Y328.838 E4.3919
G1 X381.300 Y328.838 E4.4370
G1 X381.300 Y290.724 E5.8709
G1 X380.100 Y290.724 E5.9160
G1 X380.100 Y328.838 E7.3499
G92 E0.0000
G1 E-1.0000 F1800
; feature outer perimeter
G1 Z1.000 F1000
G1 X619.600 Y328.958 F5000
G1 Z0.200 F1000
G1 E0.0000 F1800
G92 E0.0000
G1 X619.600 Y290.604 E1.4429 F1600
G1 X625.400 Y290.604 E1.6611
G1 X625.400 Y328.958 E3.1040
G1 X619.600 Y328.958 E3.3222
; feature infill
G1 X620.100 Y328.838 F5000
G92 E0.0000
G1 X620.100 Y290.724 E1.4339 F2000
G1 X621.300 Y290.724 E1.4790
G1 X621.300 Y328.838 E2.9129
G1 X622.500 Y328.838 E2.9580
G1 X622.500 Y290.724 E4.3919
G1 X623.700 Y290.724 E4.4370
G1 X623.700 Y328.838 E5.8709
G1 X624.900 Y328.838 E5.9160
G1 X624.900 Y290.724 E7.3499
G92 E0.0000
G1 E-1.0000 F1800
; feature outer perimeter
G1 Z1.000 F1000
G1 X385.400 Y145.411 F5000
G1 Z0.200 F1000
G1 E0.0000 F1800
G92 E0.0000
G1 X379.600 Y145.411 E0.2182 F1600
G1 X379.600 Y107.058 E1.6611
G1 X385.400 Y107.058 E1.8793
G1 X385.400 Y145.411 E3.3222
G92 E0.0000
G1 E-1.0000 F1800
; feature infill
G1 Z1.000 F1000
G1 X380.100 Y145.291 F5000
G1 Z0.200 F1000
G1 E0.0000 F1800
G92 E0.0000
G1 X380.100 Y107.178 E1.4339 F2000
G1 X381.300 Y107.178 E1.4790
