 ; G-Code generated by Simplify3D(R) Version 4.1.2
; Jul 17, 2021 at 1:31:27 PM
; Settings Summary
;   processName,pre_extrude
;   applyToModels,pre
;   profileName,abu
;   profileVersion,2021-07-17 11:32:24
;   baseProfile,Raise3D N2 Dual (modified)
;   printMaterial,PLA
;   printQuality,Medium
;   printExtruders,Right Extruder Only
;   extruderName,Extruder_1
;   extruderToolheadNumber,0
;   extruderDiameter,0.8
;   extruderAutoWidth,0
;   extruderWidth,0.8
;   extrusionMultiplier,1
;   extruderUseRetract,1
;   extruderRetractionDistance,4.4
;   extruderExtraRestartDistance,0
;   extruderRetractionZLift,0
;   extruderRetractionSpeed,1200
;   extruderUseCoasting,0
;   extruderCoastingDistance,0.2
;   extruderUseWipe,0
;   extruderWipeDistance,5
;   primaryExtruder,0
;   layerHeight,0.2
;   topSolidLayers,0
;   bottomSolidLayers,0
;   perimeterOutlines,1
;   printPerimetersInsideOut,1
;   startPointOption,2
;   startPointOriginX,0
;   startPointOriginY,0
;   sequentialIslands,1
;   spiralVaseMode,0
;   firstLayerHeightPercentage,100
;   firstLayerWidthPercentage,100
;   firstLayerUnderspeed,0.4
;   useRaft,0
;   raftExtruder,0
;   raftTopLayers,3
;   raftBaseLayers,2
;   raftOffset,3
;   raftSeparationDistance,0.14
;   raftTopInfill,100
;   aboveRaftSpeedMultiplier,0.3
;   useSkirt,0
;   skirtExtruder,0
;   skirtLayers,1
;   skirtOutlines,2
;   skirtOffset,4
;   usePrimePillar,0
;   primePillarExtruder,999
;   primePillarWidth,12
;   primePillarLocation,7
;   primePillarSpeedMultiplier,1
;   useOozeShield,0
;   oozeShieldExtruder,999
;   oozeShieldOffset,2
;   oozeShieldOutlines,1
;   oozeShieldSidewallShape,1
;   oozeShieldSidewallAngle,30
;   oozeShieldSpeedMultiplier,1
;   infillExtruder,0
;   internalInfillPattern,Rectilinear
;   externalInfillPattern,Rectilinear
;   infillPercentage,100
;   outlineOverlapPercentage,90
;   infillExtrusionWidthPercentage,100
;   minInfillLength,0.01
;   infillLayerInterval,1
;   internalInfillAngles,0
;   overlapInternalInfillAngles,0
;   externalInfillAngles,45,-45
;   generateSupport,0
;   supportExtruder,0
;   supportInfillPercentage,30
;   supportExtraInflation,0
;   supportBaseLayers,0
;   denseSupportExtruder,0
;   denseSupportLayers,0
;   denseSupportInfillPercentage,70
;   supportLayerInterval,1
;   supportHorizontalPartOffset,0.3
;   supportUpperSeparationLayers,1
;   supportLowerSeparationLayers,1
;   supportType,0
;   supportGridSpacing,4
;   maxOverhangAngle,45
;   supportAngles,0
;   temperatureName,Extruder_1
;   temperatureNumber,0
;   temperatureSetpointCount,1
;   temperatureSetpointLayers,1
;   temperatureSetpointTemperatures,200
;   temperatureStabilizeAtStartup,1
;   temperatureHeatedBed,0
;   fanLayers,1,2
;   fanSpeeds,0,100
;   blipFanToFullPower,1
;   adjustSpeedForCooling,0
;   minSpeedLayerTime,15
;   minCoolingSpeedSlowdown,20
;   increaseFanForCooling,0
;   minFanLayerTime,45
;   maxCoolingFanSpeed,100
;   increaseFanForBridging,0
;   bridgingFanSpeed,100
;   use5D,1
;   relativeEdistances,0
;   allowEaxisZeroing,1
;   independentExtruderAxes,0
;   includeM10123,0
;   stickySupport,1
;   applyToolheadOffsets,0
;   gcodeXoffset,0
;   gcodeYoffset,0
;   gcodeZoffset,0
;   overrideMachineDefinition,1
;   machineTypeOverride,0
;   strokeXoverride,305
;   strokeYoverride,305
;   strokeZoverride,305
;   originOffsetXoverride,0
;   originOffsetYoverride,0
;   originOffsetZoverride,0
;   homeXdirOverride,-1
;   homeYdirOverride,-1
;   homeZdirOverride,-1
;   flipXoverride,1
;   flipYoverride,-1
;   flipZoverride,1
;   toolheadOffsets,0,0|-25,0|0,0|0,0|0,0|0,0
;   overrideFirmwareConfiguration,1
;   firmwareTypeOverride,RepRap (Marlin/Repetier/Sprinter)
;   GPXconfigOverride,r2
;   baudRateOverride,230400
;   overridePrinterModels,1
;   printerModelsOverride
;   startingGcode,M221 T1 S100,G28,G1 Z15.0 F9000.00,G92 E0,G1 E25 F200,G1 Z0 F130,G92 E0,M117 Printing.,M1001
;   layerChangeGcode,
;   retractionGcode,
;   toolChangeGcode,
;   endingGcode,M107,M1002,M104 S0 T1,M104 S0 T0,M140 S0,M117 Print Complete.,G28 X0 Y0,G91,G1 Z10,G90,M84
;   exportFileFormat,gcode
;   celebration,0
;   celebrationSong,Star Wars
;   postProcessing,
;   defaultSpeed,5000
;   outlineUnderspeed,1
;   solidInfillUnderspeed,1
;   supportUnderspeed,1
;   rapidXYspeed,5000
;   rapidZspeed,1000
;   minBridgingArea,50
;   bridgingExtraInflation,0
;   bridgingExtrusionMultiplier,1
;   bridgingSpeedMultiplier,1
;   useFixedBridgingAngle,0
;   fixedBridgingAngle,0
;   applyBridgingToPerimeters,0
;   filamentDiameters,1.75|1.75|1.75|1.75|1.75|1.75
;   filamentPricesPerKg,46|46|46|46|46|46
;   filamentDensities,1.25|1.25|1.25|1.25|1.25|1.25
;   useMinPrintHeight,0
;   minPrintHeight,0
;   useMaxPrintHeight,0
;   maxPrintHeight,0
;   useDiaphragm,0
;   diaphragmLayerInterval,20
;   robustSlicing,1
;   mergeAllIntoSolid,0
;   onlyRetractWhenCrossingOutline,0
;   retractBetweenLayers,0
;   useRetractionMinTravel,1
;   retractionMinTravel,3
;   retractWhileWiping,1
;   onlyWipeOutlines,1
;   avoidCrossingOutline,1
;   maxMovementDetourFactor,400
;   toolChangeRetractionDistance,12
;   toolChangeExtraRestartDistance,-0.5
;   toolChangeRetractionSpeed,600
;   externalThinWallType,0
;   internalThinWallType,2
;   thinWallAllowedOverlapPercentage,100
;   singleExtrusionMinLength,0.01
;   singleExtrusionMinPrintingWidthPercentage,1
;   singleExtrusionMaxPrintingWidthPercentage,200
;   singleExtrusionEndpointExtension,0.01
;   horizontalSizeCompensation,0
G90
M82
M106 S0
M104 S200 T0
M109 S200 T0
M221 T1 S100
G28
G1 Z15.0 F9000.00
G92 E0
G1 E25 F200
G1 Z0 F130
G92 E0
M117 Printing.
M1001
; process pre_extrude
; layer 1, Z = 0.200
T0
G92 E0.0000
G1 E-4.4000 F1200
; feature outer perimeter
; tool H0.200 W0.800
G1 Z0.200 F1000
G1 X24.487 Y21.211 F5000
G1 E0.0000 F1200
G92 E0.0000
G1 X280.513 Y21.211 E17.0310 F2000
G1 X280.513 Y23.786 E17.2023
G1 X24.487 Y23.786 E34.2333
G1 X24.487 Y21.211 E34.4046
; feature infill
G1 X24.567 Y21.698 F5000
G92 E0.0000
G1 X280.433 Y21.698 E17.0203 F2000
G1 X280.433 Y22.498 E17.0735
G1 X24.567 Y22.498 E34.0939
G1 X24.567 Y23.298 E34.1471
G1 X280.433 Y23.298 E51.1674
G92 E0.0000
G1 E-4.4000 F1200
; process abu
; feature outer perimeter
G1 X280.036 Y23.786 F5000
G1 X24.487 Y23.786
G1 X80.103 Y269.400
G1 E0.0000 F1200
G92 E0.0000
G1 X80.103 Y275.600 E0.4124 F2000
G1 X41.350 Y275.600 E2.9903
G1 X41.350 Y269.400 E3.4027
G1 X80.103 Y269.400 E5.9806
G92 E0.0000
G1 E-4.4000 F1200
; feature infill
G1 X80.023 Y274.900 F5000
G1 E0.0000 F1200
G92 E0.0000
G1 X41.430 Y274.900 E2.5672 F2000
G1 X41.430 Y274.100 E2.6204
G1 X80.023 Y274.100 E5.1877
G1 X80.023 Y273.300 E5.2409
G1 X41.430 Y273.300 E7.8081
G1 X41.430 Y272.500 E7.8613
G1 X80.023 Y272.500 E10.4286
G1 X80.023 Y271.700 E10.4818
G1 X41.430 Y271.700 E13.0490
G1 X41.430 Y270.900 E13.1022
G1 X80.023 Y270.900 E15.6695
G1 X80.023 Y270.100 E15.7227
G1 X41.430 Y270.100 E18.2899
G92 E0.0000
G1 E-4.4000 F1200
; feature outer perimeter
G1 X80.103 Y269.952 F5000
G1 X80.103 Y269.400
G1 X224.897 Y269.400
G1 E0.0000 F1200
G92 E0.0000
G1 X263.650 Y269.400 E2.5779 F2000
G1 X263.650 Y275.600 E2.9903
G1 X224.897 Y275.600 E5.5682
G1 X224.897 Y269.400 E5.9806
; feature infill
G1 X224.977 Y270.100 F5000
G92 E0.0000
G1 X263.570 Y270.100 E2.5672 F2000
G1 X263.570 Y270.900 E2.6204
G1 X224.977 Y270.900 E5.1877
G1 X224.977 Y271.700 E5.2409
G1 X263.570 Y271.700 E7.8081
G1 X263.570 Y272.500 E7.8613
G1 X224.977 Y272.500 E10.4286
G1 X224.977 Y273.300 E10.4818
G1 X263.570 Y273.300 E13.0490
G1 X263.570 Y274.100 E13.1022
G1 X224.977 Y274.100 E15.6695
G1 X224.977 Y274.900 E15.7227
G1 X263.570 Y274.900 E18.2899
G92 E0.0000
G1 E-4.4000 F1200
; feature outer perimeter
G1 X259.353 Y269.400 F5000
G1 X224.897 Y269.400
G1 X80.103 Y35.600
G1 E0.0000 F1200
G92 E0.0000
G1 X41.350 Y35.600 E2.5779 F2000
G1 X41.350 Y29.400 E2.9903
G1 X80.103 Y29.400 E5.5682
G1 X80.103 Y35.600 E5.9806
; feature infill
G1 X80.023 Y34.900 F5000
G92 E0.0000
G1 X41.430 Y34.900 E2.5672 F2000
G1 X41.430 Y34.100 E2.6204
G1 X80.023 Y34.100 E5.1877
G1 X80.023 Y33.300 E5.2409
G1 X41.430 Y33.300 E7.8081
G1 X41.430 Y32.500 E7.8613
G1 X80.023 Y32.500 E10.4286
G1 X80.023 Y31.700 E10.4818
G1 X41.430 Y31.700 E13.0490
G1 X41.430 Y30.900 E13.1022
G1 X80.023 Y30.900 E15.6695
G1 X80.023 Y30.100 E15.7227
G1 X41.430 Y30.100 E18.2899
G92 E0.0000
G1 E-4.4000 F1200
; feature outer perimeter
G1 X80.103 Y29.952 F5000
G1 X80.103 Y29.400
G1 X224.897 Y29.400
G1 E0.0000 F1200
G92 E0.0000
G1 X263.650 Y29.400 E2.5779 F2000
G1 X263.650 Y35.600 E2.9903
G1 X224.897 Y35.600 E5.5682
G1 X224.897 Y29.400 E5.9806
; feature infill
G1 X224.977 Y30.100 F5000
G92 E0.0000
G1 X263.570 Y30.100 E2.5672 F2000
G1 X263.570 Y30.900 E2.6204
G1 X224.977 Y30.900 E5.1877
G1 X224.977 Y31.700 E5.2409
G1 X263.570 Y31.700 E7.8081
G1 X263.570 Y32.500 E7.8613
G1 X224.977 Y32.500 E10.4286
G1 X224.977 Y33.300 E10.4818
G1 X263.570 Y33.300 E13.0490
G1 X263.570 Y34.100 E13.1022
G1 X224.977 Y34.100 E15.6695
G1 X224.977 Y34.900 E15.7227
G1 X263.570 Y34.900 E18.2899
G92 E0.0000
G1 E-4.4000 F1200
; process abv
; feature outer perimeter
G1 X262.730 Y35.600 F5000
G1 X224.897 Y35.600
G1 X35.600 Y224.897
G1 E0.0000 F1200
G92 E0.0000
G1 X35.600 Y263.650 E2.5779 F2000
G1 X29.400 Y263.650 E2.9903
G1 X29.400 Y224.897 E5.5682
G1 X35.600 Y224.897 E5.9806
; feature infill
G1 X34.900 Y224.977 F5000
G92 E0.0000
G1 X34.900 Y263.570 E2.5672 F2000
G1 X34.100 Y263.570 E2.6204
G1 X34.100 Y224.977 E5.1877
G1 X33.300 Y224.977 E5.2409
G1 X33.300 Y263.570 E7.8081
G1 X32.500 Y263.570 E7.8613
G1 X32.500 Y224.977 E10.4286
G1 X31.700 Y224.977 E10.4818
G1 X31.700 Y263.570 E13.0490
G1 X30.900 Y263.570 E13.1022
G1 X30.900 Y224.977 E15.6695
G1 X30.100 Y224.977 E15.7227
G1 X30.100 Y263.570 E18.2899
G92 E0.0000
G1 E-4.4000 F1200
; feature outer perimeter
G1 X35.600 Y263.572 F5000
G1 X35.600 Y263.650
G1 X269.400 Y263.650
G1 E0.0000 F1200
G92 E0.0000
G1 X269.400 Y224.897 E2.5779 F2000
G1 X275.600 Y224.897 E2.9903
G1 X275.600 Y263.650 E5.5682
G1 X269.400 Y263.650 E5.9806
; feature infill
G1 X270.100 Y263.570 F5000
G92 E0.0000
G1 X270.100 Y224.977 E2.5672 F2000
G1 X270.900 Y224.977 E2.6204
G1 X270.900 Y263.570 E5.1877
G1 X271.700 Y263.570 E5.2409
G1 X271.700 Y224.977 E7.8081
G1 X272.500 Y224.977 E7.8613
G1 X272.500 Y263.570 E10.4286
G1 X273.300 Y263.570 E10.4818
G1 X273.300 Y224.977 E13.0490
G1 X274.100 Y224.977 E13.1022
G1 X274.100 Y263.570 E15.6695
G1 X274.900 Y263.570 E15.7227
G1 X274.900 Y224.977 E18.2899
G92 E0.0000
G1 E-4.4000 F1200
; feature outer perimeter
G1 X274.768 Y224.897 F5000
G1 X269.400 Y224.897
G1 X35.600 Y80.103
G1 E0.0000 F1200
G92 E0.0000
G1 X29.400 Y80.103 E0.4124 F2000
G1 X29.400 Y41.350 E2.9903
G1 X35.600 Y41.350 E3.4027
G1 X35.600 Y80.103 E5.9806
G92 E0.0000
G1 E-4.4000 F1200
; feature infill
G1 X30.100 Y80.023 F5000
G1 E0.0000 F1200
G92 E0.0000
G1 X30.100 Y41.430 E2.5672 F2000
G1 X30.900 Y41.430 E2.6204
G1 X30.900 Y80.023 E5.1877
G1 X31.700 Y80.023 E5.2409
G1 X31.700 Y41.430 E7.8081
G1 X32.500 Y41.430 E7.8613
G1 X32.500 Y80.023 E10.4286
G1 X33.300 Y80.023 E10.4818
G1 X33.300 Y41.430 E13.0490
G1 X34.100 Y41.430 E13.1022
G1 X34.100 Y80.023 E15.6695
G1 X34.900 Y80.023 E15.7227
G1 X34.900 Y41.430 E18.2899
G92 E0.0000
G1 E-4.4000 F1200
; feature outer perimeter
G1 X35.600 Y41.430 F5000
G1 X35.600 Y41.350
G1 X269.400 Y41.350
G1 E0.0000 F1200
G92 E0.0000
G1 X275.600 Y41.350 E0.4124 F2000
G1 X275.600 Y80.103 E2.9903
G1 X269.400 Y80.103 E3.4027
G1 X269.400 Y41.350 E5.9806
G92 E0.0000
G1 E-4.4000 F1200
; feature infill
G1 X274.900 Y41.430 F5000
G1 E0.0000 F1200
G92 E0.0000
G1 X274.900 Y80.023 E2.5672 F2000
G1 X274.100 Y80.023 E2.6204
G1 X274.100 Y41.430 E5.1877
G1 X273.300 Y41.430 E5.2409
G1 X273.300 Y80.023 E7.8081
G1 X272.500 Y80.023 E7.8613
G1 X272.500 Y41.430 E10.4286
G1 X271.700 Y41.430 E10.4818
G1 X271.700 Y80.023 E13.0490
G1 X270.900 Y80.023 E13.1022
G1 X270.900 Y41.430 E15.6695
G1 X270.100 Y41.430 E15.7227
G1 X270.100 Y80.023 E18.2899
G92 E0.0000
G1 E-4.4000 F1200
; process ab+45_1
; feature outer perimeter
G1 X270.085 Y80.103 F5000
G1 X269.400 Y80.103
G1 X240.006 Y235.623
G1 E0.0000 F1200
G92 E0.0000
G1 X268.434 Y264.050 E2.6743 F2000
G1 X264.050 Y268.434 E3.0867
G1 X235.622 Y240.007 E5.7611
G1 X240.006 Y235.623 E6.1735
; feature infill
G1 X239.568 Y236.174 F5000
G92 E0.0000
G1 X267.883 Y264.489 E2.6637 F2000
G1 X267.317 Y265.054 E2.7169
G1 X239.002 Y236.740 E5.3806
G1 X238.437 Y237.305 E5.4338
G1 X266.751 Y265.620 E8.0974
G1 X266.186 Y266.186 E8.1507
G1 X237.871 Y237.871 E10.8143
G1 X237.305 Y238.437 E10.8675
G1 X265.620 Y266.751 E13.5312
G1 X265.054 Y267.317 E13.5844
G1 X236.740 Y239.002 E16.2481
G1 X236.174 Y239.568 E16.3013
G1 X264.489 Y267.883 E18.9650
G92 E0.0000
G1 E-4.4000 F1200
; feature outer perimeter
G1 X236.047 Y239.582 F5000
G1 X235.622 Y240.007
G1 X64.994 Y69.377
G1 E0.0000 F1200
G92 E0.0000
G1 X36.566 Y40.950 E2.6743 F2000
G1 X40.950 Y36.566 E3.0868
G1 X69.378 Y64.993 E5.7611
G1 X64.994 Y69.377 E6.1735
; feature infill
G1 X65.432 Y68.826 F5000
G92 E0.0000
G1 X37.117 Y40.511 E2.6637 F2000
G1 X37.683 Y39.946 E2.7169
G1 X65.998 Y68.260 E5.3806
G1 X66.563 Y67.695 E5.4338
G1 X38.249 Y39.380 E8.0974
G1 X38.814 Y38.814 E8.1507
G1 X67.129 Y67.129 E10.8143
G1 X67.695 Y66.563 E10.8675
G1 X39.380 Y38.249 E13.5312
G1 X39.946 Y37.683 E13.5844
G1 X68.260 Y65.998 E16.2481
G1 X68.826 Y65.432 E16.3013
G1 X40.511 Y37.117 E18.9650
G92 E0.0000
G1 E-4.4000 F1200
; process ab-45_1
; feature outer perimeter
G1 X41.606 Y45.990 F5000
G1 X64.994 Y69.377
G1 X64.994 Y235.623
G1 E0.0000 F1200
G92 E0.0000
G1 X69.378 Y240.007 E0.4124 F2000
G1 X40.950 Y268.434 E3.0867
G1 X36.566 Y264.050 E3.4992
G1 X64.994 Y235.623 E6.1735
G92 E0.0000
G1 E-4.4000 F1200
; feature infill
G1 X68.826 Y239.568 F5000
G1 E0.0000 F1200
G92 E0.0000
G1 X40.511 Y267.883 E2.6637 F2000
G1 X39.946 Y267.317 E2.7169
G1 X68.260 Y239.002 E5.3806
G1 X67.695 Y238.437 E5.4338
G1 X39.380 Y266.751 E8.0974
G1 X38.814 Y266.186 E8.1507
G1 X67.129 Y237.871 E10.8143
G1 X66.563 Y237.305 E10.8675
G1 X38.249 Y265.620 E13.5312
G1 X37.683 Y265.054 E13.5844
G1 X65.998 Y236.740 E16.2481
G1 X65.432 Y236.174 E16.3013
G1 X37.117 Y264.489 E18.9650
G92 E0.0000
G1 E-4.4000 F1200
; feature outer perimeter
G1 X65.418 Y236.047 F5000
G1 X64.994 Y235.623
G1 X235.622 Y64.993
G1 E0.0000 F1200
G92 E0.0000
G1 X264.050 Y36.566 E2.6743 F2000
G1 X268.434 Y40.950 E3.0867
G1 X240.006 Y69.377 E5.7611
G1 X235.622 Y64.993 E6.1735
; feature infill
G1 X236.174 Y65.432 F5000
G92 E0.0000
G1 X264.489 Y37.117 E2.6637 F2000
G1 X265.054 Y37.683 E2.7169
G1 X236.740 Y65.998 E5.3806
G1 X237.305 Y66.563 E5.4338
G1 X265.620 Y38.249 E8.0974
G1 X266.186 Y38.814 E8.1507
G1 X237.871 Y67.129 E10.8143
G1 X238.437 Y67.695 E10.8675
G1 X266.751 Y39.380 E13.5312
G1 X267.317 Y39.946 E13.5844
G1 X239.002 Y68.260 E16.2481
G1 X239.568 Y68.826 E16.3013
G1 X267.883 Y40.511 E18.9650
G92 E0.0000
G1 E-4.4000 F1200
; layer 2, Z = 0.400
M106 S255
; feature outer perimeter
G1 Z0.400 F1000
G1 X239.582 Y68.953 F5000
G1 X240.006 Y69.377
G1 X69.378 Y240.007
G1 E0.0000 F1200
G92 E0.0000
G1 X40.950 Y268.434 E2.6743 F5000
G1 X36.566 Y264.050 E3.0868
G1 X64.994 Y235.623 E5.7611
G1 X69.378 Y240.007 E6.1735
; feature infill
G1 X68.826 Y239.568 F5000
G92 E0.0000
G1 X40.511 Y267.883 E2.6637 F5000
G1 X39.946 Y267.317 E2.7169
G1 X68.260 Y239.002 E5.3806
G1 X67.695 Y238.437 E5.4338
G1 X39.380 Y266.751 E8.0974
G1 X38.814 Y266.186 E8.1507
G1 X67.129 Y237.871 E10.8143
G1 X66.563 Y237.305 E10.8675
G1 X38.249 Y265.620 E13.5312
G1 X37.683 Y265.054 E13.5844
G1 X65.998 Y236.740 E16.2481
G1 X65.432 Y236.174 E16.3013
G1 X37.117 Y264.489 E18.9650
G92 E0.0000
G1 E-4.4000 F1200
; feature outer perimeter
G1 X65.418 Y236.047 F5000
G1 X64.994 Y235.623
G1 X235.622 Y64.993
G1 E0.0000 F1200
G92 E0.0000
G1 X264.050 Y36.566 E2.6743 F5000
G1 X268.434 Y40.950 E3.0867
G1 X240.006 Y69.377 E5.7611
G1 X235.622 Y64.993 E6.1735
; feature infill
G1 X236.174 Y65.432 F5000
G92 E0.0000
G1 X264.489 Y37.117 E2.6637 F5000
G1 X265.054 Y37.683 E2.7169
G1 X236.740 Y65.998 E5.3806
G1 X237.305 Y66.563 E5.4338
