; G-Code generated by Simplify3D(R) Version 4.1.2
; Jul 17, 2021 at 6:46:25 PM
; Settings Summary
;   processName,pre_extrude
;   applyToModels,pre_extrude
;   profileName,test
;   profileVersion,2021-07-13 15:04:22
;   baseProfile,BigRep ONE - Standard Extruder 1mm
;   printMaterial,PLA - T0 Only
;   printQuality,0.6 mm Layer Height - Quality
;   printExtruders,
;   extruderName,T0 - Left Extruder,T1 - Right Extruder
;   extruderToolheadNumber,0,1
;   extruderDiameter,1,1
;   extruderAutoWidth,1,1
;   extruderWidth,1.2,1.2
;   extrusionMultiplier,1,1
;   extruderUseRetract,1,1
;   extruderRetractionDistance,1,1
;   extruderExtraRestartDistance,0,0
;   extruderRetractionZLift,0.8,0.8
;   extruderRetractionSpeed,1800,1800
;   extruderUseCoasting,0,0
;   extruderCoastingDistance,0.2,0.2
;   extruderUseWipe,0,0
;   extruderWipeDistance,5,5
;   primaryExtruder,0
;   layerHeight,0.2
;   topSolidLayers,0
;   bottomSolidLayers,0
;   perimeterOutlines,1
;   printPerimetersInsideOut,1
;   startPointOption,2
;   startPointOriginX,0
;   startPointOriginY,0
;   sequentialIslands,1
;   spiralVaseMode,0
;   firstLayerHeightPercentage,100
;   firstLayerWidthPercentage,100
;   firstLayerUnderspeed,0.4
;   useRaft,0
;   raftExtruder,0
;   raftTopLayers,1
;   raftBaseLayers,2
;   raftOffset,3
;   raftSeparationDistance,0.14
;   raftTopInfill,100
;   aboveRaftSpeedMultiplier,0.3
;   useSkirt,0
;   skirtExtruder,0
;   skirtLayers,1
;   skirtOutlines,2
;   skirtOffset,5
;   usePrimePillar,0
;   primePillarExtruder,0
;   primePillarWidth,45
;   primePillarLocation,5
;   primePillarSpeedMultiplier,1
;   useOozeShield,0
;   oozeShieldExtruder,999
;   oozeShieldOffset,2
;   oozeShieldOutlines,1
;   oozeShieldSidewallShape,1
;   oozeShieldSidewallAngle,30
;   oozeShieldSpeedMultiplier,1
;   infillExtruder,0
;   internalInfillPattern,Grid
;   externalInfillPattern,Rectilinear
;   infillPercentage,0
;   outlineOverlapPercentage,90
;   infillExtrusionWidthPercentage,100
;   minInfillLength,0.1
;   infillLayerInterval,1
;   internalInfillAngles,0
;   overlapInternalInfillAngles,1
;   externalInfillAngles,45,-45
;   generateSupport,0
;   supportExtruder,0
;   supportInfillPercentage,15
;   supportExtraInflation,1.5
;   supportBaseLayers,1
;   denseSupportExtruder,0
;   denseSupportLayers,4
;   denseSupportInfillPercentage,80
;   supportLayerInterval,1
;   supportHorizontalPartOffset,1
;   supportUpperSeparationLayers,1
;   supportLowerSeparationLayers,1
;   supportType,0
;   supportGridSpacing,2
;   maxOverhangAngle,55
;   supportAngles,45
;   temperatureName,T0 - Printing Temperature,T1 - Printing Temperature,Fan T0,Fan T1,T0 - Standby Temperature,T1 - Standby Temperature
;   temperatureNumber,0,1,4,5,2,3
;   temperatureSetpointCount,1,1,2,2,1,1
;   temperatureSetpointLayers,1,1,1,2,1,2,1,1
;   temperatureSetpointTemperatures,205,205,0,255,0,255,185,185
;   temperatureStabilizeAtStartup,0,0,0,0,0,0
;   temperatureHeatedBed,0,0,0,0,0,0
;   fanLayers,1,2
;   fanSpeeds,0,100
;   blipFanToFullPower,0
;   adjustSpeedForCooling,0
;   minSpeedLayerTime,7.5
;   minCoolingSpeedSlowdown,25
;   increaseFanForCooling,0
;   minFanLayerTime,45
;   maxCoolingFanSpeed,100
;   increaseFanForBridging,0
;   bridgingFanSpeed,100
;   use5D,1
;   relativeEdistances,0
;   allowEaxisZeroing,1
;   independentExtruderAxes,0
;   includeM10123,0
;   stickySupport,1
;   applyToolheadOffsets,0
;   gcodeXoffset,0
;   gcodeYoffset,0
;   gcodeZoffset,0
;   overrideMachineDefinition,1
;   machineTypeOverride,0
;   strokeXoverride,1005
;   strokeYoverride,1005
;   strokeZoverride,1005
;   originOffsetXoverride,0
;   originOffsetYoverride,0
;   originOffsetZoverride,0
;   homeXdirOverride,-1
;   homeYdirOverride,-1
;   homeZdirOverride,-1
;   flipXoverride,1
;   flipYoverride,-1
;   flipZoverride,1
;   toolheadOffsets,0,0|0,0|0,0|0,0|0,0|0,0
;   overrideFirmwareConfiguration,0
;   firmwareTypeOverride,RepRap (Marlin/Repetier/Sprinter)
;   GPXconfigOverride,r2
;   baudRateOverride,115200
;   overridePrinterModels,0
;   printerModelsOverride
;   startingGcode,; 02.2019 - BigRep ONE Standard Extruder - PLA - 1 mm nozzle,M800,,M104 S[extruder0_temperature] H0,M104 S0 H1,M109 S[extruder0_temperature] H0,;M109 S[extruder1_temperature] H1,,T0,G28 ; home all axes,,T1 ; solve firmware bug,G92 E0 ; solve firmware bug,,T0 ; solve firmware bug,G92 E0 ; solve firmware bug
;   layerChangeGcode,
;   retractionGcode,
;   toolChangeGcode,
;   endingGcode,G92 E0,G1 E-5.0000 F1800 ; Reatract Filament,G91,G1 Z10 F4000 ; Lift Extruders,G90,G1 X5 F40000,G1 Y1000 F40000,T0,M104 S0 H0 ; turn off T0,M104 S0 H1 ; turn off T1,M107 P0,M107 P1,M140 S0 ; turn off bed,M84 ; disable motors,M801
;   exportFileFormat,gcode
;   celebration,0
;   celebrationSong,Star Wars
;   postProcessing,|{REPLACE "T2" "H2"}|{REPLACE "T3" "H3"}|{REPLACE "T4" "H4"}|{REPLACE "T5" "H5"}|{APPEND "\n\n;Zzzzz       /\     _,,,--,,_        \n;           /,`.-'`'   ._  \-;;,_    \n;          /,4-  ) )_   .;.(  `'-'   \n;         '---''(_/._)-'(_\_)        \n; This is Eve. Eve helped creating this gcode. But now she is tired and need some rest."}
;   defaultSpeed,5000
;   outlineUnderspeed,0.6
;   solidInfillUnderspeed,1
;   supportUnderspeed,1
;   rapidXYspeed,5000
;   rapidZspeed,1000
;   minBridgingArea,50
;   bridgingExtraInflation,1
;   bridgingExtrusionMultiplier,1
;   bridgingSpeedMultiplier,0.2
;   useFixedBridgingAngle,0
;   fixedBridgingAngle,0
;   applyBridgingToPerimeters,0
;   filamentDiameters,2.85|2.85|2.85|2.85|2.85|2.85
;   filamentPricesPerKg,28.12|28.125|28.125|28.125|28.125|28.125
;   filamentDensities,1.24|1.24|1.24|1.24|1.24|1.24
;   useMinPrintHeight,0
;   minPrintHeight,0
;   useMaxPrintHeight,0
;   maxPrintHeight,0
;   useDiaphragm,0
;   diaphragmLayerInterval,20
;   robustSlicing,1
;   mergeAllIntoSolid,0
;   onlyRetractWhenCrossingOutline,0
;   retractBetweenLayers,0
;   useRetractionMinTravel,1
;   retractionMinTravel,5
;   retractWhileWiping,1
;   onlyWipeOutlines,0
;   avoidCrossingOutline,0
;   maxMovementDetourFactor,3
;   toolChangeRetractionDistance,20
;   toolChangeExtraRestartDistance,0
;   toolChangeRetractionSpeed,1200
;   externalThinWallType,0
;   internalThinWallType,1
;   thinWallAllowedOverlapPercentage,5
;   singleExtrusionMinLength,1
;   singleExtrusionMinPrintingWidthPercentage,50
;   singleExtrusionMaxPrintingWidthPercentage,200
;   singleExtrusionEndpointExtension,0
;   horizontalSizeCompensation,0
G90
M82
M106 S0
; 02.2019 - BigRep ONE Standard Extruder - PLA - 1 mm nozzle
M800
M104 S205 H0
M104 S0 H1
M109 S205 H0
;M109 S205 H1
T0
G28 ; home all axes
T1 ; solve firmware bug
G92 E0 ; solve firmware bug
T0 ; solve firmware bug
G92 E0 ; solve firmware bug
; process pre_extrude
; layer 1, Z = 0.200
T0
G92 E0.0000
G1 E-1.0000 F1800
; feature outer perimeter
; tool H0.200 W1.200
G1 Z0.800 F1000
G1 X362.842 Y238.350 F5000
G1 Z0.200 F1000
G1 E0.0000 F1800
G92 E0.0000
G1 X642.158 Y238.350 E10.5082 F1200
G1 X642.158 Y766.650 E30.3834
G1 X362.842 Y766.650 E40.8916
G1 X362.842 Y238.350 E60.7668
G1 X363.642 Y239.150 F5000
G92 E0.0000
G1 X363.642 Y765.850 E19.8150 F1200
G1 X641.358 Y765.850 E30.2630
G1 X641.358 Y239.150 E50.0781
G1 X363.642 Y239.150 E60.5261
G92 E0.0000
G1 E-1.0000 F1800
; process abu
G1 Z1.000 F1000
G1 X381.600 Y749.600 F5000
G1 Z0.200 F1000
G1 E0.0000 F1800
G92 E0.0000
G1 X403.825 Y749.600 E0.8361 F1600
G1 X403.825 Y755.400 E1.0543
G1 X381.600 Y755.400 E1.8905
G1 X381.600 Y749.600 E2.1087
; feature infill
G1 X381.720 Y750.900 F5000
G92 E0.0000
G1 X403.705 Y750.900 E0.8271 F2000
G1 X403.705 Y752.100 E0.8722
G1 X381.720 Y752.100 E1.6993
G1 X381.720 Y753.300 E1.7445
G1 X403.705 Y753.300 E2.5716
G1 X403.705 Y754.500 E2.6167
G1 X381.720 Y754.500 E3.4438
G92 E0.0000
G1 E-1.0000 F1800
; feature outer perimeter
G1 Z1.000 F1000
G1 X550.825 Y755.400 F5000
G1 Z0.200 F1000
G1 E0.0000 F1800
G92 E0.0000
G1 X550.825 Y749.600 E0.2182 F1600
G1 X623.400 Y749.600 E2.9486
G1 X623.400 Y755.400 E3.1668
G1 X550.825 Y755.400 E5.8971
; feature infill
G1 X550.945 Y754.500 F5000
G92 E0.0000
G1 X623.280 Y754.500 E2.7213 F2000
G1 X623.280 Y753.300 E2.7665
G1 X550.945 Y753.300 E5.4878
G1 X550.945 Y752.100 E5.5329
G1 X623.280 Y752.100 E8.2543
G1 X623.280 Y750.900 E8.2994
G1 X550.945 Y750.900 E11.0207
G92 E0.0000
G1 E-1.0000 F1800
; feature outer perimeter
G1 Z1.000 F1000
G1 X416.006 Y655.400 F5000
G1 Z0.200 F1000
G1 E0.0000 F1800
G92 E0.0000
G1 X381.600 Y655.400 E1.2944 F1600
G1 X381.600 Y649.600 E1.5126
G1 X416.006 Y649.600 E2.8070
G1 X416.006 Y655.400 E3.0252
; feature infill
G1 X415.886 Y654.900 F5000
G92 E0.0000
G1 X381.720 Y654.900 E1.2854 F2000
G1 X381.720 Y653.700 E1.3305
G1 X415.886 Y653.700 E2.6159
G1 X415.886 Y652.500 E2.6610
G1 X381.720 Y652.500 E3.9464
G1 X381.720 Y651.300 E3.9915
G1 X415.886 Y651.300 E5.2769
G1 X415.886 Y650.100 E5.3220
G1 X381.720 Y650.100 E6.6074
G92 E0.0000
G1 E-1.0000 F1800
; feature outer perimeter
G1 Z1.000 F1000
G1 X563.006 Y649.600 F5000
G1 Z0.200 F1000
G1 E0.0000 F1800
G92 E0.0000
G1 X623.400 Y649.600 E2.2721 F1600
G1 X623.400 Y655.400 E2.4903
G1 X563.006 Y655.400 E4.7624
G1 X563.006 Y649.600 E4.9806
; feature infill
G1 X563.126 Y650.100 F5000
G92 E0.0000
G1 X623.280 Y650.100 E2.2631 F2000
G1 X623.280 Y651.300 E2.3082
G1 X563.126 Y651.300 E4.5713
G1 X563.126 Y652.500 E4.6164
G1 X623.280 Y652.500 E6.8795
G1 X623.280 Y653.700 E6.9246
G1 X563.126 Y653.700 E9.1877
G1 X563.126 Y654.900 E9.2328
G1 X623.280 Y654.900 E11.4959
G92 E0.0000
G1 E-1.0000 F1800
; feature outer perimeter
G1 Z1.000 F1000
G1 X428.187 Y555.400 F5000
G1 Z0.200 F1000
G1 E0.0000 F1800
G92 E0.0000
G1 X381.600 Y555.400 E1.7527 F1600
G1 X381.600 Y549.600 E1.9709
G1 X428.187 Y549.600 E3.7235
G1 X428.187 Y555.400 E3.9417
G92 E0.0000
G1 E-1.0000 F1800
; feature infill
G1 Z1.000 F1000
G1 X381.720 Y554.100 F5000
G1 Z0.200 F1000
G1 E0.0000 F1800
G92 E0.0000
G1 X428.067 Y554.100 E1.7436 F2000
G1 X428.067 Y552.900 E1.7888
G1 X381.720 Y552.900 E3.5324
G1 X381.720 Y551.700 E3.5775
G1 X428.067 Y551.700 E5.3212
G1 X428.067 Y550.500 E5.3663
G1 X381.720 Y550.500 E7.1099
G92 E0.0000
G1 E-1.0000 F1800
; feature outer perimeter
G1 Z1.000 F1000
G1 X575.187 Y549.600 F5000
G1 Z0.200 F1000
G1 E0.0000 F1800
G92 E0.0000
G1 X623.400 Y549.600 E1.8138 F1600
G1 X623.400 Y555.400 E2.0320
G1 X575.187 Y555.400 E3.8459
G1 X575.187 Y549.600 E4.0641
; feature infill
G1 X575.307 Y550.500 F5000
G92 E0.0000
G1 X623.280 Y550.500 E1.8048 F2000
G1 X623.280 Y551.700 E1.8499
G1 X575.307 Y551.700 E3.6547
G1 X575.307 Y552.900 E3.6999
G1 X623.280 Y552.900 E5.5047
G1 X623.280 Y554.100 E5.5498
G1 X575.307 Y554.100 E7.3546
G92 E0.0000
G1 E-1.0000 F1800
; feature outer perimeter
G1 Z1.000 F1000
G1 X440.368 Y455.400 F5000
G1 Z0.200 F1000
G1 E0.0000 F1800
G92 E0.0000
G1 X381.600 Y455.400 E2.2109 F1600
G1 X381.600 Y449.600 E2.4291
G1 X440.368 Y449.600 E4.6400
G1 X440.368 Y455.400 E4.8582
G92 E0.0000
G1 E-1.0000 F1800
; feature infill
G1 Z1.000 F1000
G1 X381.720 Y454.500 F5000
G1 Z0.200 F1000
G1 E0.0000 F1800
G92 E0.0000
G1 X440.248 Y454.500 E2.2019 F2000
G1 X440.248 Y453.300 E2.2470
G1 X381.720 Y453.300 E4.4489
G1 X381.720 Y452.100 E4.4941
G1 X440.248 Y452.100 E6.6960
G1 X440.248 Y450.900 E6.7411
G1 X381.720 Y450.900 E8.9430
G92 E0.0000
G1 E-1.0000 F1800
; feature outer perimeter
G1 Z1.000 F1000
G1 X587.368 Y449.600 F5000
G1 Z0.200 F1000
G1 E0.0000 F1800
G92 E0.0000
G1 X623.400 Y449.600 E1.3556 F1600
G1 X623.400 Y455.400 E1.5738
G1 X587.368 Y455.400 E2.9293
G1 X587.368 Y449.600 E3.1475
; feature infill
G1 X587.488 Y450.900 F5000
G92 E0.0000
G1 X623.280 Y450.900 E1.3465 F2000
G1 X623.280 Y452.100 E1.3917
G1 X587.488 Y452.100 E2.7382
G1 X587.488 Y453.300 E2.7834
G1 X623.280 Y453.300 E4.1299
G1 X623.280 Y454.500 E4.1750
G1 X587.488 Y454.500 E5.5216
G92 E0.0000
G1 E-1.0000 F1800
; feature outer perimeter
G1 Z1.000 F1000
G1 X452.549 Y355.400 F5000
G1 Z0.200 F1000
G1 E0.0000 F1800
G92 E0.0000
G1 X381.600 Y355.400 E2.6692 F1600
G1 X381.600 Y349.600 E2.8874
G1 X452.549 Y349.600 E5.5566
G1 X452.549 Y355.400 E5.7748
; feature infill
G1 X452.429 Y354.900 F5000
G92 E0.0000
G1 X381.720 Y354.900 E2.6602 F2000
G1 X381.720 Y353.700 E2.7053
G1 X452.429 Y353.700 E5.3654
G1 X452.429 Y352.500 E5.4106
G1 X381.720 Y352.500 E8.0707
G1 X381.720 Y351.300 E8.1159
G1 X452.429 Y351.300 E10.7760
G1 X452.429 Y350.100 E10.8212
G1 X381.720 Y350.100 E13.4813
G92 E0.0000
G1 E-1.0000 F1800
; feature outer perimeter
G1 Z1.000 F1000
G1 X599.549 Y349.600 F5000
G1 Z0.200 F1000
G1 E0.0000 F1800
G92 E0.0000
G1 X623.400 Y349.600 E0.8973 F1600
G1 X623.400 Y355.400 E1.1155
G1 X599.549 Y355.400 E2.0128
G1 X599.549 Y349.600 E2.2310
; feature infill
G1 X599.669 Y350.100 F5000
G92 E0.0000
G1 X623.280 Y350.100 E0.8883 F2000
G1 X623.280 Y351.300 E0.9334
G1 X599.669 Y351.300 E1.8217
G1 X599.669 Y352.500 E1.8668
G1 X623.280 Y352.500 E2.7551
G1 X623.280 Y353.700 E2.8003
G1 X599.669 Y353.700 E3.6885
G1 X599.669 Y354.900 E3.7337
G1 X623.280 Y354.900 E4.6219
G92 E0.0000
G1 E-1.0000 F1800
; feature outer perimeter
G1 Z1.000 F1000
G1 X464.730 Y255.400 F5000
G1 Z0.200 F1000
G1 E0.0000 F1800
G92 E0.0000
G1 X381.600 Y255.400 E3.1274 F1600
G1 X381.600 Y249.600 E3.3456
G1 X464.730 Y249.600 E6.4731
G1 X464.730 Y255.400 E6.6913
G92 E0.0000
G1 E-1.0000 F1800
; feature infill
G1 Z1.000 F1000
G1 X381.720 Y254.100 F5000
G1 Z0.200 F1000
G1 E0.0000 F1800
G92 E0.0000
G1 X464.610 Y254.100 E3.1184 F2000
G1 X464.610 Y252.900 E3.1636
G1 X381.720 Y252.900 E6.2820
G1 X381.720 Y251.700 E6.3271
G1 X464.610 Y251.700 E9.4455
G1 X464.610 Y250.500 E9.4907
G1 X381.720 Y250.500 E12.6091
G92 E0.0000
G1 E-1.0000 F1800
; feature outer perimeter
G1 Z1.000 F1000
G1 X611.730 Y249.600 F5000
G1 Z0.200 F1000
G1 E0.0000 F1800
G92 E0.0000
G1 X623.400 Y249.600 E0.4390 F1600
G1 X623.400 Y255.400 E0.6572
G1 X611.730 Y255.400 E1.0963
G1 X611.730 Y249.600 E1.3145
; feature infill
G1 X611.850 Y250.500 F5000
G92 E0.0000
G1 X623.280 Y250.500 E0.4300 F2000
G1 X623.280 Y251.700 E0.4752
G1 X611.850 Y251.700 E0.9052
G1 X611.850 Y252.900 E0.9503
G1 X623.280 Y252.900 E1.3803
G1 X623.280 Y254.100 E1.4255
G1 X611.850 Y254.100 E1.8555
G92 E0.0000
G1 E-1.0000 F1800
; layer 2, Z = 0.400
M106 S255
M104 S255 H4
M104 S255 H5
; feature outer perimeter
G1 Z1.000 F1000
G1 X403.825 Y749.600 F5000
G1 Z0.400 F1000
G1 E0.0000 F1800
G92 E0.0000
G1 X403.825 Y755.400 E0.2182 F4000
G1 X381.600 Y755.400 E1.0543
G1 X381.600 Y749.600 E1.2725
G1 X403.825 Y749.600 E2.1087
G92 E0.0000
G1 E-1.0000 F1800
; feature infill
G1 Z1.200 F1000
G1 X381.720 Y750.900 F5000
G1 Z0.400 F1000
G1 E0.0000 F1800
G92 E0.0000
G1 X403.705 Y750.900 E0.8271 F5000
G1 X403.705 Y752.100 E0.8722
G1 X381.720 Y752.100 E1.6993
G1 X381.720 Y753.300 E1.7445
G1 X403.705 Y753.300 E2.5716
G1 X403.705 Y754.500 E2.6167
G1 X381.720 Y754.500 E3.4438
G92 E0.0000
G1 E-1.0000 F1800
; feature outer perimeter
G1 Z1.200 F1000
G1 X550.825 Y755.400 F5000
G1 Z0.400 F1000
G1 E0.0000 F1800
G92 E0.0000
G1 X550.825 Y749.600 E0.2182 F4000
G1 X623.400 Y749.600 E2.9486
G1 X623.400 Y755.400 E3.1668
G1 X550.825 Y755.400 E5.8971
; feature infill
G1 X550.945 Y754.500 F5000
G92 E0.0000
G1 X623.280 Y754.500 E2.7213 F5000
G1 X623.280 Y753.300 E2.7665
G1 X550.945 Y753.300 E5.4878
G1 X550.945 Y752.100 E5.5329
G1 X623.280 Y752.100 E8.2543
G1 X623.280 Y750.900 E8.2994
G1 X550.945 Y750.900 E11.0207
G92 E0.0000
G1 E-1.0000 F1800
; feature outer perimeter
G1 Z1.200 F1000
G1 X416.006 Y655.400 F5000
G1 Z0.400 F1000
G1 E0.0000 F1800
G92 E0.0000
G1 X381.600 Y655.400 E1.2944 F4000
G1 X381.600 Y649.600 E1.5126
G1 X416.006 Y649.600 E2.8070
G1 X416.006 Y655.400 E3.0252
; feature infill
G1 X415.886 Y654.900 F5000
G92 E0.0000
G1 X381.720 Y654.900 E1.2854 F5000
G1 X381.720 Y653.700 E1.3305
G1 X415.886 Y653.700 E2.6159
G1 X415.886 Y652.500 E2.6610
G1 X381.720 Y652.500 E3.9464
G1 X381.720 Y651.300 E3.9915
G1 X415.886 Y651.300 E5.2769
G1 X415.886 Y650.100 E5.3220
G1 X381.720 Y650.100 E6.6074
G92 E0.0000
G1 E-1.0000 F1800
; feature outer perimeter
G1 Z1.200 F1000
G1 X563.006 Y649.600 F5000
G1 Z0.400 F1000
G1 E0.0000 F1800
G92 E0.0000
