; G-Code generated by Simplify3D(R) Version 4.1.2
; Jul 18, 2021 at 6:09:33 PM
; Settings Summary
;   processName,pre_extrude
;   applyToModels,pre_extrude
;   profileName,test
;   profileVersion,2021-07-17 18:16:24
;   baseProfile,BigRep ONE - Standard Extruder 1mm
;   printMaterial,PLA - T0 Only
;   printQuality,0.6 mm Layer Height - Quality
;   printExtruders,
;   extruderName,T0 - Left Extruder,T1 - Right Extruder
;   extruderToolheadNumber,0,1
;   extruderDiameter,1,1
;   extruderAutoWidth,1,1
;   extruderWidth,1.2,1.2
;   extrusionMultiplier,1,1
;   extruderUseRetract,1,1
;   extruderRetractionDistance,1,1
;   extruderExtraRestartDistance,0,0
;   extruderRetractionZLift,0.8,0.8
;   extruderRetractionSpeed,1800,1800
;   extruderUseCoasting,0,0
;   extruderCoastingDistance,0.2,0.2
;   extruderUseWipe,0,0
;   extruderWipeDistance,5,5
;   primaryExtruder,0
;   layerHeight,0.2
;   topSolidLayers,0
;   bottomSolidLayers,0
;   perimeterOutlines,1
;   printPerimetersInsideOut,1
;   startPointOption,2
;   startPointOriginX,0
;   startPointOriginY,0
;   sequentialIslands,1
;   spiralVaseMode,0
;   firstLayerHeightPercentage,100
;   firstLayerWidthPercentage,100
;   firstLayerUnderspeed,0.4
;   useRaft,0
;   raftExtruder,0
;   raftTopLayers,1
;   raftBaseLayers,2
;   raftOffset,3
;   raftSeparationDistance,0.14
;   raftTopInfill,100
;   aboveRaftSpeedMultiplier,0.3
;   useSkirt,0
;   skirtExtruder,0
;   skirtLayers,1
;   skirtOutlines,2
;   skirtOffset,5
;   usePrimePillar,0
;   primePillarExtruder,0
;   primePillarWidth,45
;   primePillarLocation,5
;   primePillarSpeedMultiplier,1
;   useOozeShield,0
;   oozeShieldExtruder,999
;   oozeShieldOffset,2
;   oozeShieldOutlines,1
;   oozeShieldSidewallShape,1
;   oozeShieldSidewallAngle,30
;   oozeShieldSpeedMultiplier,1
;   infillExtruder,0
;   internalInfillPattern,Grid
;   externalInfillPattern,Rectilinear
;   infillPercentage,0
;   outlineOverlapPercentage,90
;   infillExtrusionWidthPercentage,100
;   minInfillLength,0.1
;   infillLayerInterval,1
;   internalInfillAngles,0
;   overlapInternalInfillAngles,1
;   externalInfillAngles,45,-45
;   generateSupport,0
;   supportExtruder,0
;   supportInfillPercentage,15
;   supportExtraInflation,1.5
;   supportBaseLayers,1
;   denseSupportExtruder,0
;   denseSupportLayers,4
;   denseSupportInfillPercentage,80
;   supportLayerInterval,1
;   supportHorizontalPartOffset,1
;   supportUpperSeparationLayers,1
;   supportLowerSeparationLayers,1
;   supportType,0
;   supportGridSpacing,2
;   maxOverhangAngle,55
;   supportAngles,45
;   temperatureName,T0 - Printing Temperature,T1 - Printing Temperature,Fan T0,Fan T1,T0 - Standby Temperature,T1 - Standby Temperature
;   temperatureNumber,0,1,4,5,2,3
;   temperatureSetpointCount,1,1,2,2,1,1
;   temperatureSetpointLayers,1,1,1,2,1,2,1,1
;   temperatureSetpointTemperatures,205,205,0,255,0,255,185,185
;   temperatureStabilizeAtStartup,0,0,0,0,0,0
;   temperatureHeatedBed,0,0,0,0,0,0
;   fanLayers,1,2
;   fanSpeeds,0,100
;   blipFanToFullPower,0
;   adjustSpeedForCooling,0
;   minSpeedLayerTime,7.5
;   minCoolingSpeedSlowdown,25
;   increaseFanForCooling,0
;   minFanLayerTime,45
;   maxCoolingFanSpeed,100
;   increaseFanForBridging,0
;   bridgingFanSpeed,100
;   use5D,1
;   relativeEdistances,0
;   allowEaxisZeroing,1
;   independentExtruderAxes,0
;   includeM10123,0
;   stickySupport,1
;   applyToolheadOffsets,0
;   gcodeXoffset,0
;   gcodeYoffset,0
;   gcodeZoffset,0
;   overrideMachineDefinition,1
;   machineTypeOverride,0
;   strokeXoverride,1005
;   strokeYoverride,1005
;   strokeZoverride,1005
;   originOffsetXoverride,0
;   originOffsetYoverride,0
;   originOffsetZoverride,0
;   homeXdirOverride,-1
;   homeYdirOverride,-1
;   homeZdirOverride,-1
;   flipXoverride,1
;   flipYoverride,-1
;   flipZoverride,1
;   toolheadOffsets,0,0|0,0|0,0|0,0|0,0|0,0
;   overrideFirmwareConfiguration,0
;   firmwareTypeOverride,RepRap (Marlin/Repetier/Sprinter)
;   GPXconfigOverride,r2
;   baudRateOverride,115200
;   overridePrinterModels,0
;   printerModelsOverride
;   startingGcode,; 02.2019 - BigRep ONE Standard Extruder - PLA - 1 mm nozzle,M800,,M104 S[extruder0_temperature] H0,M104 S0 H1,M109 S[extruder0_temperature] H0,;M109 S[extruder1_temperature] H1,,T0,G28 ; home all axes,,T1 ; solve firmware bug,G92 E0 ; solve firmware bug,,T0 ; solve firmware bug,G92 E0 ; solve firmware bug
;   layerChangeGcode,
;   retractionGcode,
;   toolChangeGcode,
;   endingGcode,G92 E0,G1 E-5.0000 F1800 ; Reatract Filament,G91,G1 Z10 F4000 ; Lift Extruders,G90,G1 X5 F40000,G1 Y1000 F40000,T0,M104 S0 H0 ; turn off T0,M104 S0 H1 ; turn off T1,M107 P0,M107 P1,M140 S0 ; turn off bed,M84 ; disable motors,M801
;   exportFileFormat,gcode
;   celebration,0
;   celebrationSong,Star Wars
;   postProcessing,|{REPLACE "T2" "H2"}|{REPLACE "T3" "H3"}|{REPLACE "T4" "H4"}|{REPLACE "T5" "H5"}|{APPEND "\n\n;Zzzzz       /\     _,,,--,,_        \n;           /,`.-'`'   ._  \-;;,_    \n;          /,4-  ) )_   .;.(  `'-'   \n;         '---''(_/._)-'(_\_)        \n; This is Eve. Eve helped creating this gcode. But now she is tired and need some rest."}
;   defaultSpeed,5000
;   outlineUnderspeed,0.6
;   solidInfillUnderspeed,1
;   supportUnderspeed,1
;   rapidXYspeed,5000
;   rapidZspeed,1000
;   minBridgingArea,50
;   bridgingExtraInflation,1
;   bridgingExtrusionMultiplier,1
;   bridgingSpeedMultiplier,0.2
;   useFixedBridgingAngle,0
;   fixedBridgingAngle,0
;   applyBridgingToPerimeters,0
;   filamentDiameters,2.85|2.85|2.85|2.85|2.85|2.85
;   filamentPricesPerKg,28.12|28.125|28.125|28.125|28.125|28.125
;   filamentDensities,1.24|1.24|1.24|1.24|1.24|1.24
;   useMinPrintHeight,0
;   minPrintHeight,0
;   useMaxPrintHeight,0
;   maxPrintHeight,0
;   useDiaphragm,0
;   diaphragmLayerInterval,20
;   robustSlicing,1
;   mergeAllIntoSolid,0
;   onlyRetractWhenCrossingOutline,0
;   retractBetweenLayers,0
;   useRetractionMinTravel,1
;   retractionMinTravel,5
;   retractWhileWiping,1
;   onlyWipeOutlines,0
;   avoidCrossingOutline,0
;   maxMovementDetourFactor,3
;   toolChangeRetractionDistance,20
;   toolChangeExtraRestartDistance,0
;   toolChangeRetractionSpeed,1200
;   externalThinWallType,0
;   internalThinWallType,1
;   thinWallAllowedOverlapPercentage,5
;   singleExtrusionMinLength,1
;   singleExtrusionMinPrintingWidthPercentage,50
;   singleExtrusionMaxPrintingWidthPercentage,200
;   singleExtrusionEndpointExtension,0
;   horizontalSizeCompensation,0
G90
M82
M106 S0
; 02.2019 - BigRep ONE Standard Extruder - PLA - 1 mm nozzle
M800
M104 S205 H0
M104 S0 H1
M109 S205 H0
;M109 S205 H1
T0
G28 ; home all axes
T1 ; solve firmware bug
G92 E0 ; solve firmware bug
T0 ; solve firmware bug
G92 E0 ; solve firmware bug
; process pre_extrude
; layer 1, Z = 0.200
T0
G92 E0.0000
G1 E-1.0000 F1800
; feature outer perimeter
; tool H0.200 W1.200
G1 Z0.800 F1000
G1 X362.842 Y238.350 F5000
G1 Z0.200 F1000
G1 E0.0000 F1800
G92 E0.0000
G1 X642.158 Y238.350 E10.5082 F1200
G1 X642.158 Y766.650 E30.3834
G1 X362.842 Y766.650 E40.8916
G1 X362.842 Y238.350 E60.7668
G1 X363.642 Y239.150 F5000
G92 E0.0000
G1 X363.642 Y765.850 E19.8150 F1200
G1 X641.358 Y765.850 E30.2630
G1 X641.358 Y239.150 E50.0781
G1 X363.642 Y239.150 E60.5261
G92 E0.0000
G1 E-1.0000 F1800
; process dbu
; layer 2, Z = 0.400
; tool H0.400 W1.200
G1 Z1.000 F1000
G1 X448.240 Y749.600 F5000
G1 Z0.400 F1000
G1 E0.0000 F1800
G92 E0.0000
G1 X556.760 Y749.600 E8.1653 F1600
G1 X556.760 Y755.400 E8.6017
G1 X448.240 Y755.400 E16.7670
G1 X448.240 Y749.600 E17.2034
G92 E0.0000
G1 E-1.0000 F1800
; feature infill
G1 Z1.200 F1000
G1 X449.700 Y755.280 F5000
G1 Z0.400 F1000
G1 E0.0000 F1800
G92 E0.0000
G1 X449.700 Y749.720 E0.4183 F2000
G1 X452.100 Y749.720 E0.5989
G1 X452.100 Y755.280 E1.0173
G1 X454.500 Y755.280 E1.1979
G1 X454.500 Y749.720 E1.6162
G1 X456.900 Y749.720 E1.7968
G1 X456.900 Y755.280 E2.2151
G1 X459.300 Y755.280 E2.3957
G1 X459.300 Y749.720 E2.8141
G1 X461.700 Y749.720 E2.9946
G1 X461.700 Y755.280 E3.4130
G1 X464.100 Y755.280 E3.5936
G1 X464.100 Y749.720 E4.0119
G1 X466.500 Y749.720 E4.1925
G1 X466.500 Y755.280 E4.6108
G1 X468.900 Y755.280 E4.7914
G1 X468.900 Y749.720 E5.2098
G1 X471.300 Y749.720 E5.3904
G1 X471.300 Y755.280 E5.8087
G1 X473.700 Y755.280 E5.9893
G1 X473.700 Y749.720 E6.4076
G1 X476.100 Y749.720 E6.5882
G1 X476.100 Y755.280 E7.0066
G1 X478.500 Y755.280 E7.1871
G1 X478.500 Y749.720 E7.6055
G1 X480.900 Y749.720 E7.7861
G1 X480.900 Y755.280 E8.2044
G1 X483.300 Y755.280 E8.3850
G1 X483.300 Y749.720 E8.8033
G1 X485.700 Y749.720 E8.9839
G1 X485.700 Y755.280 E9.4023
G1 X488.100 Y755.280 E9.5829
G1 X488.100 Y749.720 E10.0012
G1 X490.500 Y749.720 E10.1818
G1 X490.500 Y755.280 E10.6001
G1 X492.900 Y755.280 E10.7807
G1 X492.900 Y749.720 E11.1991
G1 X495.300 Y749.720 E11.3796
G1 X495.300 Y755.280 E11.7980
G1 X497.700 Y755.280 E11.9786
G1 X497.700 Y749.720 E12.3969
G1 X500.100 Y749.720 E12.5775
G1 X500.100 Y755.280 E12.9958
G1 X502.500 Y755.280 E13.1764
G1 X502.500 Y749.720 E13.5948
G1 X504.900 Y749.720 E13.7753
G1 X504.900 Y755.280 E14.1937
G1 X507.300 Y755.280 E14.3743
G1 X507.300 Y749.720 E14.7926
G1 X509.700 Y749.720 E14.9732
G1 X509.700 Y755.280 E15.3915
G1 X512.100 Y755.280 E15.5721
G1 X512.100 Y749.720 E15.9905
G1 X514.500 Y749.720 E16.1711
G1 X514.500 Y755.280 E16.5894
G1 X516.900 Y755.280 E16.7700
G1 X516.900 Y749.720 E17.1883
G1 X519.300 Y749.720 E17.3689
G1 X519.300 Y755.280 E17.7873
G1 X521.700 Y755.280 E17.9678
G1 X521.700 Y749.720 E18.3862
G1 X524.100 Y749.720 E18.5668
G1 X524.100 Y755.280 E18.9851
G1 X526.500 Y755.280 E19.1657
G1 X526.500 Y749.720 E19.5840
G1 X528.900 Y749.720 E19.7646
G1 X528.900 Y755.280 E20.1830
G1 X531.300 Y755.280 E20.3636
G1 X531.300 Y749.720 E20.7819
G1 X533.700 Y749.720 E20.9625
G1 X533.700 Y755.280 E21.3808
G1 X536.100 Y755.280 E21.5614
G1 X536.100 Y749.720 E21.9798
G1 X538.500 Y749.720 E22.1603
G1 X538.500 Y755.280 E22.5787
G1 X540.900 Y755.280 E22.7593
G1 X540.900 Y749.720 E23.1776
G1 X543.300 Y749.720 E23.3582
G1 X543.300 Y755.280 E23.7765
G1 X545.700 Y755.280 E23.9571
G1 X545.700 Y749.720 E24.3755
G1 X548.100 Y749.720 E24.5561
G1 X548.100 Y755.280 E24.9744
G1 X550.500 Y755.280 E25.1550
G1 X550.500 Y749.720 E25.5733
G1 X552.900 Y749.720 E25.7539
G1 X552.900 Y755.280 E26.1723
G1 X555.300 Y755.280 E26.3528
G1 X555.300 Y749.720 E26.7712
G92 E0.0000
G1 E-1.0000 F1800
; feature outer perimeter
G1 Z1.200 F1000
G1 X565.780 Y672.067 F5000
G1 Z0.400 F1000
G1 E0.0000 F1800
G92 E0.0000
G1 X439.220 Y672.067 E9.5227 F1600
G1 X439.220 Y666.267 E9.9591
G1 X565.780 Y666.267 E19.4817
G1 X565.780 Y672.067 E19.9181
G92 E0.0000
G1 E-1.0000 F1800
; feature infill
G1 Z1.200 F1000
G1 X564.900 Y666.387 F5000
G1 Z0.400 F1000
G1 E0.0000 F1800
G92 E0.0000
G1 X564.900 Y671.947 E0.4183 F2000
G1 X562.500 Y671.947 E0.5989
G1 X562.500 Y666.387 E1.0173
G1 X560.100 Y666.387 E1.1979
G1 X560.100 Y671.947 E1.6162
G1 X557.700 Y671.947 E1.7968
G1 X557.700 Y666.387 E2.2151
G1 X555.300 Y666.387 E2.3957
G1 X555.300 Y671.947 E2.8141
G1 X552.900 Y671.947 E2.9946
G1 X552.900 Y666.387 E3.4130
G1 X550.500 Y666.387 E3.5936
G1 X550.500 Y671.947 E4.0119
G1 X548.100 Y671.947 E4.1925
G1 X548.100 Y666.387 E4.6108
G1 X545.700 Y666.387 E4.7914
G1 X545.700 Y671.947 E5.2098
G1 X543.300 Y671.947 E5.3904
G1 X543.300 Y666.387 E5.8087
G1 X540.900 Y666.387 E5.9893
G1 X540.900 Y671.947 E6.4076
G1 X538.500 Y671.947 E6.5882
G1 X538.500 Y666.387 E7.0066
G1 X536.100 Y666.387 E7.1871
G1 X536.100 Y671.947 E7.6055
G1 X533.700 Y671.947 E7.7861
G1 X533.700 Y666.387 E8.2044
G1 X531.300 Y666.387 E8.3850
G1 X531.300 Y671.947 E8.8033
G1 X528.900 Y671.947 E8.9839
G1 X528.900 Y666.387 E9.4023
G1 X526.500 Y666.387 E9.5829
G1 X526.500 Y671.947 E10.0012
G1 X524.100 Y671.947 E10.1818
G1 X524.100 Y666.387 E10.6001
G1 X521.700 Y666.387 E10.7807
G1 X521.700 Y671.947 E11.1991
G1 X519.300 Y671.947 E11.3796
G1 X519.300 Y666.387 E11.7980
G1 X516.900 Y666.387 E11.9786
G1 X516.900 Y671.947 E12.3969
G1 X514.500 Y671.947 E12.5775
G1 X514.500 Y666.387 E12.9958
G1 X512.100 Y666.387 E13.1764
G1 X512.100 Y671.947 E13.5948
G1 X509.700 Y671.947 E13.7753
G1 X509.700 Y666.387 E14.1937
G1 X507.300 Y666.387 E14.3743
G1 X507.300 Y671.947 E14.7926
G1 X504.900 Y671.947 E14.9732
G1 X504.900 Y666.387 E15.3915
G1 X502.500 Y666.387 E15.5721
G1 X502.500 Y671.947 E15.9905
G1 X500.100 Y671.947 E16.1711
G1 X500.100 Y666.387 E16.5894
G1 X497.700 Y666.387 E16.7700
G1 X497.700 Y671.947 E17.1883
G1 X495.300 Y671.947 E17.3689
G1 X495.300 Y666.387 E17.7873
G1 X492.900 Y666.387 E17.9678
G1 X492.900 Y671.947 E18.3862
G1 X490.500 Y671.947 E18.5668
G1 X490.500 Y666.387 E18.9851
G1 X488.100 Y666.387 E19.1657
G1 X488.100 Y671.947 E19.5840
G1 X485.700 Y671.947 E19.7646
G1 X485.700 Y666.387 E20.1830
G1 X483.300 Y666.387 E20.3636
G1 X483.300 Y671.947 E20.7819
G1 X480.900 Y671.947 E20.9625
G1 X480.900 Y666.387 E21.3808
G1 X478.500 Y666.387 E21.5614
G1 X478.500 Y671.947 E21.9798
G1 X476.100 Y671.947 E22.1603
G1 X476.100 Y666.387 E22.5787
G1 X473.700 Y666.387 E22.7593
G1 X473.700 Y671.947 E23.1776
G1 X471.300 Y671.947 E23.3582
G1 X471.300 Y666.387 E23.7765
G1 X468.900 Y666.387 E23.9571
G1 X468.900 Y671.947 E24.3755
G1 X466.500 Y671.947 E24.5561
G1 X466.500 Y666.387 E24.9744
G1 X464.100 Y666.387 E25.1550
G1 X464.100 Y671.947 E25.5733
G1 X461.700 Y671.947 E25.7539
G1 X461.700 Y666.387 E26.1723
G1 X459.300 Y666.387 E26.3528
G1 X459.300 Y671.947 E26.7712
G1 X456.900 Y671.947 E26.9518
G1 X456.900 Y666.387 E27.3701
G1 X454.500 Y666.387 E27.5507
G1 X454.500 Y671.947 E27.9690
G1 X452.100 Y671.947 E28.1496
G1 X452.100 Y666.387 E28.5680
G1 X449.700 Y666.387 E28.7486
G1 X449.700 Y671.947 E29.1669
G1 X447.300 Y671.947 E29.3475
G1 X447.300 Y666.387 E29.7658
G1 X444.900 Y666.387 E29.9464
G1 X444.900 Y671.947 E30.3648
G1 X442.500 Y671.947 E30.5453
G1 X442.500 Y666.387 E30.9637
G1 X440.100 Y666.387 E31.1443
G1 X440.100 Y671.947 E31.5626
G92 E0.0000
G1 E-1.0000 F1800
; feature outer perimeter
G1 Z1.200 F1000
G1 X430.200 Y588.733 F5000
G1 Z0.400 F1000
G1 E0.0000 F1800
G92 E0.0000
G1 X430.200 Y582.933 E0.4364 F1600
G1 X574.800 Y582.933 E11.3164
G1 X574.800 Y588.733 E11.7528
G1 X430.200 Y588.733 E22.6329
; feature infill
G1 X430.500 Y588.613 F5000
G92 E0.0000
G1 X430.500 Y583.053 E0.4183 F2000
G1 X432.900 Y583.053 E0.5989
G1 X432.900 Y588.613 E1.0173
G1 X435.300 Y588.613 E1.1979
G1 X435.300 Y583.053 E1.6162
G1 X437.700 Y583.053 E1.7968
G1 X437.700 Y588.613 E2.2151
G1 X440.100 Y588.613 E2.3957
G1 X440.100 Y583.053 E2.8141
G1 X442.500 Y583.053 E2.9946
G1 X442.500 Y588.613 E3.4130
G1 X444.900 Y588.613 E3.5936
G1 X444.900 Y583.053 E4.0119
G1 X447.300 Y583.053 E4.1925
G1 X447.300 Y588.613 E4.6108
G1 X449.700 Y588.613 E4.7914
G1 X449.700 Y583.053 E5.2098
G1 X452.100 Y583.053 E5.3904
G1 X452.100 Y588.613 E5.8087
G1 X454.500 Y588.613 E5.9893
G1 X454.500 Y583.053 E6.4076
G1 X456.900 Y583.053 E6.5882
G1 X456.900 Y588.613 E7.0066
G1 X459.300 Y588.613 E7.1871
G1 X459.300 Y583.053 E7.6055
G1 X461.700 Y583.053 E7.7861
G1 X461.700 Y588.613 E8.2044
G1 X464.100 Y588.613 E8.3850
G1 X464.100 Y583.053 E8.8033
G1 X466.500 Y583.053 E8.9839
G1 X466.500 Y588.613 E9.4023
G1 X468.900 Y588.613 E9.5829
G1 X468.900 Y583.053 E10.0012
G1 X471.300 Y583.053 E10.1818
G1 X471.300 Y588.613 E10.6001
G1 X473.700 Y588.613 E10.7807
G1 X473.700 Y583.053 E11.1991
G1 X476.100 Y583.053 E11.3796
G1 X476.100 Y588.613 E11.7980
G1 X478.500 Y588.613 E11.9786
G1 X478.500 Y583.053 E12.3969
G1 X480.900 Y583.053 E12.5775
G1 X480.900 Y588.613 E12.9958
G1 X483.300 Y588.613 E13.1764
G1 X483.300 Y583.053 E13.5948
G1 X485.700 Y583.053 E13.7753
G1 X485.700 Y588.613 E14.1937
G1 X488.100 Y588.613 E14.3743
G1 X488.100 Y583.053 E14.7926
G1 X490.500 Y583.053 E14.9732
G1 X490.500 Y588.613 E15.3915
G1 X492.900 Y588.613 E15.5721
G1 X492.900 Y583.053 E15.9905
G1 X495.300 Y583.053 E16.1711
G1 X495.300 Y588.613 E16.5894
G1 X497.700 Y588.613 E16.7700
G1 X497.700 Y583.053 E17.1883
G1 X500.100 Y583.053 E17.3689
G1 X500.100 Y588.613 E17.7873
G1 X502.500 Y588.613 E17.9678
G1 X502.500 Y583.053 E18.3862
G1 X504.900 Y583.053 E18.5668
G1 X504.900 Y588.613 E18.9851
