; G-Code generated by Simplify3D(R) Version 4.1.2
; Jul 21, 2021 at 12:40:41 PM
; Settings Summary
;   processName,pre
;   applyToModels,pre
;   profileName,abu
;   profileVersion,2021-07-17 12:02:57
;   baseProfile,Raise3D N2 Dual (modified)
;   printMaterial,PLA
;   printQuality,Medium
;   printExtruders,Right Extruder Only
;   extruderName,Extruder_1
;   extruderToolheadNumber,0
;   extruderDiameter,0.8
;   extruderAutoWidth,0
;   extruderWidth,0.8
;   extrusionMultiplier,1
;   extruderUseRetract,1
;   extruderRetractionDistance,4.4
;   extruderExtraRestartDistance,0
;   extruderRetractionZLift,0
;   extruderRetractionSpeed,1200
;   extruderUseCoasting,0
;   extruderCoastingDistance,0.2
;   extruderUseWipe,0
;   extruderWipeDistance,5
;   primaryExtruder,0
;   layerHeight,0.2
;   topSolidLayers,0
;   bottomSolidLayers,0
;   perimeterOutlines,1
;   printPerimetersInsideOut,1
;   startPointOption,2
;   startPointOriginX,0
;   startPointOriginY,0
;   sequentialIslands,1
;   spiralVaseMode,0
;   firstLayerHeightPercentage,100
;   firstLayerWidthPercentage,100
;   firstLayerUnderspeed,0.4
;   useRaft,0
;   raftExtruder,0
;   raftTopLayers,3
;   raftBaseLayers,2
;   raftOffset,3
;   raftSeparationDistance,0.14
;   raftTopInfill,100
;   aboveRaftSpeedMultiplier,0.3
;   useSkirt,0
;   skirtExtruder,0
;   skirtLayers,1
;   skirtOutlines,2
;   skirtOffset,4
;   usePrimePillar,0
;   primePillarExtruder,999
;   primePillarWidth,12
;   primePillarLocation,7
;   primePillarSpeedMultiplier,1
;   useOozeShield,0
;   oozeShieldExtruder,999
;   oozeShieldOffset,2
;   oozeShieldOutlines,1
;   oozeShieldSidewallShape,1
;   oozeShieldSidewallAngle,30
;   oozeShieldSpeedMultiplier,1
;   infillExtruder,0
;   internalInfillPattern,Rectilinear
;   externalInfillPattern,Rectilinear
;   infillPercentage,100
;   outlineOverlapPercentage,90
;   infillExtrusionWidthPercentage,100
;   minInfillLength,0.01
;   infillLayerInterval,1
;   internalInfillAngles,0
;   overlapInternalInfillAngles,0
;   externalInfillAngles,45,-45
;   generateSupport,0
;   supportExtruder,0
;   supportInfillPercentage,30
;   supportExtraInflation,0
;   supportBaseLayers,0
;   denseSupportExtruder,0
;   denseSupportLayers,0
;   denseSupportInfillPercentage,70
;   supportLayerInterval,1
;   supportHorizontalPartOffset,0.3
;   supportUpperSeparationLayers,1
;   supportLowerSeparationLayers,1
;   supportType,0
;   supportGridSpacing,4
;   maxOverhangAngle,45
;   supportAngles,0
;   temperatureName,Extruder_1
;   temperatureNumber,0
;   temperatureSetpointCount,1
;   temperatureSetpointLayers,1
;   temperatureSetpointTemperatures,200
;   temperatureStabilizeAtStartup,1
;   temperatureHeatedBed,0
;   fanLayers,1,2
;   fanSpeeds,0,100
;   blipFanToFullPower,1
;   adjustSpeedForCooling,0
;   minSpeedLayerTime,15
;   minCoolingSpeedSlowdown,20
;   increaseFanForCooling,0
;   minFanLayerTime,45
;   maxCoolingFanSpeed,100
;   increaseFanForBridging,0
;   bridgingFanSpeed,100
;   use5D,1
;   relativeEdistances,0
;   allowEaxisZeroing,1
;   independentExtruderAxes,0
;   includeM10123,0
;   stickySupport,1
;   applyToolheadOffsets,0
;   gcodeXoffset,0
;   gcodeYoffset,0
;   gcodeZoffset,0
;   overrideMachineDefinition,1
;   machineTypeOverride,0
;   strokeXoverride,305
;   strokeYoverride,305
;   strokeZoverride,305
;   originOffsetXoverride,0
;   originOffsetYoverride,0
;   originOffsetZoverride,0
;   homeXdirOverride,-1
;   homeYdirOverride,-1
;   homeZdirOverride,-1
;   flipXoverride,1
;   flipYoverride,-1
;   flipZoverride,1
;   toolheadOffsets,0,0|-25,0|0,0|0,0|0,0|0,0
;   overrideFirmwareConfiguration,1
;   firmwareTypeOverride,RepRap (Marlin/Repetier/Sprinter)
;   GPXconfigOverride,r2
;   baudRateOverride,230400
;   overridePrinterModels,1
;   printerModelsOverride
;   startingGcode,M221 T1 S100,G28,G1 Z15.0 F9000.00,G92 E0,G1 E25 F200,G1 Z0 F130,G92 E0,M117 Printing.,M1001
;   layerChangeGcode,
;   retractionGcode,
;   toolChangeGcode,
;   endingGcode,M107,M1002,M104 S0 T1,M104 S0 T0,M140 S0,M117 Print Complete.,G28 X0 Y0,G91,G1 Z10,G90,M84
;   exportFileFormat,gcode
;   celebration,0
;   celebrationSong,Star Wars
;   postProcessing,
;   defaultSpeed,5000
;   outlineUnderspeed,1
;   solidInfillUnderspeed,1
;   supportUnderspeed,1
;   rapidXYspeed,5000
;   rapidZspeed,1000
;   minBridgingArea,50
;   bridgingExtraInflation,0
;   bridgingExtrusionMultiplier,1
;   bridgingSpeedMultiplier,1
;   useFixedBridgingAngle,0
;   fixedBridgingAngle,0
;   applyBridgingToPerimeters,0
;   filamentDiameters,1.75|1.75|1.75|1.75|1.75|1.75
;   filamentPricesPerKg,46|46|46|46|46|46
;   filamentDensities,1.25|1.25|1.25|1.25|1.25|1.25
;   useMinPrintHeight,0
;   minPrintHeight,0
;   useMaxPrintHeight,0
;   maxPrintHeight,0
;   useDiaphragm,0
;   diaphragmLayerInterval,20
;   robustSlicing,1
;   mergeAllIntoSolid,0
;   onlyRetractWhenCrossingOutline,0
;   retractBetweenLayers,0
;   useRetractionMinTravel,1
;   retractionMinTravel,3
;   retractWhileWiping,1
;   onlyWipeOutlines,1
;   avoidCrossingOutline,1
;   maxMovementDetourFactor,400
;   toolChangeRetractionDistance,12
;   toolChangeExtraRestartDistance,-0.5
;   toolChangeRetractionSpeed,600
;   externalThinWallType,0
;   internalThinWallType,2
;   thinWallAllowedOverlapPercentage,100
;   singleExtrusionMinLength,0.01
;   singleExtrusionMinPrintingWidthPercentage,1
;   singleExtrusionMaxPrintingWidthPercentage,200
;   singleExtrusionEndpointExtension,0.01
;   horizontalSizeCompensation,0
G90
M82
M106 S0
M104 S200 T0
M109 S200 T0
M221 T1 S100
G28
G1 Z15.0 F9000.00
G92 E0
G1 E25 F200
G1 Z0 F130
G92 E0
M117 Printing.
M1001
; process pre
; layer 1, Z = 0.200
T0
G92 E0.0000
G1 E-4.4000 F1200
; feature outer perimeter
; tool H0.200 W0.800
G1 Z0.200 F1000
G1 X24.487 Y21.211 F5000
G1 E0.0000 F1200
G92 E0.0000
G1 X280.513 Y21.211 E17.0310 F2000
G1 X280.513 Y23.786 E17.2023
G1 X24.487 Y23.786 E34.2333
G1 X24.487 Y21.211 E34.4046
; feature infill
G1 X24.567 Y21.698 F5000
G92 E0.0000
G1 X280.433 Y21.698 E17.0203 F2000
G1 X280.433 Y22.498 E17.0735
G1 X24.567 Y22.498 E34.0939
G1 X24.567 Y23.298 E34.1471
G1 X280.433 Y23.298 E51.1674
G92 E0.0000
G1 E-4.4000 F1200
; process dbv1
; layer 2, Z = 0.400
; feature outer perimeter
; tool H0.400 W0.800
G1 Z0.400 F1000
G1 X276.975 Y23.786 F5000
G1 X24.487 Y23.786
G1 X30.600 Y58.520
G1 E0.0000 F1200
G92 E0.0000
G1 X30.600 Y253.480 E25.9376 F1200
G1 X24.400 Y253.480 E26.7624
G1 X24.400 Y58.520 E52.7000
G1 X30.600 Y58.520 E53.5249
G92 E0.0000
G1 E-4.4000 F1200
; feature infill
G1 X24.800 Y60.000 F5000
G1 E0.0000 F1200
G92 E0.0000
G1 X30.200 Y60.000 E0.7184 F1200
G1 X30.200 Y61.333 E0.8958
G1 X24.800 Y61.333 E1.6142
G1 X24.800 Y62.666 E1.7916
G1 X30.200 Y62.666 E2.5100
G1 X30.200 Y64.000 E2.6874
G1 X24.800 Y64.000 E3.4058
G1 X24.800 Y65.333 E3.5832
G1 X30.200 Y65.333 E4.3016
G1 X30.200 Y66.666 E4.4790
G1 X24.800 Y66.666 E5.1975
G1 X24.800 Y68.000 E5.3748
G1 X30.200 Y68.000 E6.0933
G1 X30.200 Y69.333 E6.2706
G1 X24.800 Y69.333 E6.9891
G1 X24.800 Y70.666 E7.1665
G1 X30.200 Y70.666 E7.8849
G1 X30.200 Y72.000 E8.0623
G1 X24.800 Y72.000 E8.7807
G1 X24.800 Y73.333 E8.9581
G1 X30.200 Y73.333 E9.6765
G1 X30.200 Y74.666 E9.8539
G1 X24.800 Y74.666 E10.5723
G1 X24.800 Y76.000 E10.7497
G1 X30.200 Y76.000 E11.4681
G1 X30.200 Y77.333 E11.6455
G1 X24.800 Y77.333 E12.3639
G1 X24.800 Y78.666 E12.5413
G1 X30.200 Y78.666 E13.2597
G1 X30.200 Y80.000 E13.4371
G1 X24.800 Y80.000 E14.1555
G1 X24.800 Y81.333 E14.3329
G1 X30.200 Y81.333 E15.0513
G1 X30.200 Y82.666 E15.2287
G1 X24.800 Y82.666 E15.9471
G1 X24.800 Y84.000 E16.1245
G1 X30.200 Y84.000 E16.8429
G1 X30.200 Y85.333 E17.0203
G1 X24.800 Y85.333 E17.7387
G1 X24.800 Y86.666 E17.9161
G1 X30.200 Y86.666 E18.6345
G1 X30.200 Y88.000 E18.8119
G1 X24.800 Y88.000 E19.5304
G1 X24.800 Y89.333 E19.7077
G1 X30.200 Y89.333 E20.4262
G1 X30.200 Y90.666 E20.6035
G1 X24.800 Y90.666 E21.3220
G1 X24.800 Y92.000 E21.4994
G1 X30.200 Y92.000 E22.2178
G1 X30.200 Y93.333 E22.3952
G1 X24.800 Y93.333 E23.1136
G1 X24.800 Y94.666 E23.2910
G1 X30.200 Y94.666 E24.0094
G1 X30.200 Y96.000 E24.1868
G1 X24.800 Y96.000 E24.9052
G1 X24.800 Y97.333 E25.0826
G1 X30.200 Y97.333 E25.8010
G1 X30.200 Y98.666 E25.9784
G1 X24.800 Y98.666 E26.6968
G1 X24.800 Y100.000 E26.8742
G1 X30.200 Y100.000 E27.5926
G1 X30.200 Y101.333 E27.7700
G1 X24.800 Y101.333 E28.4884
G1 X24.800 Y102.666 E28.6658
G1 X30.200 Y102.666 E29.3842
G1 X30.200 Y104.000 E29.5616
G1 X24.800 Y104.000 E30.2800
G1 X24.800 Y105.333 E30.4574
G1 X30.200 Y105.333 E31.1758
G1 X30.200 Y106.666 E31.3532
G1 X24.800 Y106.666 E32.0716
G1 X24.800 Y108.000 E32.2490
G1 X30.200 Y108.000 E32.9674
G1 X30.200 Y109.333 E33.1448
G1 X24.800 Y109.333 E33.8633
G1 X24.800 Y110.666 E34.0406
G1 X30.200 Y110.666 E34.7591
G1 X30.200 Y112.000 E34.9364
G1 X24.800 Y112.000 E35.6549
G1 X24.800 Y113.333 E35.8323
G1 X30.200 Y113.333 E36.5507
G1 X30.200 Y114.666 E36.7281
G1 X24.800 Y114.666 E37.4465
G1 X24.800 Y116.000 E37.6239
G1 X30.200 Y116.000 E38.3423
G1 X30.200 Y117.333 E38.5197
G1 X24.800 Y117.333 E39.2381
G1 X24.800 Y118.666 E39.4155
G1 X30.200 Y118.666 E40.1339
G1 X30.200 Y120.000 E40.3113
G1 X24.800 Y120.000 E41.0297
G1 X24.800 Y121.333 E41.2071
G1 X30.200 Y121.333 E41.9255
G1 X30.200 Y122.666 E42.1029
G1 X24.800 Y122.666 E42.8213
G1 X24.800 Y124.000 E42.9987
G1 X30.200 Y124.000 E43.7171
G1 X30.200 Y125.333 E43.8945
G1 X24.800 Y125.333 E44.6129
G1 X24.800 Y126.666 E44.7903
G1 X30.200 Y126.666 E45.5087
G1 X30.200 Y128.000 E45.6861
G1 X24.800 Y128.000 E46.4045
G1 X24.800 Y129.333 E46.5819
G1 X30.200 Y129.333 E47.3003
G1 X30.200 Y130.666 E47.4777
G1 X24.800 Y130.666 E48.1962
G1 X24.800 Y132.000 E48.3735
G1 X30.200 Y132.000 E49.0920
G1 X30.200 Y133.333 E49.2693
G1 X24.800 Y133.333 E49.9878
G1 X24.800 Y134.666 E50.1652
G1 X30.200 Y134.666 E50.8836
G1 X30.200 Y136.000 E51.0610
G1 X24.800 Y136.000 E51.7794
G1 X24.800 Y137.333 E51.9568
G1 X30.200 Y137.333 E52.6752
G1 X30.200 Y138.666 E52.8526
G1 X24.800 Y138.666 E53.5710
G1 X24.800 Y140.000 E53.7484
G1 X30.200 Y140.000 E54.4668
G1 X30.200 Y141.333 E54.6442
G1 X24.800 Y141.333 E55.3626
G1 X24.800 Y142.666 E55.5400
G1 X30.200 Y142.666 E56.2584
G1 X30.200 Y144.000 E56.4358
G1 X24.800 Y144.000 E57.1542
G1 X24.800 Y145.333 E57.3316
G1 X30.200 Y145.333 E58.0500
G1 X30.200 Y146.666 E58.2274
G1 X24.800 Y146.666 E58.9458
G1 X24.800 Y148.000 E59.1232
G1 X30.200 Y148.000 E59.8416
G1 X30.200 Y149.333 E60.0190
G1 X24.800 Y149.333 E60.7374
G1 X24.800 Y150.666 E60.9148
G1 X30.200 Y150.666 E61.6332
G1 X30.200 Y152.000 E61.8106
G1 X24.800 Y152.000 E62.5291
G1 X24.800 Y153.333 E62.7064
G1 X30.200 Y153.333 E63.4249
G1 X30.200 Y154.666 E63.6022
G1 X24.800 Y154.666 E64.3207
G1 X24.800 Y156.000 E64.4981
G1 X30.200 Y156.000 E65.2165
G1 X30.200 Y157.333 E65.3939
G1 X24.800 Y157.333 E66.1123
G1 X24.800 Y158.666 E66.2897
G1 X30.200 Y158.666 E67.0081
G1 X30.200 Y160.000 E67.1855
G1 X24.800 Y160.000 E67.9039
G1 X24.800 Y161.333 E68.0813
G1 X30.200 Y161.333 E68.7997
G1 X30.200 Y162.666 E68.9771
G1 X24.800 Y162.666 E69.6955
G1 X24.800 Y164.000 E69.8729
G1 X30.200 Y164.000 E70.5913
G1 X30.200 Y165.333 E70.7687
G1 X24.800 Y165.333 E71.4871
G1 X24.800 Y166.666 E71.6645
G1 X30.200 Y166.666 E72.3829
G1 X30.200 Y168.000 E72.5603
G1 X24.800 Y168.000 E73.2787
G1 X24.800 Y169.333 E73.4561
G1 X30.200 Y169.333 E74.1745
G1 X30.200 Y170.666 E74.3519
G1 X24.800 Y170.666 E75.0703
G1 X24.800 Y172.000 E75.2477
G1 X30.200 Y172.000 E75.9661
G1 X30.200 Y173.333 E76.1435
G1 X24.800 Y173.333 E76.8620
G1 X24.800 Y174.666 E77.0393
G1 X30.200 Y174.666 E77.7578
G1 X30.200 Y176.000 E77.9351
G1 X24.800 Y176.000 E78.6536
G1 X24.800 Y177.333 E78.8310
G1 X30.200 Y177.333 E79.5494
G1 X30.200 Y178.666 E79.7268
G1 X24.800 Y178.666 E80.4452
G1 X24.800 Y180.000 E80.6226
G1 X30.200 Y180.000 E81.3410
G1 X30.200 Y181.333 E81.5184
G1 X24.800 Y181.333 E82.2368
G1 X24.800 Y182.666 E82.4142
G1 X30.200 Y182.666 E83.1326
G1 X30.200 Y184.000 E83.3100
G1 X24.800 Y184.000 E84.0284
G1 X24.800 Y185.333 E84.2058
G1 X30.200 Y185.333 E84.9242
G1 X30.200 Y186.666 E85.1016
G1 X24.800 Y186.666 E85.8200
G1 X24.800 Y188.000 E85.9974
G1 X30.200 Y188.000 E86.7158
G1 X30.200 Y189.333 E86.8932
G1 X24.800 Y189.333 E87.6116
G1 X24.800 Y190.666 E87.7890
G1 X30.200 Y190.666 E88.5074
G1 X30.200 Y192.000 E88.6848
G1 X24.800 Y192.000 E89.4032
G1 X24.800 Y193.333 E89.5806
G1 X30.200 Y193.333 E90.2991
G1 X30.200 Y194.666 E90.4764
G1 X24.800 Y194.666 E91.1949
G1 X24.800 Y196.000 E91.3722
G1 X30.200 Y196.000 E92.0907
G1 X30.200 Y197.333 E92.2681
G1 X24.800 Y197.333 E92.9865
G1 X24.800 Y198.666 E93.1639
G1 X30.200 Y198.666 E93.8823
G1 X30.200 Y200.000 E94.0597
G1 X24.800 Y200.000 E94.7781
G1 X24.800 Y201.333 E94.9555
G1 X30.200 Y201.333 E95.6739
G1 X30.200 Y202.666 E95.8513
G1 X24.800 Y202.666 E96.5697
G1 X24.800 Y204.000 E96.7471
G1 X30.200 Y204.000 E97.4655
G1 X30.200 Y205.333 E97.6429
G1 X24.800 Y205.333 E98.3613
G1 X24.800 Y206.666 E98.5387
G1 X30.200 Y206.666 E99.2571
G1 X30.200 Y208.000 E99.4345
G1 X24.800 Y208.000 E100.1529
G1 X24.800 Y209.333 E100.3303
G1 X30.200 Y209.333 E101.0487
G1 X30.200 Y210.666 E101.2261
G1 X24.800 Y210.666 E101.9445
G1 X24.800 Y212.000 E102.1219
G1 X30.200 Y212.000 E102.8403
G1 X30.200 Y213.333 E103.0177
G1 X24.800 Y213.333 E103.7361
G1 X24.800 Y214.666 E103.9135
G1 X30.200 Y214.666 E104.6320
G1 X30.200 Y216.000 E104.8093
G1 X24.800 Y216.000 E105.5278
G1 X24.800 Y217.333 E105.7051
G1 X30.200 Y217.333 E106.4236
G1 X30.200 Y218.666 E106.6010
G1 X24.800 Y218.666 E107.3194
G1 X24.800 Y220.000 E107.4968
G1 X30.200 Y220.000 E108.2152
G1 X30.200 Y221.333 E108.3926
G1 X24.800 Y221.333 E109.1110
G1 X24.800 Y222.666 E109.2884
G1 X30.200 Y222.666 E110.0068
G1 X30.200 Y224.000 E110.1842
G1 X24.800 Y224.000 E110.9026
G1 X24.800 Y225.333 E111.0800
G1 X30.200 Y225.333 E111.7984
G1 X30.200 Y226.666 E111.9758
G1 X24.800 Y226.666 E112.6942
G1 X24.800 Y228.000 E112.8716
G1 X30.200 Y228.000 E113.5900
G1 X30.200 Y229.333 E113.7674
G1 X24.800 Y229.333 E114.4858
G1 X24.800 Y230.666 E114.6632
G1 X30.200 Y230.666 E115.3816
G1 X30.200 Y232.000 E115.5590
G1 X24.800 Y232.000 E116.2774
G1 X24.800 Y233.333 E116.4548
G1 X30.200 Y233.333 E117.1732
G1 X30.200 Y234.666 E117.3506
G1 X24.800 Y234.666 E118.0690
G1 X24.800 Y236.000 E118.2464
G1 X30.200 Y236.000 E118.9649
G1 X30.200 Y237.333 E119.1422
G1 X24.800 Y237.333 E119.8607
G1 X24.800 Y238.666 E120.0380
G1 X30.200 Y238.666 E120.7565
G1 X30.200 Y240.000 E120.9339
G1 X24.800 Y240.000 E121.6523
G1 X24.800 Y241.333 E121.8297
G1 X30.200 Y241.333 E122.5481
G1 X30.200 Y242.666 E122.7255
G1 X24.800 Y242.666 E123.4439
G1 X24.800 Y244.000 E123.6213
G1 X30.200 Y244.000 E124.3397
G1 X30.200 Y245.333 E124.5171
G1 X24.800 Y245.333 E125.2355
G1 X24.800 Y246.666 E125.4129
G1 X30.200 Y246.666 E126.1313
G1 X30.200 Y248.000 E126.3087
G1 X24.800 Y248.000 E127.0271
G1 X24.800 Y249.333 E127.2045
G1 X30.200 Y249.333 E127.9229
G1 X30.200 Y250.666 E128.1003
G1 X24.800 Y250.666 E128.8187
G1 X24.800 Y252.000 E128.9961
G1 X30.200 Y252.000 E129.7145
G92 E0.0000
G1 E-4.4000 F1200
; feature outer perimeter
G1 X30.600 Y252.004 F5000
G1 X30.600 Y253.480
G1 X167.257 Y253.480
G1 E0.0000 F1200
G92 E0.0000
G1 X167.257 Y58.520 E25.9376 F1200
G1 X173.457 Y58.520 E26.7624
G1 X173.457 Y253.480 E52.7000
G1 X167.257 Y253.480 E53.5249
G92 E0.0000
G1 E-4.4000 F1200
; feature infill
G1 X173.057 Y252.000 F5000
G1 E0.0000 F1200
G92 E0.0000
G1 X167.657 Y252.000 E0.7184 F1200
G1 X167.657 Y250.666 E0.8958
G1 X173.057 Y250.666 E1.6142
G1 X173.057 Y249.333 E1.7916
G1 X167.657 Y249.333 E2.5100
G1 X167.657 Y248.000 E2.6874
G1 X173.057 Y248.000 E3.4058
G1 X173.057 Y246.666 E3.5832
G1 X167.657 Y246.666 E4.3016
G1 X167.657 Y245.333 E4.4790
G1 X173.057 Y245.333 E5.1975
G1 X173.057 Y244.000 E5.3748
G1 X167.657 Y244.000 E6.0933
G1 X167.657 Y242.666 E6.2706
G1 X173.057 Y242.666 E6.9891
G1 X173.057 Y241.333 E7.1665
G1 X167.657 Y241.333 E7.8849
G1 X167.657 Y240.000 E8.0623
G1 X173.057 Y240.000 E8.7807
G1 X173.057 Y238.666 E8.9581
G1 X167.657 Y238.666 E9.6765
G1 X167.657 Y237.333 E9.8539
G1 X173.057 Y237.333 E10.5723
