; G-Code generated by Simplify3D(R) Version 4.1.2
; Jul 21, 2021 at 12:43:55 PM
; Settings Summary
;   processName,pre
;   applyToModels,pre_extrude
;   profileName,test
;   profileVersion,2021-07-17 18:16:24
;   baseProfile,BigRep ONE - Standard Extruder 1mm
;   printMaterial,PLA - T0 Only
;   printQuality,0.6 mm Layer Height - Quality
;   printExtruders,
;   extruderName,T0 - Left Extruder,T1 - Right Extruder
;   extruderToolheadNumber,0,1
;   extruderDiameter,1,1
;   extruderAutoWidth,1,1
;   extruderWidth,1.2,1.2
;   extrusionMultiplier,1,1
;   extruderUseRetract,1,1
;   extruderRetractionDistance,1,1
;   extruderExtraRestartDistance,0,0
;   extruderRetractionZLift,0.8,0.8
;   extruderRetractionSpeed,1800,1800
;   extruderUseCoasting,0,0
;   extruderCoastingDistance,0.2,0.2
;   extruderUseWipe,0,0
;   extruderWipeDistance,5,5
;   primaryExtruder,0
;   layerHeight,0.2
;   topSolidLayers,0
;   bottomSolidLayers,0
;   perimeterOutlines,1
;   printPerimetersInsideOut,1
;   startPointOption,2
;   startPointOriginX,0
;   startPointOriginY,0
;   sequentialIslands,1
;   spiralVaseMode,0
;   firstLayerHeightPercentage,100
;   firstLayerWidthPercentage,100
;   firstLayerUnderspeed,0.4
;   useRaft,0
;   raftExtruder,0
;   raftTopLayers,1
;   raftBaseLayers,2
;   raftOffset,3
;   raftSeparationDistance,0.14
;   raftTopInfill,100
;   aboveRaftSpeedMultiplier,0.3
;   useSkirt,0
;   skirtExtruder,0
;   skirtLayers,1
;   skirtOutlines,2
;   skirtOffset,5
;   usePrimePillar,0
;   primePillarExtruder,0
;   primePillarWidth,45
;   primePillarLocation,5
;   primePillarSpeedMultiplier,1
;   useOozeShield,0
;   oozeShieldExtruder,999
;   oozeShieldOffset,2
;   oozeShieldOutlines,1
;   oozeShieldSidewallShape,1
;   oozeShieldSidewallAngle,30
;   oozeShieldSpeedMultiplier,1
;   infillExtruder,0
;   internalInfillPattern,Grid
;   externalInfillPattern,Rectilinear
;   infillPercentage,0
;   outlineOverlapPercentage,90
;   infillExtrusionWidthPercentage,100
;   minInfillLength,0.1
;   infillLayerInterval,1
;   internalInfillAngles,0
;   overlapInternalInfillAngles,1
;   externalInfillAngles,45,-45
;   generateSupport,0
;   supportExtruder,0
;   supportInfillPercentage,15
;   supportExtraInflation,1.5
;   supportBaseLayers,1
;   denseSupportExtruder,0
;   denseSupportLayers,4
;   denseSupportInfillPercentage,80
;   supportLayerInterval,1
;   supportHorizontalPartOffset,1
;   supportUpperSeparationLayers,1
;   supportLowerSeparationLayers,1
;   supportType,0
;   supportGridSpacing,2
;   maxOverhangAngle,55
;   supportAngles,45
;   temperatureName,T0 - Printing Temperature,T1 - Printing Temperature,Fan T0,Fan T1,T0 - Standby Temperature,T1 - Standby Temperature
;   temperatureNumber,0,1,4,5,2,3
;   temperatureSetpointCount,1,1,2,2,1,1
;   temperatureSetpointLayers,1,1,1,2,1,2,1,1
;   temperatureSetpointTemperatures,205,205,0,255,0,255,185,185
;   temperatureStabilizeAtStartup,0,0,0,0,0,0
;   temperatureHeatedBed,0,0,0,0,0,0
;   fanLayers,1,2
;   fanSpeeds,0,100
;   blipFanToFullPower,0
;   adjustSpeedForCooling,0
;   minSpeedLayerTime,7.5
;   minCoolingSpeedSlowdown,25
;   increaseFanForCooling,0
;   minFanLayerTime,45
;   maxCoolingFanSpeed,100
;   increaseFanForBridging,0
;   bridgingFanSpeed,100
;   use5D,1
;   relativeEdistances,0
;   allowEaxisZeroing,1
;   independentExtruderAxes,0
;   includeM10123,0
;   stickySupport,1
;   applyToolheadOffsets,0
;   gcodeXoffset,0
;   gcodeYoffset,0
;   gcodeZoffset,0
;   overrideMachineDefinition,1
;   machineTypeOverride,0
;   strokeXoverride,1005
;   strokeYoverride,1005
;   strokeZoverride,1005
;   originOffsetXoverride,0
;   originOffsetYoverride,0
;   originOffsetZoverride,0
;   homeXdirOverride,-1
;   homeYdirOverride,-1
;   homeZdirOverride,-1
;   flipXoverride,1
;   flipYoverride,-1
;   flipZoverride,1
;   toolheadOffsets,0,0|0,0|0,0|0,0|0,0|0,0
;   overrideFirmwareConfiguration,0
;   firmwareTypeOverride,RepRap (Marlin/Repetier/Sprinter)
;   GPXconfigOverride,r2
;   baudRateOverride,115200
;   overridePrinterModels,0
;   printerModelsOverride
;   startingGcode,; 02.2019 - BigRep ONE Standard Extruder - PLA - 1 mm nozzle,M800,,M104 S[extruder0_temperature] H0,M104 S0 H1,M109 S[extruder0_temperature] H0,;M109 S[extruder1_temperature] H1,,T0,G28 ; home all axes,,T1 ; solve firmware bug,G92 E0 ; solve firmware bug,,T0 ; solve firmware bug,G92 E0 ; solve firmware bug
;   layerChangeGcode,
;   retractionGcode,
;   toolChangeGcode,
;   endingGcode,G92 E0,G1 E-5.0000 F1800 ; Reatract Filament,G91,G1 Z10 F4000 ; Lift Extruders,G90,G1 X5 F40000,G1 Y1000 F40000,T0,M104 S0 H0 ; turn off T0,M104 S0 H1 ; turn off T1,M107 P0,M107 P1,M140 S0 ; turn off bed,M84 ; disable motors,M801
;   exportFileFormat,gcode
;   celebration,0
;   celebrationSong,Star Wars
;   postProcessing,|{REPLACE "T2" "H2"}|{REPLACE "T3" "H3"}|{REPLACE "T4" "H4"}|{REPLACE "T5" "H5"}|{APPEND "\n\n;Zzzzz       /\     _,,,--,,_        \n;           /,`.-'`'   ._  \-;;,_    \n;          /,4-  ) )_   .;.(  `'-'   \n;         '---''(_/._)-'(_\_)        \n; This is Eve. Eve helped creating this gcode. But now she is tired and need some rest."}
;   defaultSpeed,5000
;   outlineUnderspeed,0.6
;   solidInfillUnderspeed,1
;   supportUnderspeed,1
;   rapidXYspeed,5000
;   rapidZspeed,1000
;   minBridgingArea,50
;   bridgingExtraInflation,1
;   bridgingExtrusionMultiplier,1
;   bridgingSpeedMultiplier,0.2
;   useFixedBridgingAngle,0
;   fixedBridgingAngle,0
;   applyBridgingToPerimeters,0
;   filamentDiameters,2.85|2.85|2.85|2.85|2.85|2.85
;   filamentPricesPerKg,28.12|28.125|28.125|28.125|28.125|28.125
;   filamentDensities,1.24|1.24|1.24|1.24|1.24|1.24
;   useMinPrintHeight,0
;   minPrintHeight,0
;   useMaxPrintHeight,0
;   maxPrintHeight,0
;   useDiaphragm,0
;   diaphragmLayerInterval,20
;   robustSlicing,1
;   mergeAllIntoSolid,0
;   onlyRetractWhenCrossingOutline,0
;   retractBetweenLayers,0
;   useRetractionMinTravel,1
;   retractionMinTravel,5
;   retractWhileWiping,1
;   onlyWipeOutlines,0
;   avoidCrossingOutline,0
;   maxMovementDetourFactor,3
;   toolChangeRetractionDistance,20
;   toolChangeExtraRestartDistance,0
;   toolChangeRetractionSpeed,1200
;   externalThinWallType,0
;   internalThinWallType,1
;   thinWallAllowedOverlapPercentage,5
;   singleExtrusionMinLength,1
;   singleExtrusionMinPrintingWidthPercentage,50
;   singleExtrusionMaxPrintingWidthPercentage,200
;   singleExtrusionEndpointExtension,0
;   horizontalSizeCompensation,0
G90
M82
M106 S0
; 02.2019 - BigRep ONE Standard Extruder - PLA - 1 mm nozzle
M800
M104 S205 H0
M104 S0 H1
M109 S205 H0
;M109 S205 H1
T0
G28 ; home all axes
T1 ; solve firmware bug
G92 E0 ; solve firmware bug
T0 ; solve firmware bug
G92 E0 ; solve firmware bug
; process pre
; layer 1, Z = 0.200
T0
G92 E0.0000
G1 E-1.0000 F1800
; feature outer perimeter
; tool H0.200 W1.200
G1 Z0.800 F1000
G1 X362.842 Y238.350 F5000
G1 Z0.200 F1000
G1 E0.0000 F1800
G92 E0.0000
G1 X642.158 Y238.350 E10.5082 F1200
G1 X642.158 Y766.650 E30.3834
G1 X362.842 Y766.650 E40.8916
G1 X362.842 Y238.350 E60.7668
G1 X363.642 Y239.150 F5000
G92 E0.0000
G1 X363.642 Y765.850 E19.8150 F1200
G1 X641.358 Y765.850 E30.2630
G1 X641.358 Y239.150 E50.0781
G1 X363.642 Y239.150 E60.5261
G92 E0.0000
G1 E-1.0000 F1800
; process dbv
; layer 2, Z = 0.400
; tool H0.400 W1.200
G1 Z1.000 F1000
G1 X374.897 Y537.700 F5000
G1 Z0.400 F1000
G1 E0.0000 F1800
G92 E0.0000
G1 X380.697 Y537.700 E0.4364 F2000
G1 X380.697 Y732.260 E15.0755
G1 X374.897 Y732.260 E15.5119
G1 X374.897 Y537.700 E30.1511
; feature infill
G1 X375.017 Y537.999 F5000
G92 E0.0000
G1 X380.577 Y537.999 E0.4183 F2500
G1 X380.577 Y539.999 E0.5688
G1 X375.017 Y539.999 E0.9872
G1 X375.017 Y541.999 E1.1377
G1 X380.577 Y541.999 E1.5560
G1 X380.577 Y543.999 E1.7065
G1 X375.017 Y543.999 E2.1248
G1 X375.017 Y545.999 E2.2753
G1 X380.577 Y545.999 E2.6937
G1 X380.577 Y547.999 E2.8442
G1 X375.017 Y547.999 E3.2625
G1 X375.017 Y549.999 E3.4130
G1 X380.577 Y549.999 E3.8313
G1 X380.577 Y551.999 E3.9818
G1 X375.017 Y551.999 E4.4002
G1 X375.017 Y553.999 E4.5506
G1 X380.577 Y553.999 E4.9690
G1 X380.577 Y555.999 E5.1195
G1 X375.017 Y555.999 E5.5378
G1 X375.017 Y557.999 E5.6883
G1 X380.577 Y557.999 E6.1067
G1 X380.577 Y559.999 E6.2571
G1 X375.017 Y559.999 E6.6755
G1 X375.017 Y561.999 E6.8260
G1 X380.577 Y561.999 E7.2443
G1 X380.577 Y563.999 E7.3948
G1 X375.017 Y563.999 E7.8132
G1 X375.017 Y565.999 E7.9636
G1 X380.577 Y565.999 E8.3820
G1 X380.577 Y567.999 E8.5325
G1 X375.017 Y567.999 E8.9508
G1 X375.017 Y569.999 E9.1013
G1 X380.577 Y569.999 E9.5196
G1 X380.577 Y571.999 E9.6701
G1 X375.017 Y571.999 E10.0885
G1 X375.017 Y573.999 E10.2390
G1 X380.577 Y573.999 E10.6573
G1 X380.577 Y575.999 E10.8078
G1 X375.017 Y575.999 E11.2261
G1 X375.017 Y577.999 E11.3766
G1 X380.577 Y577.999 E11.7950
G1 X380.577 Y579.999 E11.9455
G1 X375.017 Y579.999 E12.3638
G1 X375.017 Y581.999 E12.5143
G1 X380.577 Y581.999 E12.9326
G1 X380.577 Y583.999 E13.0831
G1 X375.017 Y583.999 E13.5015
G1 X375.017 Y585.999 E13.6519
G1 X380.577 Y585.999 E14.0703
G1 X380.577 Y587.999 E14.2208
G1 X375.017 Y587.999 E14.6391
G1 X375.017 Y589.999 E14.7896
G1 X380.577 Y589.999 E15.2080
G1 X380.577 Y591.999 E15.3584
G1 X375.017 Y591.999 E15.7768
G1 X375.017 Y593.999 E15.9273
G1 X380.577 Y593.999 E16.3456
G1 X380.577 Y595.999 E16.4961
G1 X375.017 Y595.999 E16.9145
G1 X375.017 Y597.999 E17.0649
G1 X380.577 Y597.999 E17.4833
G1 X380.577 Y599.999 E17.6338
G1 X375.017 Y599.999 E18.0521
G1 X375.017 Y601.999 E18.2026
G1 X380.577 Y601.999 E18.6209
G1 X380.577 Y603.999 E18.7714
G1 X375.017 Y603.999 E19.1898
G1 X375.017 Y605.999 E19.3403
G1 X380.577 Y605.999 E19.7586
G1 X380.577 Y607.999 E19.9091
G1 X375.017 Y607.999 E20.3274
G1 X375.017 Y609.999 E20.4779
G1 X380.577 Y609.999 E20.8963
G1 X380.577 Y611.999 E21.0468
G1 X375.017 Y611.999 E21.4651
G1 X375.017 Y613.999 E21.6156
G1 X380.577 Y613.999 E22.0339
G1 X380.577 Y615.999 E22.1844
G1 X375.017 Y615.999 E22.6028
G1 X375.017 Y617.999 E22.7532
G1 X380.577 Y617.999 E23.1716
G1 X380.577 Y619.999 E23.3221
G1 X375.017 Y619.999 E23.7404
G1 X375.017 Y621.999 E23.8909
G1 X380.577 Y621.999 E24.3093
G1 X380.577 Y623.999 E24.4597
G1 X375.017 Y623.999 E24.8781
G1 X375.017 Y625.999 E25.0286
G1 X380.577 Y625.999 E25.4469
G1 X380.577 Y627.999 E25.5974
G1 X375.017 Y627.999 E26.0158
G1 X375.017 Y629.999 E26.1662
G1 X380.577 Y629.999 E26.5846
G1 X380.577 Y631.999 E26.7351
G1 X375.017 Y631.999 E27.1534
G1 X375.017 Y633.999 E27.3039
G1 X380.577 Y633.999 E27.7222
G1 X380.577 Y635.999 E27.8727
G1 X375.017 Y635.999 E28.2911
G1 X375.017 Y637.999 E28.4416
G1 X380.577 Y637.999 E28.8599
G1 X380.577 Y639.999 E29.0104
G1 X375.017 Y639.999 E29.4287
G1 X375.017 Y641.999 E29.5792
G1 X380.577 Y641.999 E29.9976
G1 X380.577 Y643.999 E30.1481
G1 X375.017 Y643.999 E30.5664
G1 X375.017 Y645.999 E30.7169
G1 X380.577 Y645.999 E31.1352
G1 X380.577 Y647.999 E31.2857
G1 X375.017 Y647.999 E31.7041
G1 X375.017 Y649.999 E31.8545
G1 X380.577 Y649.999 E32.2729
G1 X380.577 Y651.999 E32.4234
G1 X375.017 Y651.999 E32.8417
G1 X375.017 Y653.999 E32.9922
G1 X380.577 Y653.999 E33.4106
G1 X380.577 Y655.999 E33.5610
G1 X375.017 Y655.999 E33.9794
G1 X375.017 Y657.999 E34.1299
G1 X380.577 Y657.999 E34.5482
G1 X380.577 Y659.999 E34.6987
G1 X375.017 Y659.999 E35.1171
G1 X375.017 Y661.999 E35.2675
G1 X380.577 Y661.999 E35.6859
G1 X380.577 Y663.999 E35.8364
G1 X375.017 Y663.999 E36.2547
G1 X375.017 Y665.999 E36.4052
G1 X380.577 Y665.999 E36.8235
G1 X380.577 Y667.999 E36.9740
G1 X375.017 Y667.999 E37.3924
G1 X375.017 Y669.999 E37.5429
G1 X380.577 Y669.999 E37.9612
G1 X380.577 Y671.999 E38.1117
G1 X375.017 Y671.999 E38.5300
G1 X375.017 Y673.999 E38.6805
G1 X380.577 Y673.999 E39.0989
G1 X380.577 Y675.999 E39.2494
G1 X375.017 Y675.999 E39.6677
G1 X375.017 Y677.999 E39.8182
G1 X380.577 Y677.999 E40.2365
G1 X380.577 Y679.999 E40.3870
G1 X375.017 Y679.999 E40.8054
G1 X375.017 Y681.999 E40.9558
G1 X380.577 Y681.999 E41.3742
G1 X380.577 Y683.999 E41.5247
G1 X375.017 Y683.999 E41.9430
G1 X375.017 Y685.999 E42.0935
G1 X380.577 Y685.999 E42.5119
G1 X380.577 Y687.999 E42.6623
G1 X375.017 Y687.999 E43.0807
G1 X375.017 Y689.999 E43.2312
G1 X380.577 Y689.999 E43.6495
G1 X380.577 Y691.999 E43.8000
G1 X375.017 Y691.999 E44.2184
G1 X375.017 Y693.999 E44.3688
G1 X380.577 Y693.999 E44.7872
G1 X380.577 Y695.999 E44.9377
G1 X375.017 Y695.999 E45.3560
G1 X375.017 Y697.999 E45.5065
G1 X380.577 Y697.999 E45.9248
G1 X380.577 Y699.999 E46.0753
G1 X375.017 Y699.999 E46.4937
G1 X375.017 Y701.999 E46.6442
G1 X380.577 Y701.999 E47.0625
G1 X380.577 Y703.999 E47.2130
G1 X375.017 Y703.999 E47.6313
G1 X375.017 Y705.999 E47.7818
G1 X380.577 Y705.999 E48.2002
G1 X380.577 Y707.999 E48.3507
G1 X375.017 Y707.999 E48.7690
G1 X375.017 Y709.999 E48.9195
G1 X380.577 Y709.999 E49.3378
G1 X380.577 Y711.999 E49.4883
G1 X375.017 Y711.999 E49.9067
G1 X375.017 Y713.999 E50.0571
G1 X380.577 Y713.999 E50.4755
G1 X380.577 Y715.999 E50.6260
G1 X375.017 Y715.999 E51.0443
G1 X375.017 Y717.999 E51.1948
G1 X380.577 Y717.999 E51.6132
G1 X380.577 Y719.999 E51.7636
G1 X375.017 Y719.999 E52.1820
G1 X375.017 Y721.999 E52.3325
G1 X380.577 Y721.999 E52.7508
G1 X380.577 Y723.999 E52.9013
G1 X375.017 Y723.999 E53.3197
G1 X375.017 Y725.999 E53.4701
G1 X380.577 Y725.999 E53.8885
G1 X380.577 Y727.999 E54.0390
G1 X375.017 Y727.999 E54.4573
G1 X375.017 Y729.999 E54.6078
G1 X380.577 Y729.999 E55.0261
G1 X380.577 Y731.999 E55.1766
G1 X375.017 Y731.999 E55.5950
G92 E0.0000
G1 E-1.0000 F1800
; feature outer perimeter
G1 Z1.200 F1000
G1 X517.754 Y732.260 F5000
G1 Z0.400 F1000
G1 E0.0000 F1800
G92 E0.0000
G1 X517.754 Y537.700 E14.6391 F2000
G1 X523.554 Y537.700 E15.0755
G1 X523.554 Y732.260 E29.7147
G1 X517.754 Y732.260 E30.1511
; feature infill
G1 X517.874 Y731.999 F5000
G92 E0.0000
G1 X523.434 Y731.999 E0.4183 F2500
G1 X523.434 Y729.999 E0.5688
G1 X517.874 Y729.999 E0.9872
G1 X517.874 Y727.999 E1.1377
G1 X523.434 Y727.999 E1.5560
G1 X523.434 Y725.999 E1.7065
G1 X517.874 Y725.999 E2.1248
G1 X517.874 Y723.999 E2.2753
G1 X523.434 Y723.999 E2.6937
G1 X523.434 Y721.999 E2.8442
G1 X517.874 Y721.999 E3.2625
G1 X517.874 Y719.999 E3.4130
G1 X523.434 Y719.999 E3.8313
G1 X523.434 Y717.999 E3.9818
G1 X517.874 Y717.999 E4.4002
G1 X517.874 Y715.999 E4.5506
G1 X523.434 Y715.999 E4.9690
G1 X523.434 Y713.999 E5.1195
G1 X517.874 Y713.999 E5.5378
G1 X517.874 Y711.999 E5.6883
G1 X523.434 Y711.999 E6.1067
G1 X523.434 Y709.999 E6.2571
G1 X517.874 Y709.999 E6.6755
G1 X517.874 Y707.999 E6.8260
G1 X523.434 Y707.999 E7.2443
G1 X523.434 Y705.999 E7.3948
G1 X517.874 Y705.999 E7.8132
G1 X517.874 Y703.999 E7.9636
G1 X523.434 Y703.999 E8.3820
G1 X523.434 Y701.999 E8.5325
G1 X517.874 Y701.999 E8.9508
G1 X517.874 Y699.999 E9.1013
G1 X523.434 Y699.999 E9.5196
G1 X523.434 Y697.999 E9.6701
G1 X517.874 Y697.999 E10.0885
G1 X517.874 Y695.999 E10.2390
G1 X523.434 Y695.999 E10.6573
G1 X523.434 Y693.999 E10.8078
G1 X517.874 Y693.999 E11.2261
G1 X517.874 Y691.999 E11.3766
G1 X523.434 Y691.999 E11.7950
G1 X523.434 Y689.999 E11.9455
G1 X517.874 Y689.999 E12.3638
G1 X517.874 Y687.999 E12.5143
G1 X523.434 Y687.999 E12.9326
G1 X523.434 Y685.999 E13.0831
G1 X517.874 Y685.999 E13.5015
G1 X517.874 Y683.999 E13.6519
G1 X523.434 Y683.999 E14.0703
G1 X523.434 Y681.999 E14.2208
G1 X517.874 Y681.999 E14.6391
G1 X517.874 Y679.999 E14.7896
G1 X523.434 Y679.999 E15.2080
G1 X523.434 Y677.999 E15.3584
G1 X517.874 Y677.999 E15.7768
G1 X517.874 Y675.999 E15.9273
G1 X523.434 Y675.999 E16.3456
G1 X523.434 Y673.999 E16.4961
G1 X517.874 Y673.999 E16.9145
G1 X517.874 Y671.999 E17.0649
G1 X523.434 Y671.999 E17.4833
G1 X523.434 Y669.999 E17.6338
G1 X517.874 Y669.999 E18.0521
G1 X517.874 Y667.999 E18.2026
G1 X523.434 Y667.999 E18.6209
G1 X523.434 Y665.999 E18.7714
G1 X517.874 Y665.999 E19.1898
G1 X517.874 Y663.999 E19.3403
G1 X523.434 Y663.999 E19.7586
G1 X523.434 Y661.999 E19.9091
G1 X517.874 Y661.999 E20.3274
G1 X517.874 Y659.999 E20.4779
G1 X523.434 Y659.999 E20.8963
G1 X523.434 Y657.999 E21.0468
G1 X517.874 Y657.999 E21.4651
G1 X517.874 Y655.999 E21.6156
G1 X523.434 Y655.999 E22.0339
