; G-Code generated by Simplify3D(R) Version 4.1.2
; Jul 21, 2021 at 12:41:28 PM
; Settings Summary
;   processName,pre
;   applyToModels,pre
;   profileName,abu
;   profileVersion,2021-07-17 12:02:57
;   baseProfile,Raise3D N2 Dual (modified)
;   printMaterial,PLA
;   printQuality,Medium
;   printExtruders,Right Extruder Only
;   extruderName,Extruder_1
;   extruderToolheadNumber,0
;   extruderDiameter,0.8
;   extruderAutoWidth,0
;   extruderWidth,0.8
;   extrusionMultiplier,1
;   extruderUseRetract,1
;   extruderRetractionDistance,4.4
;   extruderExtraRestartDistance,0
;   extruderRetractionZLift,0
;   extruderRetractionSpeed,1200
;   extruderUseCoasting,0
;   extruderCoastingDistance,0.2
;   extruderUseWipe,0
;   extruderWipeDistance,5
;   primaryExtruder,0
;   layerHeight,0.2
;   topSolidLayers,0
;   bottomSolidLayers,0
;   perimeterOutlines,1
;   printPerimetersInsideOut,1
;   startPointOption,2
;   startPointOriginX,0
;   startPointOriginY,0
;   sequentialIslands,1
;   spiralVaseMode,0
;   firstLayerHeightPercentage,100
;   firstLayerWidthPercentage,100
;   firstLayerUnderspeed,0.4
;   useRaft,0
;   raftExtruder,0
;   raftTopLayers,3
;   raftBaseLayers,2
;   raftOffset,3
;   raftSeparationDistance,0.14
;   raftTopInfill,100
;   aboveRaftSpeedMultiplier,0.3
;   useSkirt,0
;   skirtExtruder,0
;   skirtLayers,1
;   skirtOutlines,2
;   skirtOffset,4
;   usePrimePillar,0
;   primePillarExtruder,999
;   primePillarWidth,12
;   primePillarLocation,7
;   primePillarSpeedMultiplier,1
;   useOozeShield,0
;   oozeShieldExtruder,999
;   oozeShieldOffset,2
;   oozeShieldOutlines,1
;   oozeShieldSidewallShape,1
;   oozeShieldSidewallAngle,30
;   oozeShieldSpeedMultiplier,1
;   infillExtruder,0
;   internalInfillPattern,Rectilinear
;   externalInfillPattern,Rectilinear
;   infillPercentage,100
;   outlineOverlapPercentage,90
;   infillExtrusionWidthPercentage,100
;   minInfillLength,0.01
;   infillLayerInterval,1
;   internalInfillAngles,0
;   overlapInternalInfillAngles,0
;   externalInfillAngles,45,-45
;   generateSupport,0
;   supportExtruder,0
;   supportInfillPercentage,30
;   supportExtraInflation,0
;   supportBaseLayers,0
;   denseSupportExtruder,0
;   denseSupportLayers,0
;   denseSupportInfillPercentage,70
;   supportLayerInterval,1
;   supportHorizontalPartOffset,0.3
;   supportUpperSeparationLayers,1
;   supportLowerSeparationLayers,1
;   supportType,0
;   supportGridSpacing,4
;   maxOverhangAngle,45
;   supportAngles,0
;   temperatureName,Extruder_1
;   temperatureNumber,0
;   temperatureSetpointCount,1
;   temperatureSetpointLayers,1
;   temperatureSetpointTemperatures,200
;   temperatureStabilizeAtStartup,1
;   temperatureHeatedBed,0
;   fanLayers,1,2
;   fanSpeeds,0,100
;   blipFanToFullPower,1
;   adjustSpeedForCooling,0
;   minSpeedLayerTime,15
;   minCoolingSpeedSlowdown,20
;   increaseFanForCooling,0
;   minFanLayerTime,45
;   maxCoolingFanSpeed,100
;   increaseFanForBridging,0
;   bridgingFanSpeed,100
;   use5D,1
;   relativeEdistances,0
;   allowEaxisZeroing,1
;   independentExtruderAxes,0
;   includeM10123,0
;   stickySupport,1
;   applyToolheadOffsets,0
;   gcodeXoffset,0
;   gcodeYoffset,0
;   gcodeZoffset,0
;   overrideMachineDefinition,1
;   machineTypeOverride,0
;   strokeXoverride,305
;   strokeYoverride,305
;   strokeZoverride,305
;   originOffsetXoverride,0
;   originOffsetYoverride,0
;   originOffsetZoverride,0
;   homeXdirOverride,-1
;   homeYdirOverride,-1
;   homeZdirOverride,-1
;   flipXoverride,1
;   flipYoverride,-1
;   flipZoverride,1
;   toolheadOffsets,0,0|-25,0|0,0|0,0|0,0|0,0
;   overrideFirmwareConfiguration,1
;   firmwareTypeOverride,RepRap (Marlin/Repetier/Sprinter)
;   GPXconfigOverride,r2
;   baudRateOverride,230400
;   overridePrinterModels,1
;   printerModelsOverride
;   startingGcode,M221 T1 S100,G28,G1 Z15.0 F9000.00,G92 E0,G1 E25 F200,G1 Z0 F130,G92 E0,M117 Printing.,M1001
;   layerChangeGcode,
;   retractionGcode,
;   toolChangeGcode,
;   endingGcode,M107,M1002,M104 S0 T1,M104 S0 T0,M140 S0,M117 Print Complete.,G28 X0 Y0,G91,G1 Z10,G90,M84
;   exportFileFormat,gcode
;   celebration,0
;   celebrationSong,Star Wars
;   postProcessing,
;   defaultSpeed,5000
;   outlineUnderspeed,1
;   solidInfillUnderspeed,1
;   supportUnderspeed,1
;   rapidXYspeed,5000
;   rapidZspeed,1000
;   minBridgingArea,50
;   bridgingExtraInflation,0
;   bridgingExtrusionMultiplier,1
;   bridgingSpeedMultiplier,1
;   useFixedBridgingAngle,0
;   fixedBridgingAngle,0
;   applyBridgingToPerimeters,0
;   filamentDiameters,1.75|1.75|1.75|1.75|1.75|1.75
;   filamentPricesPerKg,46|46|46|46|46|46
;   filamentDensities,1.25|1.25|1.25|1.25|1.25|1.25
;   useMinPrintHeight,0
;   minPrintHeight,0
;   useMaxPrintHeight,0
;   maxPrintHeight,0
;   useDiaphragm,0
;   diaphragmLayerInterval,20
;   robustSlicing,1
;   mergeAllIntoSolid,0
;   onlyRetractWhenCrossingOutline,0
;   retractBetweenLayers,0
;   useRetractionMinTravel,1
;   retractionMinTravel,3
;   retractWhileWiping,1
;   onlyWipeOutlines,1
;   avoidCrossingOutline,1
;   maxMovementDetourFactor,400
;   toolChangeRetractionDistance,12
;   toolChangeExtraRestartDistance,-0.5
;   toolChangeRetractionSpeed,600
;   externalThinWallType,0
;   internalThinWallType,2
;   thinWallAllowedOverlapPercentage,100
;   singleExtrusionMinLength,0.01
;   singleExtrusionMinPrintingWidthPercentage,1
;   singleExtrusionMaxPrintingWidthPercentage,200
;   singleExtrusionEndpointExtension,0.01
;   horizontalSizeCompensation,0
G90
M82
M106 S0
M104 S200 T0
M109 S200 T0
M221 T1 S100
G28
G1 Z15.0 F9000.00
G92 E0
G1 E25 F200
G1 Z0 F130
G92 E0
M117 Printing.
M1001
; process pre
; layer 1, Z = 0.200
T0
G92 E0.0000
G1 E-4.4000 F1200
; feature outer perimeter
; tool H0.200 W0.800
G1 Z0.200 F1000
G1 X24.487 Y21.211 F5000
G1 E0.0000 F1200
G92 E0.0000
G1 X280.513 Y21.211 E17.0310 F2000
G1 X280.513 Y23.786 E17.2023
G1 X24.487 Y23.786 E34.2333
G1 X24.487 Y21.211 E34.4046
; feature infill
G1 X24.567 Y21.698 F5000
G92 E0.0000
G1 X280.433 Y21.698 E17.0203 F2000
G1 X280.433 Y22.498 E17.0735
G1 X24.567 Y22.498 E34.0939
G1 X24.567 Y23.298 E34.1471
G1 X280.433 Y23.298 E51.1674
G92 E0.0000
G1 E-4.4000 F1200
; process dbv
; layer 2, Z = 0.400
; feature outer perimeter
; tool H0.400 W0.800
G1 Z0.400 F1000
G1 X276.974 Y23.786 F5000
G1 X24.487 Y23.786
G1 X30.600 Y58.517
G1 E0.0000 F1200
G92 E0.0000
G1 X30.600 Y256.977 E26.4032 F1200
G1 X24.400 Y256.977 E27.2281
G1 X24.400 Y58.517 E53.6313
G1 X30.600 Y58.517 E54.4562
G92 E0.0000
G1 E-4.4000 F1200
; feature infill
G1 X24.800 Y59.081 F5000
G1 E0.0000 F1200
G92 E0.0000
G1 X30.200 Y59.081 E0.7184 F1200
G1 X30.200 Y60.414 E0.8958
G1 X24.800 Y60.414 E1.6142
G1 X24.800 Y61.747 E1.7916
G1 X30.200 Y61.747 E2.5100
G1 X30.200 Y63.081 E2.6874
G1 X24.800 Y63.081 E3.4058
G1 X24.800 Y64.414 E3.5832
G1 X30.200 Y64.414 E4.3016
G1 X30.200 Y65.747 E4.4790
G1 X24.800 Y65.747 E5.1975
G1 X24.800 Y67.081 E5.3748
G1 X30.200 Y67.081 E6.0933
G1 X30.200 Y68.414 E6.2706
G1 X24.800 Y68.414 E6.9891
G1 X24.800 Y69.747 E7.1665
G1 X30.200 Y69.747 E7.8849
G1 X30.200 Y71.081 E8.0623
G1 X24.800 Y71.081 E8.7807
G1 X24.800 Y72.414 E8.9581
G1 X30.200 Y72.414 E9.6765
G1 X30.200 Y73.747 E9.8539
G1 X24.800 Y73.747 E10.5723
G1 X24.800 Y75.081 E10.7497
G1 X30.200 Y75.081 E11.4681
G1 X30.200 Y76.414 E11.6455
G1 X24.800 Y76.414 E12.3639
G1 X24.800 Y77.747 E12.5413
G1 X30.200 Y77.747 E13.2597
G1 X30.200 Y79.081 E13.4371
G1 X24.800 Y79.081 E14.1555
G1 X24.800 Y80.414 E14.3329
G1 X30.200 Y80.414 E15.0513
G1 X30.200 Y81.747 E15.2287
G1 X24.800 Y81.747 E15.9471
G1 X24.800 Y83.081 E16.1245
G1 X30.200 Y83.081 E16.8429
G1 X30.200 Y84.414 E17.0203
G1 X24.800 Y84.414 E17.7387
G1 X24.800 Y85.747 E17.9161
G1 X30.200 Y85.747 E18.6345
G1 X30.200 Y87.081 E18.8119
G1 X24.800 Y87.081 E19.5304
G1 X24.800 Y88.414 E19.7077
G1 X30.200 Y88.414 E20.4262
G1 X30.200 Y89.747 E20.6035
G1 X24.800 Y89.747 E21.3220
G1 X24.800 Y91.081 E21.4994
G1 X30.200 Y91.081 E22.2178
G1 X30.200 Y92.414 E22.3952
G1 X24.800 Y92.414 E23.1136
G1 X24.800 Y93.747 E23.2910
G1 X30.200 Y93.747 E24.0094
G1 X30.200 Y95.081 E24.1868
G1 X24.800 Y95.081 E24.9052
G1 X24.800 Y96.414 E25.0826
G1 X30.200 Y96.414 E25.8010
G1 X30.200 Y97.747 E25.9784
G1 X24.800 Y97.747 E26.6968
G1 X24.800 Y99.081 E26.8742
G1 X30.200 Y99.081 E27.5926
G1 X30.200 Y100.414 E27.7700
G1 X24.800 Y100.414 E28.4884
G1 X24.800 Y101.747 E28.6658
G1 X30.200 Y101.747 E29.3842
G1 X30.200 Y103.081 E29.5616
G1 X24.800 Y103.081 E30.2800
G1 X24.800 Y104.414 E30.4574
G1 X30.200 Y104.414 E31.1758
G1 X30.200 Y105.747 E31.3532
G1 X24.800 Y105.747 E32.0716
G1 X24.800 Y107.081 E32.2490
G1 X30.200 Y107.081 E32.9674
G1 X30.200 Y108.414 E33.1448
G1 X24.800 Y108.414 E33.8633
G1 X24.800 Y109.747 E34.0406
G1 X30.200 Y109.747 E34.7591
G1 X30.200 Y111.081 E34.9364
G1 X24.800 Y111.081 E35.6549
G1 X24.800 Y112.414 E35.8323
G1 X30.200 Y112.414 E36.5507
G1 X30.200 Y113.747 E36.7281
G1 X24.800 Y113.747 E37.4465
G1 X24.800 Y115.081 E37.6239
G1 X30.200 Y115.081 E38.3423
G1 X30.200 Y116.414 E38.5197
G1 X24.800 Y116.414 E39.2381
G1 X24.800 Y117.747 E39.4155
G1 X30.200 Y117.747 E40.1339
G1 X30.200 Y119.081 E40.3113
G1 X24.800 Y119.081 E41.0297
G1 X24.800 Y120.414 E41.2071
G1 X30.200 Y120.414 E41.9255
G1 X30.200 Y121.747 E42.1029
G1 X24.800 Y121.747 E42.8213
G1 X24.800 Y123.081 E42.9987
G1 X30.200 Y123.081 E43.7171
G1 X30.200 Y124.414 E43.8945
G1 X24.800 Y124.414 E44.6129
G1 X24.800 Y125.747 E44.7903
G1 X30.200 Y125.747 E45.5087
G1 X30.200 Y127.081 E45.6861
G1 X24.800 Y127.081 E46.4045
G1 X24.800 Y128.414 E46.5819
G1 X30.200 Y128.414 E47.3003
G1 X30.200 Y129.747 E47.4777
G1 X24.800 Y129.747 E48.1962
G1 X24.800 Y131.081 E48.3735
G1 X30.200 Y131.081 E49.0920
G1 X30.200 Y132.414 E49.2693
G1 X24.800 Y132.414 E49.9878
G1 X24.800 Y133.747 E50.1652
G1 X30.200 Y133.747 E50.8836
G1 X30.200 Y135.081 E51.0610
G1 X24.800 Y135.081 E51.7794
G1 X24.800 Y136.414 E51.9568
G1 X30.200 Y136.414 E52.6752
G1 X30.200 Y137.747 E52.8526
G1 X24.800 Y137.747 E53.5710
G1 X24.800 Y139.081 E53.7484
G1 X30.200 Y139.081 E54.4668
G1 X30.200 Y140.414 E54.6442
G1 X24.800 Y140.414 E55.3626
G1 X24.800 Y141.747 E55.5400
G1 X30.200 Y141.747 E56.2584
G1 X30.200 Y143.081 E56.4358
G1 X24.800 Y143.081 E57.1542
G1 X24.800 Y144.414 E57.3316
G1 X30.200 Y144.414 E58.0500
G1 X30.200 Y145.747 E58.2274
G1 X24.800 Y145.747 E58.9458
G1 X24.800 Y147.081 E59.1232
G1 X30.200 Y147.081 E59.8416
G1 X30.200 Y148.414 E60.0190
G1 X24.800 Y148.414 E60.7374
G1 X24.800 Y149.747 E60.9148
G1 X30.200 Y149.747 E61.6332
G1 X30.200 Y151.081 E61.8106
G1 X24.800 Y151.081 E62.5291
G1 X24.800 Y152.414 E62.7064
G1 X30.200 Y152.414 E63.4249
G1 X30.200 Y153.747 E63.6022
G1 X24.800 Y153.747 E64.3207
G1 X24.800 Y155.081 E64.4981
G1 X30.200 Y155.081 E65.2165
G1 X30.200 Y156.414 E65.3939
G1 X24.800 Y156.414 E66.1123
G1 X24.800 Y157.747 E66.2897
G1 X30.200 Y157.747 E67.0081
G1 X30.200 Y159.081 E67.1855
G1 X24.800 Y159.081 E67.9039
G1 X24.800 Y160.414 E68.0813
G1 X30.200 Y160.414 E68.7997
G1 X30.200 Y161.747 E68.9771
G1 X24.800 Y161.747 E69.6955
G1 X24.800 Y163.081 E69.8729
G1 X30.200 Y163.081 E70.5913
G1 X30.200 Y164.414 E70.7687
G1 X24.800 Y164.414 E71.4871
G1 X24.800 Y165.747 E71.6645
G1 X30.200 Y165.747 E72.3829
G1 X30.200 Y167.081 E72.5603
G1 X24.800 Y167.081 E73.2787
G1 X24.800 Y168.414 E73.4561
G1 X30.200 Y168.414 E74.1745
G1 X30.200 Y169.747 E74.3519
G1 X24.800 Y169.747 E75.0703
G1 X24.800 Y171.081 E75.2477
G1 X30.200 Y171.081 E75.9661
G1 X30.200 Y172.414 E76.1435
G1 X24.800 Y172.414 E76.8620
G1 X24.800 Y173.747 E77.0393
G1 X30.200 Y173.747 E77.7578
G1 X30.200 Y175.081 E77.9351
G1 X24.800 Y175.081 E78.6536
G1 X24.800 Y176.414 E78.8310
G1 X30.200 Y176.414 E79.5494
G1 X30.200 Y177.747 E79.7268
G1 X24.800 Y177.747 E80.4452
G1 X24.800 Y179.081 E80.6226
G1 X30.200 Y179.081 E81.3410
G1 X30.200 Y180.414 E81.5184
G1 X24.800 Y180.414 E82.2368
G1 X24.800 Y181.747 E82.4142
G1 X30.200 Y181.747 E83.1326
G1 X30.200 Y183.081 E83.3100
G1 X24.800 Y183.081 E84.0284
G1 X24.800 Y184.414 E84.2058
G1 X30.200 Y184.414 E84.9242
G1 X30.200 Y185.747 E85.1016
G1 X24.800 Y185.747 E85.8200
G1 X24.800 Y187.081 E85.9974
G1 X30.200 Y187.081 E86.7158
G1 X30.200 Y188.414 E86.8932
G1 X24.800 Y188.414 E87.6116
G1 X24.800 Y189.747 E87.7890
G1 X30.200 Y189.747 E88.5074
G1 X30.200 Y191.081 E88.6848
G1 X24.800 Y191.081 E89.4032
G1 X24.800 Y192.414 E89.5806
G1 X30.200 Y192.414 E90.2991
G1 X30.200 Y193.747 E90.4764
G1 X24.800 Y193.747 E91.1949
G1 X24.800 Y195.081 E91.3722
G1 X30.200 Y195.081 E92.0907
G1 X30.200 Y196.414 E92.2681
G1 X24.800 Y196.414 E92.9865
G1 X24.800 Y197.747 E93.1639
G1 X30.200 Y197.747 E93.8823
G1 X30.200 Y199.081 E94.0597
G1 X24.800 Y199.081 E94.7781
G1 X24.800 Y200.414 E94.9555
G1 X30.200 Y200.414 E95.6739
G1 X30.200 Y201.747 E95.8513
G1 X24.800 Y201.747 E96.5697
G1 X24.800 Y203.081 E96.7471
G1 X30.200 Y203.081 E97.4655
G1 X30.200 Y204.414 E97.6429
G1 X24.800 Y204.414 E98.3613
G1 X24.800 Y205.747 E98.5387
G1 X30.200 Y205.747 E99.2571
G1 X30.200 Y207.081 E99.4345
G1 X24.800 Y207.081 E100.1529
G1 X24.800 Y208.414 E100.3303
G1 X30.200 Y208.414 E101.0487
G1 X30.200 Y209.747 E101.2261
G1 X24.800 Y209.747 E101.9445
G1 X24.800 Y211.081 E102.1219
G1 X30.200 Y211.081 E102.8403
G1 X30.200 Y212.414 E103.0177
G1 X24.800 Y212.414 E103.7361
G1 X24.800 Y213.747 E103.9135
G1 X30.200 Y213.747 E104.6320
G1 X30.200 Y215.081 E104.8093
G1 X24.800 Y215.081 E105.5278
G1 X24.800 Y216.414 E105.7051
G1 X30.200 Y216.414 E106.4236
G1 X30.200 Y217.747 E106.6010
G1 X24.800 Y217.747 E107.3194
G1 X24.800 Y219.081 E107.4968
G1 X30.200 Y219.081 E108.2152
G1 X30.200 Y220.414 E108.3926
G1 X24.800 Y220.414 E109.1110
G1 X24.800 Y221.747 E109.2884
G1 X30.200 Y221.747 E110.0068
G1 X30.200 Y223.081 E110.1842
G1 X24.800 Y223.081 E110.9026
G1 X24.800 Y224.414 E111.0800
G1 X30.200 Y224.414 E111.7984
G1 X30.200 Y225.747 E111.9758
G1 X24.800 Y225.747 E112.6942
G1 X24.800 Y227.081 E112.8716
G1 X30.200 Y227.081 E113.5900
G1 X30.200 Y228.414 E113.7674
G1 X24.800 Y228.414 E114.4858
G1 X24.800 Y229.747 E114.6632
G1 X30.200 Y229.747 E115.3816
G1 X30.200 Y231.081 E115.5590
G1 X24.800 Y231.081 E116.2774
G1 X24.800 Y232.414 E116.4548
G1 X30.200 Y232.414 E117.1732
G1 X30.200 Y233.747 E117.3506
G1 X24.800 Y233.747 E118.0690
G1 X24.800 Y235.081 E118.2464
G1 X30.200 Y235.081 E118.9649
G1 X30.200 Y236.414 E119.1422
G1 X24.800 Y236.414 E119.8607
G1 X24.800 Y237.747 E120.0380
G1 X30.200 Y237.747 E120.7565
G1 X30.200 Y239.081 E120.9339
G1 X24.800 Y239.081 E121.6523
G1 X24.800 Y240.414 E121.8297
G1 X30.200 Y240.414 E122.5481
G1 X30.200 Y241.747 E122.7255
G1 X24.800 Y241.747 E123.4439
G1 X24.800 Y243.081 E123.6213
G1 X30.200 Y243.081 E124.3397
G1 X30.200 Y244.414 E124.5171
G1 X24.800 Y244.414 E125.2355
G1 X24.800 Y245.747 E125.4129
G1 X30.200 Y245.747 E126.1313
G1 X30.200 Y247.081 E126.3087
G1 X24.800 Y247.081 E127.0271
G1 X24.800 Y248.414 E127.2045
G1 X30.200 Y248.414 E127.9229
G1 X30.200 Y249.747 E128.1003
G1 X24.800 Y249.747 E128.8187
G1 X24.800 Y251.081 E128.9961
G1 X30.200 Y251.081 E129.7145
G1 X30.200 Y252.414 E129.8919
G1 X24.800 Y252.414 E130.6103
G1 X24.800 Y253.747 E130.7877
G1 X30.200 Y253.747 E131.5061
G1 X30.200 Y255.081 E131.6835
G1 X24.800 Y255.081 E132.4019
G1 X24.800 Y256.414 E132.5793
G1 X30.200 Y256.414 E133.2978
G92 E0.0000
G1 E-4.4000 F1200
; feature outer perimeter
G1 X30.600 Y256.420 F5000
G1 X30.600 Y256.977
G1 X66.067 Y256.977
G1 E0.0000 F1200
G92 E0.0000
G1 X66.067 Y58.517 E26.4032 F1200
G1 X72.267 Y58.517 E27.2281
G1 X72.267 Y256.977 E53.6313
G1 X66.067 Y256.977 E54.4562
G92 E0.0000
G1 E-4.4000 F1200
; feature infill
G1 X71.867 Y256.414 F5000
G1 E0.0000 F1200
G92 E0.0000
G1 X66.467 Y256.414 E0.7184 F1200
G1 X66.467 Y255.081 E0.8958
G1 X71.867 Y255.081 E1.6142
G1 X71.867 Y253.747 E1.7916
G1 X66.467 Y253.747 E2.5100
G1 X66.467 Y252.414 E2.6874
G1 X71.867 Y252.414 E3.4058
G1 X71.867 Y251.081 E3.5832
G1 X66.467 Y251.081 E4.3016
G1 X66.467 Y249.747 E4.4790
G1 X71.867 Y249.747 E5.1975
G1 X71.867 Y248.414 E5.3748
G1 X66.467 Y248.414 E6.0933
G1 X66.467 Y247.081 E6.2706
G1 X71.867 Y247.081 E6.9891
G1 X71.867 Y245.747 E7.1665
