; G-Code generated by Simplify3D(R) Version 4.1.2
; Jul 24, 2021 at 3:44:39 PM
; Settings Summary
;   processName,pre
;   applyToModels,pre_extrude
;   profileName,test
;   profileVersion,2021-07-17 18:16:24
;   baseProfile,BigRep ONE - Standard Extruder 1mm
;   printMaterial,PLA - T0 Only
;   printQuality,0.6 mm Layer Height - Quality
;   printExtruders,
;   extruderName,T0 - Left Extruder,T1 - Right Extruder
;   extruderToolheadNumber,0,1
;   extruderDiameter,1,1
;   extruderAutoWidth,1,1
;   extruderWidth,1.2,1.2
;   extrusionMultiplier,1,1
;   extruderUseRetract,1,1
;   extruderRetractionDistance,1,1
;   extruderExtraRestartDistance,0,0
;   extruderRetractionZLift,0.8,0.8
;   extruderRetractionSpeed,1800,1800
;   extruderUseCoasting,0,0
;   extruderCoastingDistance,0.2,0.2
;   extruderUseWipe,0,0
;   extruderWipeDistance,5,5
;   primaryExtruder,0
;   layerHeight,0.2
;   topSolidLayers,0
;   bottomSolidLayers,0
;   perimeterOutlines,1
;   printPerimetersInsideOut,1
;   startPointOption,2
;   startPointOriginX,0
;   startPointOriginY,0
;   sequentialIslands,1
;   spiralVaseMode,0
;   firstLayerHeightPercentage,100
;   firstLayerWidthPercentage,100
;   firstLayerUnderspeed,0.4
;   useRaft,0
;   raftExtruder,0
;   raftTopLayers,1
;   raftBaseLayers,2
;   raftOffset,3
;   raftSeparationDistance,0.14
;   raftTopInfill,100
;   aboveRaftSpeedMultiplier,0.3
;   useSkirt,0
;   skirtExtruder,0
;   skirtLayers,1
;   skirtOutlines,2
;   skirtOffset,5
;   usePrimePillar,0
;   primePillarExtruder,0
;   primePillarWidth,45
;   primePillarLocation,5
;   primePillarSpeedMultiplier,1
;   useOozeShield,0
;   oozeShieldExtruder,999
;   oozeShieldOffset,2
;   oozeShieldOutlines,1
;   oozeShieldSidewallShape,1
;   oozeShieldSidewallAngle,30
;   oozeShieldSpeedMultiplier,1
;   infillExtruder,0
;   internalInfillPattern,Grid
;   externalInfillPattern,Rectilinear
;   infillPercentage,0
;   outlineOverlapPercentage,90
;   infillExtrusionWidthPercentage,100
;   minInfillLength,0.1
;   infillLayerInterval,1
;   internalInfillAngles,0
;   overlapInternalInfillAngles,1
;   externalInfillAngles,45,-45
;   generateSupport,0
;   supportExtruder,0
;   supportInfillPercentage,15
;   supportExtraInflation,1.5
;   supportBaseLayers,1
;   denseSupportExtruder,0
;   denseSupportLayers,4
;   denseSupportInfillPercentage,80
;   supportLayerInterval,1
;   supportHorizontalPartOffset,1
;   supportUpperSeparationLayers,1
;   supportLowerSeparationLayers,1
;   supportType,0
;   supportGridSpacing,2
;   maxOverhangAngle,55
;   supportAngles,45
;   temperatureName,T0 - Printing Temperature,T1 - Printing Temperature,Fan T0,Fan T1,T0 - Standby Temperature,T1 - Standby Temperature
;   temperatureNumber,0,1,4,5,2,3
;   temperatureSetpointCount,1,1,2,2,1,1
;   temperatureSetpointLayers,1,1,1,2,1,2,1,1
;   temperatureSetpointTemperatures,205,205,0,255,0,255,185,185
;   temperatureStabilizeAtStartup,0,0,0,0,0,0
;   temperatureHeatedBed,0,0,0,0,0,0
;   fanLayers,1,2
;   fanSpeeds,0,100
;   blipFanToFullPower,0
;   adjustSpeedForCooling,0
;   minSpeedLayerTime,7.5
;   minCoolingSpeedSlowdown,25
;   increaseFanForCooling,0
;   minFanLayerTime,45
;   maxCoolingFanSpeed,100
;   increaseFanForBridging,0
;   bridgingFanSpeed,100
;   use5D,1
;   relativeEdistances,0
;   allowEaxisZeroing,1
;   independentExtruderAxes,0
;   includeM10123,0
;   stickySupport,1
;   applyToolheadOffsets,0
;   gcodeXoffset,0
;   gcodeYoffset,0
;   gcodeZoffset,0
;   overrideMachineDefinition,1
;   machineTypeOverride,0
;   strokeXoverride,1005
;   strokeYoverride,1005
;   strokeZoverride,1005
;   originOffsetXoverride,0
;   originOffsetYoverride,0
;   originOffsetZoverride,0
;   homeXdirOverride,-1
;   homeYdirOverride,-1
;   homeZdirOverride,-1
;   flipXoverride,1
;   flipYoverride,-1
;   flipZoverride,1
;   toolheadOffsets,0,0|0,0|0,0|0,0|0,0|0,0
;   overrideFirmwareConfiguration,0
;   firmwareTypeOverride,RepRap (Marlin/Repetier/Sprinter)
;   GPXconfigOverride,r2
;   baudRateOverride,115200
;   overridePrinterModels,0
;   printerModelsOverride
;   startingGcode,; 02.2019 - BigRep ONE Standard Extruder - PLA - 1 mm nozzle,M800,,M104 S[extruder0_temperature] H0,M104 S0 H1,M109 S[extruder0_temperature] H0,;M109 S[extruder1_temperature] H1,,T0,G28 ; home all axes,,T1 ; solve firmware bug,G92 E0 ; solve firmware bug,,T0 ; solve firmware bug,G92 E0 ; solve firmware bug
;   layerChangeGcode,
;   retractionGcode,
;   toolChangeGcode,
;   endingGcode,G92 E0,G1 E-5.0000 F1800 ; Reatract Filament,G91,G1 Z10 F4000 ; Lift Extruders,G90,G1 X5 F40000,G1 Y1000 F40000,T0,M104 S0 H0 ; turn off T0,M104 S0 H1 ; turn off T1,M107 P0,M107 P1,M140 S0 ; turn off bed,M84 ; disable motors,M801
;   exportFileFormat,gcode
;   celebration,0
;   celebrationSong,Star Wars
;   postProcessing,|{REPLACE "T2" "H2"}|{REPLACE "T3" "H3"}|{REPLACE "T4" "H4"}|{REPLACE "T5" "H5"}|{APPEND "\n\n;Zzzzz       /\     _,,,--,,_        \n;           /,`.-'`'   ._  \-;;,_    \n;          /,4-  ) )_   .;.(  `'-'   \n;         '---''(_/._)-'(_\_)        \n; This is Eve. Eve helped creating this gcode. But now she is tired and need some rest."}
;   defaultSpeed,5000
;   outlineUnderspeed,0.6
;   solidInfillUnderspeed,1
;   supportUnderspeed,1
;   rapidXYspeed,5000
;   rapidZspeed,1000
;   minBridgingArea,50
;   bridgingExtraInflation,1
;   bridgingExtrusionMultiplier,1
;   bridgingSpeedMultiplier,0.2
;   useFixedBridgingAngle,0
;   fixedBridgingAngle,0
;   applyBridgingToPerimeters,0
;   filamentDiameters,2.85|2.85|2.85|2.85|2.85|2.85
;   filamentPricesPerKg,28.12|28.125|28.125|28.125|28.125|28.125
;   filamentDensities,1.24|1.24|1.24|1.24|1.24|1.24
;   useMinPrintHeight,0
;   minPrintHeight,0
;   useMaxPrintHeight,0
;   maxPrintHeight,0
;   useDiaphragm,0
;   diaphragmLayerInterval,20
;   robustSlicing,1
;   mergeAllIntoSolid,0
;   onlyRetractWhenCrossingOutline,0
;   retractBetweenLayers,0
;   useRetractionMinTravel,1
;   retractionMinTravel,5
;   retractWhileWiping,1
;   onlyWipeOutlines,0
;   avoidCrossingOutline,0
;   maxMovementDetourFactor,3
;   toolChangeRetractionDistance,20
;   toolChangeExtraRestartDistance,0
;   toolChangeRetractionSpeed,1200
;   externalThinWallType,0
;   internalThinWallType,1
;   thinWallAllowedOverlapPercentage,5
;   singleExtrusionMinLength,1
;   singleExtrusionMinPrintingWidthPercentage,50
;   singleExtrusionMaxPrintingWidthPercentage,200
;   singleExtrusionEndpointExtension,0
;   horizontalSizeCompensation,0
G90
M82
M106 S0
; 02.2019 - BigRep ONE Standard Extruder - PLA - 1 mm nozzle
M800
M104 S205 H0
M104 S0 H1
M109 S205 H0
;M109 S205 H1
T0
G28 ; home all axes
T1 ; solve firmware bug
G92 E0 ; solve firmware bug
T0 ; solve firmware bug
G92 E0 ; solve firmware bug
; process pre
; layer 1, Z = 0.200
T0
G92 E0.0000
G1 E-1.0000 F1800
; feature outer perimeter
; tool H0.200 W1.200
G1 Z0.800 F1000
G1 X412.927 Y230.539 F5000
G1 Z0.200 F1000
G1 E0.0000 F1800
G92 E0.0000
G1 X692.243 Y230.539 E10.5082 F1200
G1 X692.243 Y766.166 E30.6591
G1 X412.927 Y766.166 E41.1673
G1 X412.927 Y230.539 E61.3182
G1 X413.727 Y231.339 F5000
G92 E0.0000
G1 X413.727 Y765.366 E20.0907 F1200
G1 X691.443 Y765.366 E30.5387
G1 X691.443 Y231.339 E50.6294
G1 X413.727 Y231.339 E61.0774
G92 E0.0000
G1 E-1.0000 F1800
; process dbv
; layer 2, Z = 0.600
; tool H0.600 W1.200
G1 Z1.000 F1000
G1 X428.833 Y510.231 F5000
G1 Z0.600 F1000
G1 E0.0000 F1800
G92 E0.0000
G1 X437.633 Y510.231 E0.9932 F2000
G1 X437.633 Y759.031 E29.0736
G1 X428.833 Y759.031 E30.0668
G1 X428.833 Y510.231 E58.1472
; feature infill
G1 X428.953 Y510.500 F5000
G92 E0.0000
G1 X437.513 Y510.500 E0.9661 F2500
G1 X437.513 Y512.500 E1.1918
G1 X428.953 Y512.500 E2.1579
G1 X428.953 Y514.500 E2.3837
G1 X437.513 Y514.500 E3.3498
G1 X437.513 Y516.500 E3.5755
G1 X428.953 Y516.500 E4.5416
G1 X428.953 Y518.500 E4.7673
G1 X437.513 Y518.500 E5.7335
G1 X437.513 Y520.500 E5.9592
G1 X428.953 Y520.500 E6.9253
G1 X428.953 Y522.500 E7.1510
G1 X437.513 Y522.500 E8.1171
G1 X437.513 Y524.500 E8.3429
G1 X428.953 Y524.500 E9.3090
G1 X428.953 Y526.500 E9.5347
G1 X437.513 Y526.500 E10.5008
G1 X437.513 Y528.500 E10.7265
G1 X428.953 Y528.500 E11.6926
G1 X428.953 Y530.500 E11.9184
G1 X437.513 Y530.500 E12.8845
G1 X437.513 Y532.500 E13.1102
G1 X428.953 Y532.500 E14.0763
G1 X428.953 Y534.500 E14.3020
G1 X437.513 Y534.500 E15.2682
G1 X437.513 Y536.500 E15.4939
G1 X428.953 Y536.500 E16.4600
G1 X428.953 Y538.500 E16.6857
G1 X437.513 Y538.500 E17.6518
G1 X437.513 Y540.500 E17.8776
G1 X428.953 Y540.500 E18.8437
G1 X428.953 Y542.500 E19.0694
G1 X437.513 Y542.500 E20.0355
G1 X437.513 Y544.500 E20.2612
G1 X428.953 Y544.500 E21.2273
G1 X428.953 Y546.500 E21.4531
G1 X437.513 Y546.500 E22.4192
G1 X437.513 Y548.500 E22.6449
G1 X428.953 Y548.500 E23.6110
G1 X428.953 Y550.500 E23.8367
G1 X437.513 Y550.500 E24.8028
G1 X437.513 Y552.500 E25.0286
G1 X428.953 Y552.500 E25.9947
G1 X428.953 Y554.500 E26.2204
G1 X437.513 Y554.500 E27.1865
G1 X437.513 Y556.500 E27.4122
G1 X428.953 Y556.500 E28.3784
G1 X428.953 Y558.500 E28.6041
G1 X437.513 Y558.500 E29.5702
G1 X437.513 Y560.500 E29.7959
G1 X428.953 Y560.500 E30.7620
G1 X428.953 Y562.500 E30.9878
G1 X437.513 Y562.500 E31.9539
G1 X437.513 Y564.500 E32.1796
G1 X428.953 Y564.500 E33.1457
G1 X428.953 Y566.500 E33.3714
G1 X437.513 Y566.500 E34.3375
G1 X437.513 Y568.500 E34.5633
G1 X428.953 Y568.500 E35.5294
G1 X428.953 Y570.500 E35.7551
G1 X437.513 Y570.500 E36.7212
G1 X437.513 Y572.500 E36.9469
G1 X428.953 Y572.500 E37.9131
G1 X428.953 Y574.500 E38.1388
G1 X437.513 Y574.500 E39.1049
G1 X437.513 Y576.500 E39.3306
G1 X428.953 Y576.500 E40.2967
G1 X428.953 Y578.500 E40.5225
G1 X437.513 Y578.500 E41.4886
G1 X437.513 Y580.500 E41.7143
G1 X428.953 Y580.500 E42.6804
G1 X428.953 Y582.500 E42.9061
G1 X437.513 Y582.500 E43.8722
G1 X437.513 Y584.500 E44.0980
G1 X428.953 Y584.500 E45.0641
G1 X428.953 Y586.500 E45.2898
G1 X437.513 Y586.500 E46.2559
G1 X437.513 Y588.500 E46.4816
G1 X428.953 Y588.500 E47.4477
G1 X428.953 Y590.500 E47.6735
G1 X437.513 Y590.500 E48.6396
G1 X437.513 Y592.500 E48.8653
G1 X428.953 Y592.500 E49.8314
G1 X428.953 Y594.500 E50.0572
G1 X437.513 Y594.500 E51.0233
G1 X437.513 Y596.500 E51.2490
G1 X428.953 Y596.500 E52.2151
G1 X428.953 Y598.500 E52.4408
G1 X437.513 Y598.500 E53.4069
G1 X437.513 Y600.500 E53.6327
G1 X428.953 Y600.500 E54.5988
G1 X428.953 Y602.500 E54.8245
G1 X437.513 Y602.500 E55.7906
G1 X437.513 Y604.500 E56.0163
G1 X428.953 Y604.500 E56.9824
G1 X428.953 Y606.500 E57.2082
G1 X437.513 Y606.500 E58.1743
G1 X437.513 Y608.500 E58.4000
G1 X428.953 Y608.500 E59.3661
G1 X428.953 Y610.500 E59.5918
G1 X437.513 Y610.500 E60.5580
G1 X437.513 Y612.500 E60.7837
G1 X428.953 Y612.500 E61.7498
G1 X428.953 Y614.500 E61.9755
G1 X437.513 Y614.500 E62.9416
G1 X437.513 Y616.500 E63.1674
G1 X428.953 Y616.500 E64.1335
G1 X428.953 Y618.500 E64.3592
G1 X437.513 Y618.500 E65.3253
G1 X437.513 Y620.500 E65.5510
G1 X428.953 Y620.500 E66.5171
G1 X428.953 Y622.500 E66.7429
G1 X437.513 Y622.500 E67.7090
G1 X437.513 Y624.500 E67.9347
G1 X428.953 Y624.500 E68.9008
G1 X428.953 Y626.500 E69.1265
G1 X437.513 Y626.500 E70.0927
G1 X437.513 Y628.500 E70.3184
G1 X428.953 Y628.500 E71.2845
G1 X428.953 Y630.500 E71.5102
G1 X437.513 Y630.500 E72.4763
G1 X437.513 Y632.500 E72.7021
G1 X428.953 Y632.500 E73.6682
G1 X428.953 Y634.500 E73.8939
G1 X437.513 Y634.500 E74.8600
G1 X437.513 Y636.500 E75.0857
G1 X428.953 Y636.500 E76.0518
G1 X428.953 Y638.500 E76.2776
G1 X437.513 Y638.500 E77.2437
G1 X437.513 Y640.500 E77.4694
G1 X428.953 Y640.500 E78.4355
G1 X428.953 Y642.500 E78.6612
G1 X437.513 Y642.500 E79.6273
G1 X437.513 Y644.500 E79.8531
G1 X428.953 Y644.500 E80.8192
G1 X428.953 Y646.500 E81.0449
G1 X437.513 Y646.500 E82.0110
G1 X437.513 Y648.500 E82.2367
G1 X428.953 Y648.500 E83.2029
G1 X428.953 Y650.500 E83.4286
G1 X437.513 Y650.500 E84.3947
G1 X437.513 Y652.500 E84.6204
G1 X428.953 Y652.500 E85.5865
G1 X428.953 Y654.500 E85.8123
G1 X437.513 Y654.500 E86.7784
G1 X437.513 Y656.500 E87.0041
G1 X428.953 Y656.500 E87.9702
G1 X428.953 Y658.500 E88.1959
G1 X437.513 Y658.500 E89.1620
G1 X437.513 Y660.500 E89.3878
G1 X428.953 Y660.500 E90.3539
G1 X428.953 Y662.500 E90.5796
G1 X437.513 Y662.500 E91.5457
G1 X437.513 Y664.500 E91.7714
G1 X428.953 Y664.500 E92.7376
G1 X428.953 Y666.500 E92.9633
G1 X437.513 Y666.500 E93.9294
G1 X437.513 Y668.500 E94.1551
G1 X428.953 Y668.500 E95.1212
G1 X428.953 Y670.500 E95.3470
G1 X437.513 Y670.500 E96.3131
G1 X437.513 Y672.500 E96.5388
G1 X428.953 Y672.500 E97.5049
G1 X428.953 Y674.500 E97.7306
G1 X437.513 Y674.500 E98.6967
G1 X437.513 Y676.500 E98.9225
G1 X428.953 Y676.500 E99.8886
G1 X428.953 Y678.500 E100.1143
G1 X437.513 Y678.500 E101.0804
G1 X437.513 Y680.500 E101.3061
G1 X428.953 Y680.500 E102.2722
G1 X428.953 Y682.500 E102.4980
G1 X437.513 Y682.500 E103.4641
G1 X437.513 Y684.500 E103.6898
G1 X428.953 Y684.500 E104.6559
G1 X428.953 Y686.500 E104.8816
G1 X437.513 Y686.500 E105.8478
G1 X437.513 Y688.500 E106.0735
G1 X428.953 Y688.500 E107.0396
G1 X428.953 Y690.500 E107.2653
G1 X437.513 Y690.500 E108.2314
G1 X437.513 Y692.500 E108.4572
G1 X428.953 Y692.500 E109.4233
G1 X428.953 Y694.500 E109.6490
G1 X437.513 Y694.500 E110.6151
G1 X437.513 Y696.500 E110.8408
G1 X428.953 Y696.500 E111.8069
G1 X428.953 Y698.500 E112.0327
G1 X437.513 Y698.500 E112.9988
G1 X437.513 Y700.500 E113.2245
G1 X428.953 Y700.500 E114.1906
G1 X428.953 Y702.500 E114.4163
G1 X437.513 Y702.500 E115.3825
G1 X437.513 Y704.500 E115.6082
G1 X428.953 Y704.500 E116.5743
G1 X428.953 Y706.500 E116.8000
G1 X437.513 Y706.500 E117.7661
G1 X437.513 Y708.500 E117.9919
G1 X428.953 Y708.500 E118.9580
G1 X428.953 Y710.500 E119.1837
G1 X437.513 Y710.500 E120.1498
G1 X437.513 Y712.500 E120.3755
G1 X428.953 Y712.500 E121.3416
G1 X428.953 Y714.500 E121.5674
G1 X437.513 Y714.500 E122.5335
G1 X437.513 Y716.500 E122.7592
G1 X428.953 Y716.500 E123.7253
G1 X428.953 Y718.500 E123.9510
G1 X437.513 Y718.500 E124.9171
G1 X437.513 Y720.500 E125.1429
G1 X428.953 Y720.500 E126.1090
G1 X428.953 Y722.500 E126.3347
G1 X437.513 Y722.500 E127.3008
G1 X437.513 Y724.500 E127.5265
G1 X428.953 Y724.500 E128.4927
G1 X428.953 Y726.500 E128.7184
G1 X437.513 Y726.500 E129.6845
G1 X437.513 Y728.500 E129.9102
G1 X428.953 Y728.500 E130.8763
G1 X428.953 Y730.500 E131.1021
G1 X437.513 Y730.500 E132.0682
G1 X437.513 Y732.500 E132.2939
G1 X428.953 Y732.500 E133.2600
G1 X428.953 Y734.500 E133.4857
G1 X437.513 Y734.500 E134.4518
G1 X437.513 Y736.500 E134.6776
G1 X428.953 Y736.500 E135.6437
G1 X428.953 Y738.500 E135.8694
G1 X437.513 Y738.500 E136.8355
G1 X437.513 Y740.500 E137.0612
G1 X428.953 Y740.500 E138.0274
G1 X428.953 Y742.500 E138.2531
G1 X437.513 Y742.500 E139.2192
G1 X437.513 Y744.500 E139.4449
G1 X428.953 Y744.500 E140.4110
G1 X428.953 Y746.500 E140.6368
G1 X437.513 Y746.500 E141.6029
G1 X437.513 Y748.500 E141.8286
G1 X428.953 Y748.500 E142.7947
G1 X428.953 Y750.500 E143.0204
G1 X437.513 Y750.500 E143.9865
G1 X437.513 Y752.500 E144.2123
G1 X428.953 Y752.500 E145.1784
G1 X428.953 Y754.500 E145.4041
G1 X437.513 Y754.500 E146.3702
G1 X437.513 Y756.500 E146.5959
G1 X428.953 Y756.500 E147.5620
G1 X428.953 Y758.500 E147.7878
G1 X437.513 Y758.500 E148.7539
G92 E0.0000
G1 E-1.0000 F1800
; feature outer perimeter
G1 Z1.400 F1000
G1 X446.115 Y759.031 F5000
G1 Z0.600 F1000
G1 E0.0000 F1800
G92 E0.0000
G1 X446.115 Y510.231 E28.0804 F2000
G1 X456.915 Y510.231 E29.2993
G1 X456.915 Y759.031 E57.3797
G1 X446.115 Y759.031 E58.5987
G92 E0.0000
G1 E-1.0000 F1800
; feature infill
G1 Z1.400 F1000
G1 X456.795 Y758.500 F5000
G1 Z0.600 F1000
G1 E0.0000 F1800
G92 E0.0000
G1 X446.235 Y758.500 E1.1918 F2500
G1 X446.235 Y756.500 E1.4176
G1 X456.795 Y756.500 E2.6094
G1 X456.795 Y754.500 E2.8351
G1 X446.235 Y754.500 E4.0270
G1 X446.235 Y752.500 E4.2527
G1 X456.795 Y752.500 E5.4445
G1 X456.795 Y750.500 E5.6703
G1 X446.235 Y750.500 E6.8621
G1 X446.235 Y748.500 E7.0878
G1 X456.795 Y748.500 E8.2797
G1 X456.795 Y746.500 E8.5054
G1 X446.235 Y746.500 E9.6972
G1 X446.235 Y744.500 E9.9229
G1 X456.795 Y744.500 E11.1148
G1 X456.795 Y742.500 E11.3405
G1 X446.235 Y742.500 E12.5323
