; G-Code generated by Simplify3D(R) Version 4.1.2
; Jul 26, 2021 at 11:57:20 AM
; Settings Summary
;   processName,pre
;   applyToModels,pre_extrude
;   profileName,test
;   profileVersion,2021-07-17 18:16:24
;   baseProfile,BigRep ONE - Standard Extruder 1mm
;   printMaterial,PLA - T0 Only
;   printQuality,0.6 mm Layer Height - Quality
;   printExtruders,
;   extruderName,T0 - Left Extruder,T1 - Right Extruder
;   extruderToolheadNumber,0,1
;   extruderDiameter,1,1
;   extruderAutoWidth,1,1
;   extruderWidth,1.2,1.2
;   extrusionMultiplier,1,1
;   extruderUseRetract,1,1
;   extruderRetractionDistance,1,1
;   extruderExtraRestartDistance,0,0
;   extruderRetractionZLift,0.8,0.8
;   extruderRetractionSpeed,1800,1800
;   extruderUseCoasting,0,0
;   extruderCoastingDistance,0.2,0.2
;   extruderUseWipe,0,0
;   extruderWipeDistance,5,5
;   primaryExtruder,0
;   layerHeight,0.2
;   topSolidLayers,0
;   bottomSolidLayers,0
;   perimeterOutlines,1
;   printPerimetersInsideOut,1
;   startPointOption,2
;   startPointOriginX,0
;   startPointOriginY,0
;   sequentialIslands,1
;   spiralVaseMode,0
;   firstLayerHeightPercentage,100
;   firstLayerWidthPercentage,100
;   firstLayerUnderspeed,0.4
;   useRaft,0
;   raftExtruder,0
;   raftTopLayers,1
;   raftBaseLayers,2
;   raftOffset,3
;   raftSeparationDistance,0.14
;   raftTopInfill,100
;   aboveRaftSpeedMultiplier,0.3
;   useSkirt,0
;   skirtExtruder,0
;   skirtLayers,1
;   skirtOutlines,2
;   skirtOffset,5
;   usePrimePillar,0
;   primePillarExtruder,0
;   primePillarWidth,45
;   primePillarLocation,5
;   primePillarSpeedMultiplier,1
;   useOozeShield,0
;   oozeShieldExtruder,999
;   oozeShieldOffset,2
;   oozeShieldOutlines,1
;   oozeShieldSidewallShape,1
;   oozeShieldSidewallAngle,30
;   oozeShieldSpeedMultiplier,1
;   infillExtruder,0
;   internalInfillPattern,Grid
;   externalInfillPattern,Rectilinear
;   infillPercentage,0
;   outlineOverlapPercentage,90
;   infillExtrusionWidthPercentage,100
;   minInfillLength,0.1
;   infillLayerInterval,1
;   internalInfillAngles,0
;   overlapInternalInfillAngles,1
;   externalInfillAngles,45,-45
;   generateSupport,0
;   supportExtruder,0
;   supportInfillPercentage,15
;   supportExtraInflation,1.5
;   supportBaseLayers,1
;   denseSupportExtruder,0
;   denseSupportLayers,4
;   denseSupportInfillPercentage,80
;   supportLayerInterval,1
;   supportHorizontalPartOffset,1
;   supportUpperSeparationLayers,1
;   supportLowerSeparationLayers,1
;   supportType,0
;   supportGridSpacing,2
;   maxOverhangAngle,55
;   supportAngles,45
;   temperatureName,T0 - Printing Temperature,T1 - Printing Temperature,Fan T0,Fan T1,T0 - Standby Temperature,T1 - Standby Temperature
;   temperatureNumber,0,1,4,5,2,3
;   temperatureSetpointCount,1,1,2,2,1,1
;   temperatureSetpointLayers,1,1,1,2,1,2,1,1
;   temperatureSetpointTemperatures,205,205,0,255,0,255,185,185
;   temperatureStabilizeAtStartup,0,0,0,0,0,0
;   temperatureHeatedBed,0,0,0,0,0,0
;   fanLayers,1,2
;   fanSpeeds,0,100
;   blipFanToFullPower,0
;   adjustSpeedForCooling,0
;   minSpeedLayerTime,7.5
;   minCoolingSpeedSlowdown,25
;   increaseFanForCooling,0
;   minFanLayerTime,45
;   maxCoolingFanSpeed,100
;   increaseFanForBridging,0
;   bridgingFanSpeed,100
;   use5D,1
;   relativeEdistances,0
;   allowEaxisZeroing,1
;   independentExtruderAxes,0
;   includeM10123,0
;   stickySupport,1
;   applyToolheadOffsets,0
;   gcodeXoffset,0
;   gcodeYoffset,0
;   gcodeZoffset,0
;   overrideMachineDefinition,1
;   machineTypeOverride,0
;   strokeXoverride,1005
;   strokeYoverride,1005
;   strokeZoverride,1005
;   originOffsetXoverride,0
;   originOffsetYoverride,0
;   originOffsetZoverride,0
;   homeXdirOverride,-1
;   homeYdirOverride,-1
;   homeZdirOverride,-1
;   flipXoverride,1
;   flipYoverride,-1
;   flipZoverride,1
;   toolheadOffsets,0,0|0,0|0,0|0,0|0,0|0,0
;   overrideFirmwareConfiguration,0
;   firmwareTypeOverride,RepRap (Marlin/Repetier/Sprinter)
;   GPXconfigOverride,r2
;   baudRateOverride,115200
;   overridePrinterModels,0
;   printerModelsOverride
;   startingGcode,; 02.2019 - BigRep ONE Standard Extruder - PLA - 1 mm nozzle,M800,,M104 S[extruder0_temperature] H0,M104 S0 H1,M109 S[extruder0_temperature] H0,;M109 S[extruder1_temperature] H1,,T0,G28 ; home all axes,,T1 ; solve firmware bug,G92 E0 ; solve firmware bug,,T0 ; solve firmware bug,G92 E0 ; solve firmware bug
;   layerChangeGcode,
;   retractionGcode,
;   toolChangeGcode,
;   endingGcode,G92 E0,G1 E-5.0000 F1800 ; Reatract Filament,G91,G1 Z10 F4000 ; Lift Extruders,G90,G1 X5 F40000,G1 Y1000 F40000,T0,M104 S0 H0 ; turn off T0,M104 S0 H1 ; turn off T1,M107 P0,M107 P1,M140 S0 ; turn off bed,M84 ; disable motors,M801
;   exportFileFormat,gcode
;   celebration,0
;   celebrationSong,Star Wars
;   postProcessing,|{REPLACE "T2" "H2"}|{REPLACE "T3" "H3"}|{REPLACE "T4" "H4"}|{REPLACE "T5" "H5"}|{APPEND "\n\n;Zzzzz       /\     _,,,--,,_        \n;           /,`.-'`'   ._  \-;;,_    \n;          /,4-  ) )_   .;.(  `'-'   \n;         '---''(_/._)-'(_\_)        \n; This is Eve. Eve helped creating this gcode. But now she is tired and need some rest."}
;   defaultSpeed,5000
;   outlineUnderspeed,0.6
;   solidInfillUnderspeed,1
;   supportUnderspeed,1
;   rapidXYspeed,5000
;   rapidZspeed,1000
;   minBridgingArea,50
;   bridgingExtraInflation,1
;   bridgingExtrusionMultiplier,1
;   bridgingSpeedMultiplier,0.2
;   useFixedBridgingAngle,0
;   fixedBridgingAngle,0
;   applyBridgingToPerimeters,0
;   filamentDiameters,2.85|2.85|2.85|2.85|2.85|2.85
;   filamentPricesPerKg,28.12|28.125|28.125|28.125|28.125|28.125
;   filamentDensities,1.24|1.24|1.24|1.24|1.24|1.24
;   useMinPrintHeight,0
;   minPrintHeight,0
;   useMaxPrintHeight,0
;   maxPrintHeight,0
;   useDiaphragm,0
;   diaphragmLayerInterval,20
;   robustSlicing,1
;   mergeAllIntoSolid,0
;   onlyRetractWhenCrossingOutline,0
;   retractBetweenLayers,0
;   useRetractionMinTravel,1
;   retractionMinTravel,5
;   retractWhileWiping,1
;   onlyWipeOutlines,0
;   avoidCrossingOutline,0
;   maxMovementDetourFactor,3
;   toolChangeRetractionDistance,20
;   toolChangeExtraRestartDistance,0
;   toolChangeRetractionSpeed,1200
;   externalThinWallType,0
;   internalThinWallType,1
;   thinWallAllowedOverlapPercentage,5
;   singleExtrusionMinLength,1
;   singleExtrusionMinPrintingWidthPercentage,50
;   singleExtrusionMaxPrintingWidthPercentage,200
;   singleExtrusionEndpointExtension,0
;   horizontalSizeCompensation,0
G90
M82
M106 S0
; 02.2019 - BigRep ONE Standard Extruder - PLA - 1 mm nozzle
M800
M104 S205 H0
M104 S0 H1
M109 S205 H0
;M109 S205 H1
T0
G28 ; home all axes
T1 ; solve firmware bug
G92 E0 ; solve firmware bug
T0 ; solve firmware bug
G92 E0 ; solve firmware bug
; process pre
; layer 1, Z = 0.200
T0
G92 E0.0000
G1 E-1.0000 F1800
; feature outer perimeter
; tool H0.200 W1.200
G1 Z0.800 F1000
G1 X362.547 Y232.539 F5000
G1 Z0.200 F1000
G1 E0.0000 F1800
G92 E0.0000
G1 X641.863 Y232.539 E10.5082 F1200
G1 X641.863 Y768.166 E30.6591
G1 X362.547 Y768.166 E41.1673
G1 X362.547 Y232.539 E61.3181
G1 X363.347 Y233.339 F5000
G92 E0.0000
G1 X363.347 Y767.366 E20.0907 F1200
G1 X641.063 Y767.366 E30.5387
G1 X641.063 Y233.339 E50.6294
G1 X363.347 Y233.339 E61.0774
G92 E0.0000
G1 E-1.0000 F1800
; process dbv_1
; layer 2, Z = 0.600
; tool H0.600 W1.200
G1 Z1.000 F1000
G1 X371.100 Y286.470 F5000
G1 Z0.600 F1000
G1 E0.0000 F1800
G92 E0.0000
G1 X383.900 Y286.470 E1.4447 F2000
G1 X383.900 Y478.790 E23.1505
G1 X371.100 Y478.790 E24.5952
G1 X371.100 Y286.470 E46.3011
; feature infill
G1 X371.220 Y286.630 F5000
G92 E0.0000
G1 X383.780 Y286.630 E1.4176 F2500
G1 X383.780 Y288.630 E1.6433
G1 X371.220 Y288.630 E3.0609
G1 X371.220 Y290.630 E3.2866
G1 X383.780 Y290.630 E4.7041
G1 X383.780 Y292.630 E4.9299
G1 X371.220 Y292.630 E6.3474
G1 X371.220 Y294.630 E6.5732
G1 X383.780 Y294.630 E7.9907
G1 X383.780 Y296.630 E8.2165
G1 X371.220 Y296.630 E9.6340
G1 X371.220 Y298.630 E9.8597
G1 X383.780 Y298.630 E11.2773
G1 X383.780 Y300.630 E11.5030
G1 X371.220 Y300.630 E12.9206
G1 X371.220 Y302.630 E13.1463
G1 X383.780 Y302.630 E14.5639
G1 X383.780 Y304.630 E14.7896
G1 X371.220 Y304.630 E16.2072
G1 X371.220 Y306.630 E16.4329
G1 X383.780 Y306.630 E17.8505
G1 X383.780 Y308.630 E18.0762
G1 X371.220 Y308.630 E19.4938
G1 X371.220 Y310.630 E19.7195
G1 X383.780 Y310.630 E21.1370
G1 X383.780 Y312.630 E21.3628
G1 X371.220 Y312.630 E22.7803
G1 X371.220 Y314.630 E23.0061
G1 X383.780 Y314.630 E24.4236
G1 X383.780 Y316.630 E24.6494
G1 X371.220 Y316.630 E26.0669
G1 X371.220 Y318.630 E26.2926
G1 X383.780 Y318.630 E27.7102
G1 X383.780 Y320.630 E27.9359
G1 X371.220 Y320.630 E29.3535
G1 X371.220 Y322.630 E29.5792
G1 X383.780 Y322.630 E30.9968
G1 X383.780 Y324.630 E31.2225
G1 X371.220 Y324.630 E32.6401
G1 X371.220 Y326.630 E32.8658
G1 X383.780 Y326.630 E34.2834
G1 X383.780 Y328.630 E34.5091
G1 X371.220 Y328.630 E35.9267
G1 X371.220 Y330.630 E36.1524
G1 X383.780 Y330.630 E37.5699
G1 X383.780 Y332.630 E37.7957
G1 X371.220 Y332.630 E39.2132
G1 X371.220 Y334.630 E39.4390
G1 X383.780 Y334.630 E40.8565
G1 X383.780 Y336.630 E41.0823
G1 X371.220 Y336.630 E42.4998
G1 X371.220 Y338.630 E42.7255
G1 X383.780 Y338.630 E44.1431
G1 X383.780 Y340.630 E44.3688
G1 X371.220 Y340.630 E45.7864
G1 X371.220 Y342.630 E46.0121
G1 X383.780 Y342.630 E47.4297
G1 X383.780 Y344.630 E47.6554
G1 X371.220 Y344.630 E49.0730
G1 X371.220 Y346.630 E49.2987
G1 X383.780 Y346.630 E50.7163
G1 X383.780 Y348.630 E50.9420
G1 X371.220 Y348.630 E52.3596
G1 X371.220 Y350.630 E52.5853
G1 X383.780 Y350.630 E54.0029
G1 X383.780 Y352.630 E54.2286
G1 X371.220 Y352.630 E55.6461
G1 X371.220 Y354.630 E55.8719
G1 X383.780 Y354.630 E57.2894
G1 X383.780 Y356.630 E57.5152
G1 X371.220 Y356.630 E58.9327
G1 X371.220 Y358.630 E59.1585
G1 X383.780 Y358.630 E60.5760
G1 X383.780 Y360.630 E60.8017
G1 X371.220 Y360.630 E62.2193
G1 X371.220 Y362.630 E62.4450
G1 X383.780 Y362.630 E63.8626
G1 X383.780 Y364.630 E64.0883
G1 X371.220 Y364.630 E65.5059
G1 X371.220 Y366.630 E65.7316
G1 X383.780 Y366.630 E67.1492
G1 X383.780 Y368.630 E67.3749
G1 X371.220 Y368.630 E68.7925
G1 X371.220 Y370.630 E69.0182
G1 X383.780 Y370.630 E70.4358
G1 X383.780 Y372.630 E70.6615
G1 X371.220 Y372.630 E72.0790
G1 X371.220 Y374.630 E72.3048
G1 X383.780 Y374.630 E73.7223
G1 X383.780 Y376.630 E73.9481
G1 X371.220 Y376.630 E75.3656
G1 X371.220 Y378.630 E75.5914
G1 X383.780 Y378.630 E77.0089
G1 X383.780 Y380.630 E77.2346
G1 X371.220 Y380.630 E78.6522
G1 X371.220 Y382.630 E78.8779
G1 X383.780 Y382.630 E80.2955
G1 X383.780 Y384.630 E80.5212
G1 X371.220 Y384.630 E81.9388
G1 X371.220 Y386.630 E82.1645
G1 X383.780 Y386.630 E83.5821
G1 X383.780 Y388.630 E83.8078
G1 X371.220 Y388.630 E85.2254
G1 X371.220 Y390.630 E85.4511
G1 X383.780 Y390.630 E86.8687
G1 X383.780 Y392.630 E87.0944
G1 X371.220 Y392.630 E88.5119
G1 X371.220 Y394.630 E88.7377
G1 X383.780 Y394.630 E90.1552
G1 X383.780 Y396.630 E90.3810
G1 X371.220 Y396.630 E91.7985
G1 X371.220 Y398.630 E92.0243
G1 X383.780 Y398.630 E93.4418
G1 X383.780 Y400.630 E93.6675
G1 X371.220 Y400.630 E95.0851
G1 X371.220 Y402.630 E95.3108
G1 X383.780 Y402.630 E96.7284
G1 X383.780 Y404.630 E96.9541
G1 X371.220 Y404.630 E98.3717
G1 X371.220 Y406.630 E98.5974
G1 X383.780 Y406.630 E100.0150
G1 X383.780 Y408.630 E100.2407
G1 X371.220 Y408.630 E101.6583
G1 X371.220 Y410.630 E101.8840
G1 X383.780 Y410.630 E103.3016
G1 X383.780 Y412.630 E103.5273
G1 X371.220 Y412.630 E104.9449
G1 X371.220 Y414.630 E105.1706
G1 X383.780 Y414.630 E106.5881
G1 X383.780 Y416.630 E106.8139
G1 X371.220 Y416.630 E108.2314
G1 X371.220 Y418.630 E108.4572
G1 X383.780 Y418.630 E109.8747
G1 X383.780 Y420.630 E110.1004
G1 X371.220 Y420.630 E111.5180
G1 X371.220 Y422.630 E111.7437
G1 X383.780 Y422.630 E113.1613
G1 X383.780 Y424.630 E113.3870
G1 X371.220 Y424.630 E114.8046
G1 X371.220 Y426.630 E115.0303
G1 X383.780 Y426.630 E116.4479
G1 X383.780 Y428.630 E116.6736
G1 X371.220 Y428.630 E118.0912
G1 X371.220 Y430.630 E118.3169
G1 X383.780 Y430.630 E119.7345
G1 X383.780 Y432.630 E119.9602
G1 X371.220 Y432.630 E121.3778
G1 X371.220 Y434.630 E121.6035
G1 X383.780 Y434.630 E123.0210
G1 X383.780 Y436.630 E123.2468
G1 X371.220 Y436.630 E124.6643
G1 X371.220 Y438.630 E124.8901
G1 X383.780 Y438.630 E126.3076
G1 X383.780 Y440.630 E126.5334
G1 X371.220 Y440.630 E127.9509
G1 X371.220 Y442.630 E128.1766
G1 X383.780 Y442.630 E129.5942
G1 X383.780 Y444.630 E129.8199
G1 X371.220 Y444.630 E131.2375
G1 X371.220 Y446.630 E131.4632
G1 X383.780 Y446.630 E132.8808
G1 X383.780 Y448.630 E133.1065
G1 X371.220 Y448.630 E134.5241
G1 X371.220 Y450.630 E134.7498
G1 X383.780 Y450.630 E136.1674
G1 X383.780 Y452.630 E136.3931
G1 X371.220 Y452.630 E137.8107
G1 X371.220 Y454.630 E138.0364
G1 X383.780 Y454.630 E139.4539
G1 X383.780 Y456.630 E139.6797
G1 X371.220 Y456.630 E141.0972
G1 X371.220 Y458.630 E141.3230
G1 X383.780 Y458.630 E142.7405
G1 X383.780 Y460.630 E142.9663
G1 X371.220 Y460.630 E144.3838
G1 X371.220 Y462.630 E144.6095
G1 X383.780 Y462.630 E146.0271
G1 X383.780 Y464.630 E146.2528
G1 X371.220 Y464.630 E147.6704
G1 X371.220 Y466.630 E147.8961
G1 X383.780 Y466.630 E149.3137
G1 X383.780 Y468.630 E149.5394
G1 X371.220 Y468.630 E150.9570
G1 X371.220 Y470.630 E151.1827
G1 X383.780 Y470.630 E152.6003
G1 X383.780 Y472.630 E152.8260
G1 X371.220 Y472.630 E154.2436
G1 X371.220 Y474.630 E154.4693
G1 X383.780 Y474.630 E155.8869
G1 X383.780 Y476.630 E156.1126
G1 X371.220 Y476.630 E157.5301
G1 X371.220 Y478.630 E157.7559
G1 X383.780 Y478.630 E159.1734
G92 E0.0000
G1 E-1.0000 F1800
; feature outer perimeter
G1 Z1.400 F1000
G1 X412.767 Y478.790 F5000
G1 Z0.600 F1000
G1 E0.0000 F1800
G92 E0.0000
G1 X412.767 Y286.470 E21.7059 F2000
G1 X425.567 Y286.470 E23.1505
G1 X425.567 Y478.790 E44.8564
G1 X412.767 Y478.790 E46.3011
G92 E0.0000
G1 E-1.0000 F1800
; feature infill
G1 Z1.400 F1000
G1 X425.447 Y478.630 F5000
G1 Z0.600 F1000
G1 E0.0000 F1800
G92 E0.0000
G1 X412.887 Y478.630 E1.4176 F2500
G1 X412.887 Y476.630 E1.6433
G1 X425.447 Y476.630 E3.0609
G1 X425.447 Y474.630 E3.2866
G1 X412.887 Y474.630 E4.7041
G1 X412.887 Y472.630 E4.9299
G1 X425.447 Y472.630 E6.3474
G1 X425.447 Y470.630 E6.5732
G1 X412.887 Y470.630 E7.9907
G1 X412.887 Y468.630 E8.2165
G1 X425.447 Y468.630 E9.6340
G1 X425.447 Y466.630 E9.8597
G1 X412.887 Y466.630 E11.2773
G1 X412.887 Y464.630 E11.5030
G1 X425.447 Y464.630 E12.9206
G1 X425.447 Y462.630 E13.1463
G1 X412.887 Y462.630 E14.5639
G1 X412.887 Y460.630 E14.7896
G1 X425.447 Y460.630 E16.2072
G1 X425.447 Y458.630 E16.4329
G1 X412.887 Y458.630 E17.8505
G1 X412.887 Y456.630 E18.0762
G1 X425.447 Y456.630 E19.4938
G1 X425.447 Y454.630 E19.7195
G1 X412.887 Y454.630 E21.1370
G1 X412.887 Y452.630 E21.3628
G1 X425.447 Y452.630 E22.7803
G1 X425.447 Y450.630 E23.0061
G1 X412.887 Y450.630 E24.4236
G1 X412.887 Y448.630 E24.6494
G1 X425.447 Y448.630 E26.0669
G1 X425.447 Y446.630 E26.2926
G1 X412.887 Y446.630 E27.7102
G1 X412.887 Y444.630 E27.9359
G1 X425.447 Y444.630 E29.3535
G1 X425.447 Y442.630 E29.5792
G1 X412.887 Y442.630 E30.9968
G1 X412.887 Y440.630 E31.2225
G1 X425.447 Y440.630 E32.6401
G1 X425.447 Y438.630 E32.8658
G1 X412.887 Y438.630 E34.2834
G1 X412.887 Y436.630 E34.5091
G1 X425.447 Y436.630 E35.9267
G1 X425.447 Y434.630 E36.1524
G1 X412.887 Y434.630 E37.5699
G1 X412.887 Y432.630 E37.7957
G1 X425.447 Y432.630 E39.2132
G1 X425.447 Y430.630 E39.4390
G1 X412.887 Y430.630 E40.8565
G1 X412.887 Y428.630 E41.0823
G1 X425.447 Y428.630 E42.4998
G1 X425.447 Y426.630 E42.7255
G1 X412.887 Y426.630 E44.1431
G1 X412.887 Y424.630 E44.3688
G1 X425.447 Y424.630 E45.7864
G1 X425.447 Y422.630 E46.0121
G1 X412.887 Y422.630 E47.4297
G1 X412.887 Y420.630 E47.6554
G1 X425.447 Y420.630 E49.0730
G1 X425.447 Y418.630 E49.2987
G1 X412.887 Y418.630 E50.7163
G1 X412.887 Y416.630 E50.9420
G1 X425.447 Y416.630 E52.3596
G1 X425.447 Y414.630 E52.5853
G1 X412.887 Y414.630 E54.0029
G1 X412.887 Y412.630 E54.2286
G1 X425.447 Y412.630 E55.6461
G1 X425.447 Y410.630 E55.8719
G1 X412.887 Y410.630 E57.2894
G1 X412.887 Y408.630 E57.5152
G1 X425.447 Y408.630 E58.9327
G1 X425.447 Y406.630 E59.1585
G1 X412.887 Y406.630 E60.5760
